(G-CODE GENERATED BY FLATCAM v8.991 - www.flatcam.org - Version Date: 2019/12/27)

(Name: Corte_placa)
(Type: G-code from Geometry)
(Units: MM)

(Created on Monday, 30 March 2026 at 20:00)

(TOOL DIAMETER: 2.0 mm)
(Feedrate: 70.0 mm/min)
(Feedrate_Z: 60.0 mm/min)
(Feedrate rapids 1500.0 mm/min)

(Z_Cut: -3.5 mm)
(DepthPerCut: 0.6 mm <=>6 passes)
(Z_Move: 2.0 mm)
(Z Toolchange: 15.0 mm)
(X,Y Toolchange: 0.0000, 0.0000 mm)
(Z Start: None mm)
(Z End: 18.0 mm)
(Steps per circle: 64)
(Preprocessor Geometry: default)

(X range:   -3.8365 ...   53.5510  mm)
(Y range:   -4.1033 ...   65.7303  mm)

(Spindle Speed: None RPM)
G21
G90
G94




G01 F70.00
G00 Z2.0000

M03
G00 X49.5510 Y-4.1033
G01 F60.00
G01 Z-0.6000
G01 F70.00
G01 X0.1635 Y-4.1033
G01 X-0.2286 Y-4.0840
G01 X-0.6169 Y-4.0264
G01 X-0.9976 Y-3.9310
G01 X-1.3672 Y-3.7988
G01 X-1.7221 Y-3.6309
G01 X-2.0588 Y-3.4291
G01 X-2.3741 Y-3.1953
G01 X-2.6649 Y-2.9317
G01 X-2.9285 Y-2.6408
G01 X-3.1624 Y-2.3255
G01 X-3.3642 Y-1.9888
G01 X-3.5320 Y-1.6340
G01 X-3.6643 Y-1.2644
G01 X-3.7596 Y-0.8836
G01 X-3.8172 Y-0.4953
G01 X-3.8365 Y-0.1033
G01 X-3.8365 Y61.7303
G01 X-3.8172 Y62.1223
G01 X-3.7596 Y62.5106
G01 X-3.6643 Y62.8914
G01 X-3.5320 Y63.2610
G01 X-3.3642 Y63.6158
G01 X-3.1624 Y63.9525
G01 X-2.9285 Y64.2678
G01 X-2.6649 Y64.5587
G01 X-2.3741 Y64.8223
G01 X-2.0588 Y65.0561
G01 X-1.7221 Y65.2579
G01 X-1.3672 Y65.4258
G01 X-0.9976 Y65.5580
G01 X-0.6169 Y65.6534
G01 X-0.2286 Y65.7110
G01 X0.1635 Y65.7303
G01 X49.5510 Y65.7303
G01 X49.9431 Y65.7110
G01 X50.3314 Y65.6534
G01 X50.7121 Y65.5580
G01 X51.0817 Y65.4258
G01 X51.4366 Y65.2579
G01 X51.7733 Y65.0561
G01 X52.0886 Y64.8223
G01 X52.3794 Y64.5587
G01 X52.6430 Y64.2678
G01 X52.8769 Y63.9525
G01 X53.0787 Y63.6158
G01 X53.2465 Y63.2610
G01 X53.3788 Y62.8914
G01 X53.4741 Y62.5106
G01 X53.5317 Y62.1223
G01 X53.5510 Y61.7303
G01 X53.5510 Y-0.1033
G01 X53.5317 Y-0.4953
G01 X53.4741 Y-0.8836
G01 X53.3788 Y-1.2644
G01 X53.2465 Y-1.6340
G01 X53.0787 Y-1.9888
G01 X52.8769 Y-2.3255
G01 X52.6430 Y-2.6408
G01 X52.3794 Y-2.9317
G01 X52.0886 Y-3.1953
G01 X51.7733 Y-3.4291
G01 X51.4366 Y-3.6309
G01 X51.0817 Y-3.7988
G01 X50.7121 Y-3.9310
G01 X50.3314 Y-4.0264
G01 X49.9431 Y-4.0840
G01 X49.5510 Y-4.1033
G00 X49.5510 Y-4.1033
G01 F60.00
G01 Z-1.2000
G01 F70.00
G01 X0.1635 Y-4.1033
G01 X-0.2286 Y-4.0840
G01 X-0.6169 Y-4.0264
G01 X-0.9976 Y-3.9310
G01 X-1.3672 Y-3.7988
G01 X-1.7221 Y-3.6309
G01 X-2.0588 Y-3.4291
G01 X-2.3741 Y-3.1953
G01 X-2.6649 Y-2.9317
G01 X-2.9285 Y-2.6408
G01 X-3.1624 Y-2.3255
G01 X-3.3642 Y-1.9888
G01 X-3.5320 Y-1.6340
G01 X-3.6643 Y-1.2644
G01 X-3.7596 Y-0.8836
G01 X-3.8172 Y-0.4953
G01 X-3.8365 Y-0.1033
G01 X-3.8365 Y61.7303
G01 X-3.8172 Y62.1223
G01 X-3.7596 Y62.5106
G01 X-3.6643 Y62.8914
G01 X-3.5320 Y63.2610
G01 X-3.3642 Y63.6158
G01 X-3.1624 Y63.9525
G01 X-2.9285 Y64.2678
G01 X-2.6649 Y64.5587
G01 X-2.3741 Y64.8223
G01 X-2.0588 Y65.0561
G01 X-1.7221 Y65.2579
G01 X-1.3672 Y65.4258
G01 X-0.9976 Y65.5580
G01 X-0.6169 Y65.6534
G01 X-0.2286 Y65.7110
G01 X0.1635 Y65.7303
G01 X49.5510 Y65.7303
G01 X49.9431 Y65.7110
G01 X50.3314 Y65.6534
G01 X50.7121 Y65.5580
G01 X51.0817 Y65.4258
G01 X51.4366 Y65.2579
G01 X51.7733 Y65.0561
G01 X52.0886 Y64.8223
G01 X52.3794 Y64.5587
G01 X52.6430 Y64.2678
G01 X52.8769 Y63.9525
G01 X53.0787 Y63.6158
G01 X53.2465 Y63.2610
G01 X53.3788 Y62.8914
G01 X53.4741 Y62.5106
G01 X53.5317 Y62.1223
G01 X53.5510 Y61.7303
G01 X53.5510 Y-0.1033
G01 X53.5317 Y-0.4953
G01 X53.4741 Y-0.8836
G01 X53.3788 Y-1.2644
G01 X53.2465 Y-1.6340
G01 X53.0787 Y-1.9888
G01 X52.8769 Y-2.3255
G01 X52.6430 Y-2.6408
G01 X52.3794 Y-2.9317
G01 X52.0886 Y-3.1953
G01 X51.7733 Y-3.4291
G01 X51.4366 Y-3.6309
G01 X51.0817 Y-3.7988
G01 X50.7121 Y-3.9310
G01 X50.3314 Y-4.0264
G01 X49.9431 Y-4.0840
G01 X49.5510 Y-4.1033
G00 X49.5510 Y-4.1033
G01 F60.00
G01 Z-1.8000
G01 F70.00
G01 X0.1635 Y-4.1033
G01 X-0.2286 Y-4.0840
G01 X-0.6169 Y-4.0264
G01 X-0.9976 Y-3.9310
G01 X-1.3672 Y-3.7988
G01 X-1.7221 Y-3.6309
G01 X-2.0588 Y-3.4291
G01 X-2.3741 Y-3.1953
G01 X-2.6649 Y-2.9317
G01 X-2.9285 Y-2.6408
G01 X-3.1624 Y-2.3255
G01 X-3.3642 Y-1.9888
G01 X-3.5320 Y-1.6340
G01 X-3.6643 Y-1.2644
G01 X-3.7596 Y-0.8836
G01 X-3.8172 Y-0.4953
G01 X-3.8365 Y-0.1033
G01 X-3.8365 Y61.7303
G01 X-3.8172 Y62.1223
G01 X-3.7596 Y62.5106
G01 X-3.6643 Y62.8914
G01 X-3.5320 Y63.2610
G01 X-3.3642 Y63.6158
G01 X-3.1624 Y63.9525
G01 X-2.9285 Y64.2678
G01 X-2.6649 Y64.5587
G01 X-2.3741 Y64.8223
G01 X-2.0588 Y65.0561
G01 X-1.7221 Y65.2579
G01 X-1.3672 Y65.4258
G01 X-0.9976 Y65.5580
G01 X-0.6169 Y65.6534
G01 X-0.2286 Y65.7110
G01 X0.1635 Y65.7303
G01 X49.5510 Y65.7303
G01 X49.9431 Y65.7110
G01 X50.3314 Y65.6534
G01 X50.7121 Y65.5580
G01 X51.0817 Y65.4258
G01 X51.4366 Y65.2579
G01 X51.7733 Y65.0561
G01 X52.0886 Y64.8223
G01 X52.3794 Y64.5587
G01 X52.6430 Y64.2678
G01 X52.8769 Y63.9525
G01 X53.0787 Y63.6158
G01 X53.2465 Y63.2610
G01 X53.3788 Y62.8914
G01 X53.4741 Y62.5106
G01 X53.5317 Y62.1223
G01 X53.5510 Y61.7303
G01 X53.5510 Y-0.1033
G01 X53.5317 Y-0.4953
G01 X53.4741 Y-0.8836
G01 X53.3788 Y-1.2644
G01 X53.2465 Y-1.6340
G01 X53.0787 Y-1.9888
G01 X52.8769 Y-2.3255
G01 X52.6430 Y-2.6408
G01 X52.3794 Y-2.9317
G01 X52.0886 Y-3.1953
G01 X51.7733 Y-3.4291
G01 X51.4366 Y-3.6309
G01 X51.0817 Y-3.7988
G01 X50.7121 Y-3.9310
G01 X50.3314 Y-4.0264
G01 X49.9431 Y-4.0840
G01 X49.5510 Y-4.1033
G00 X49.5510 Y-4.1033
G01 F60.00
G01 Z-2.4000
G01 F70.00
G01 X0.1635 Y-4.1033
G01 X-0.2286 Y-4.0840
G01 X-0.6169 Y-4.0264
G01 X-0.9976 Y-3.9310
G01 X-1.3672 Y-3.7988
G01 X-1.7221 Y-3.6309
G01 X-2.0588 Y-3.4291
G01 X-2.3741 Y-3.1953
G01 X-2.6649 Y-2.9317
G01 X-2.9285 Y-2.6408
G01 X-3.1624 Y-2.3255
G01 X-3.3642 Y-1.9888
G01 X-3.5320 Y-1.6340
G01 X-3.6643 Y-1.2644
G01 X-3.7596 Y-0.8836
G01 X-3.8172 Y-0.4953
G01 X-3.8365 Y-0.1033
G01 X-3.8365 Y61.7303
G01 X-3.8172 Y62.1223
G01 X-3.7596 Y62.5106
G01 X-3.6643 Y62.8914
G01 X-3.5320 Y63.2610
G01 X-3.3642 Y63.6158
G01 X-3.1624 Y63.9525
G01 X-2.9285 Y64.2678
G01 X-2.6649 Y64.5587
G01 X-2.3741 Y64.8223
G01 X-2.0588 Y65.0561
G01 X-1.7221 Y65.2579
G01 X-1.3672 Y65.4258
G01 X-0.9976 Y65.5580
G01 X-0.6169 Y65.6534
G01 X-0.2286 Y65.7110
G01 X0.1635 Y65.7303
G01 X49.5510 Y65.7303
G01 X49.9431 Y65.7110
G01 X50.3314 Y65.6534
G01 X50.7121 Y65.5580
G01 X51.0817 Y65.4258
G01 X51.4366 Y65.2579
G01 X51.7733 Y65.0561
G01 X52.0886 Y64.8223
G01 X52.3794 Y64.5587
G01 X52.6430 Y64.2678
G01 X52.8769 Y63.9525
G01 X53.0787 Y63.6158
G01 X53.2465 Y63.2610
G01 X53.3788 Y62.8914
G01 X53.4741 Y62.5106
G01 X53.5317 Y62.1223
G01 X53.5510 Y61.7303
G01 X53.5510 Y-0.1033
G01 X53.5317 Y-0.4953
G01 X53.4741 Y-0.8836
G01 X53.3788 Y-1.2644
G01 X53.2465 Y-1.6340
G01 X53.0787 Y-1.9888
G01 X52.8769 Y-2.3255
G01 X52.6430 Y-2.6408
G01 X52.3794 Y-2.9317
G01 X52.0886 Y-3.1953
G01 X51.7733 Y-3.4291
G01 X51.4366 Y-3.6309
G01 X51.0817 Y-3.7988
G01 X50.7121 Y-3.9310
G01 X50.3314 Y-4.0264
G01 X49.9431 Y-4.0840
G01 X49.5510 Y-4.1033
G00 X49.5510 Y-4.1033
G01 F60.00
G01 Z-3.0000
G01 F70.00
G01 X0.1635 Y-4.1033
G01 X-0.2286 Y-4.0840
G01 X-0.6169 Y-4.0264
G01 X-0.9976 Y-3.9310
G01 X-1.3672 Y-3.7988
G01 X-1.7221 Y-3.6309
G01 X-2.0588 Y-3.4291
G01 X-2.3741 Y-3.1953
G01 X-2.6649 Y-2.9317
G01 X-2.9285 Y-2.6408
G01 X-3.1624 Y-2.3255
G01 X-3.3642 Y-1.9888
G01 X-3.5320 Y-1.6340
G01 X-3.6643 Y-1.2644
G01 X-3.7596 Y-0.8836
G01 X-3.8172 Y-0.4953
G01 X-3.8365 Y-0.1033
G01 X-3.8365 Y61.7303
G01 X-3.8172 Y62.1223
G01 X-3.7596 Y62.5106
G01 X-3.6643 Y62.8914
G01 X-3.5320 Y63.2610
G01 X-3.3642 Y63.6158
G01 X-3.1624 Y63.9525
G01 X-2.9285 Y64.2678
G01 X-2.6649 Y64.5587
G01 X-2.3741 Y64.8223
G01 X-2.0588 Y65.0561
G01 X-1.7221 Y65.2579
G01 X-1.3672 Y65.4258
G01 X-0.9976 Y65.5580
G01 X-0.6169 Y65.6534
G01 X-0.2286 Y65.7110
G01 X0.1635 Y65.7303
G01 X49.5510 Y65.7303
G01 X49.9431 Y65.7110
G01 X50.3314 Y65.6534
G01 X50.7121 Y65.5580
G01 X51.0817 Y65.4258
G01 X51.4366 Y65.2579
G01 X51.7733 Y65.0561
G01 X52.0886 Y64.8223
G01 X52.3794 Y64.5587
G01 X52.6430 Y64.2678
G01 X52.8769 Y63.9525
G01 X53.0787 Y63.6158
G01 X53.2465 Y63.2610
G01 X53.3788 Y62.8914
G01 X53.4741 Y62.5106
G01 X53.5317 Y62.1223
G01 X53.5510 Y61.7303
G01 X53.5510 Y-0.1033
G01 X53.5317 Y-0.4953
G01 X53.4741 Y-0.8836
G01 X53.3788 Y-1.2644
G01 X53.2465 Y-1.6340
G01 X53.0787 Y-1.9888
G01 X52.8769 Y-2.3255
G01 X52.6430 Y-2.6408
G01 X52.3794 Y-2.9317
G01 X52.0886 Y-3.1953
G01 X51.7733 Y-3.4291
G01 X51.4366 Y-3.6309
G01 X51.0817 Y-3.7988
G01 X50.7121 Y-3.9310
G01 X50.3314 Y-4.0264
G01 X49.9431 Y-4.0840
G01 X49.5510 Y-4.1033
G00 X49.5510 Y-4.1033
G01 F60.00
G01 Z-3.5000
G01 F70.00
G01 X0.1635 Y-4.1033
G01 X-0.2286 Y-4.0840
G01 X-0.6169 Y-4.0264
G01 X-0.9976 Y-3.9310
G01 X-1.3672 Y-3.7988
G01 X-1.7221 Y-3.6309
G01 X-2.0588 Y-3.4291
G01 X-2.3741 Y-3.1953
G01 X-2.6649 Y-2.9317
G01 X-2.9285 Y-2.6408
G01 X-3.1624 Y-2.3255
G01 X-3.3642 Y-1.9888
G01 X-3.5320 Y-1.6340
G01 X-3.6643 Y-1.2644
G01 X-3.7596 Y-0.8836
G01 X-3.8172 Y-0.4953
G01 X-3.8365 Y-0.1033
G01 X-3.8365 Y61.7303
G01 X-3.8172 Y62.1223
G01 X-3.7596 Y62.5106
G01 X-3.6643 Y62.8914
G01 X-3.5320 Y63.2610
G01 X-3.3642 Y63.6158
G01 X-3.1624 Y63.9525
G01 X-2.9285 Y64.2678
G01 X-2.6649 Y64.5587
G01 X-2.3741 Y64.8223
G01 X-2.0588 Y65.0561
G01 X-1.7221 Y65.2579
G01 X-1.3672 Y65.4258
G01 X-0.9976 Y65.5580
G01 X-0.6169 Y65.6534
G01 X-0.2286 Y65.7110
G01 X0.1635 Y65.7303
G01 X49.5510 Y65.7303
G01 X49.9431 Y65.7110
G01 X50.3314 Y65.6534
G01 X50.7121 Y65.5580
G01 X51.0817 Y65.4258
G01 X51.4366 Y65.2579
G01 X51.7733 Y65.0561
G01 X52.0886 Y64.8223
G01 X52.3794 Y64.5587
G01 X52.6430 Y64.2678
G01 X52.8769 Y63.9525
G01 X53.0787 Y63.6158
G01 X53.2465 Y63.2610
G01 X53.3788 Y62.8914
G01 X53.4741 Y62.5106
G01 X53.5317 Y62.1223
G01 X53.5510 Y61.7303
G01 X53.5510 Y-0.1033
G01 X53.5317 Y-0.4953
G01 X53.4741 Y-0.8836
G01 X53.3788 Y-1.2644
G01 X53.2465 Y-1.6340
G01 X53.0787 Y-1.9888
G01 X52.8769 Y-2.3255
G01 X52.6430 Y-2.6408
G01 X52.3794 Y-2.9317
G01 X52.0886 Y-3.1953
G01 X51.7733 Y-3.4291
G01 X51.4366 Y-3.6309
G01 X51.0817 Y-3.7988
G01 X50.7121 Y-3.9310
G01 X50.3314 Y-4.0264
G01 X49.9431 Y-4.0840
G01 X49.5510 Y-4.1033
G00 Z2.0000
M05
G00 Z2.0000
G00 Z18.00
G00 X0.0 Y0.0

