(G-CODE GENERATED BY FLATCAM v8.991 - www.flatcam.org - Version Date: 2019/12/27)

(Name: Huecos_esquinas)
(Type: G-code from Excellon)
(Units: MM)

(Created on Monday, 30 March 2026 at 19:58)

(Feedrate: 60.0 mm/min)
(Feedrate rapids 1500.0 mm/min)

(Z_Cut: -3.5 mm)
(Z_Move: 3.0 mm)
(Z Toolchange: 15.0 mm)
(X,Y Toolchange: 0.0000, 0.0000 mm)
(Z Start: None mm)
(Z End: 18.0 mm)
(Steps per circle: 64)
(Preprocessor Excellon: default)

(X range:    2.5848 ...   51.5553  mm)
(Y range:    1.0480 ...   60.9600  mm)

(Spindle Speed: None RPM)
G21
G90
G94




G01 F60.00
G00 Z3.0000

M03
G00 X3.5848 Y2.3020
G01 Z-3.5000
G01 Z0
G00 Z3.0000
G00 X49.1778 Y2.0480
G01 Z-3.5000
G01 Z0
G00 Z3.0000
G00 X11.4588 Y59.9600
G01 Z-3.5000
G01 Z0
G00 Z3.0000
M03
G00 X49.3048 Y56.2770
G01 Z-3.5000
G01 Z0
G00 Z3.0000
M05
G00 Z18.00
G00 X0.0 Y0.0

