(G-CODE GENERATED BY FLATCAM v8.991 - www.flatcam.org - Version Date: 2019/12/27)

(Name: Huecos_pistas)
(Type: G-code from Excellon)
(Units: MM)

(Created on Monday, 30 March 2026 at 19:56)

(Feedrate: 60.0 mm/min)
(Feedrate rapids 1500.0 mm/min)

(Z_Cut: -3.0 mm)
(Z_Move: 3.0 mm)
(Z Toolchange: 15.0 mm)
(X,Y Toolchange: 0.0000, 0.0000 mm)
(Z Start: None mm)
(Z End: 18.0 mm)
(Steps per circle: 64)
(Preprocessor Excellon: default)

(X range:    1.2293 ...   47.0883  mm)
(Y range:    2.9945 ...   59.2675  mm)

(Spindle Speed: 800.0 RPM)
G21
G90
G94




G01 F60.00
G00 Z3.0000

M03 S800.0
G00 X32.4138 Y58.8170
G01 Z-3.0000
G01 Z0
G00 Z3.0000
G00 X32.4138 Y56.2770
G01 Z-3.0000
G01 Z0
G00 Z3.0000
G00 X32.4138 Y53.7370
G01 Z-3.0000
G01 Z0
G00 Z3.0000
G00 X28.3138 Y51.5780
G01 Z-3.0000
G01 Z0
G00 Z3.0000
G00 X28.3138 Y49.0380
G01 Z-3.0000
G01 Z0
G00 Z3.0000
G00 X28.3138 Y46.4980
G01 Z-3.0000
G01 Z0
G00 Z3.0000
G00 X28.3138 Y43.9580
G01 Z-3.0000
G01 Z0
G00 Z3.0000
G00 X28.3138 Y41.4190
G01 Z-3.0000
G01 Z0
G00 Z3.0000
G00 X28.3138 Y38.8780
G01 Z-3.0000
G01 Z0
G00 Z3.0000
G00 X28.3138 Y36.3390
G01 Z-3.0000
G01 Z0
G00 Z3.0000
G00 X28.3138 Y33.7980
G01 Z-3.0000
G01 Z0
G00 Z3.0000
G00 X28.3138 Y31.2590
G01 Z-3.0000
G01 Z0
G00 Z3.0000
G00 X28.3138 Y28.7180
G01 Z-3.0000
G01 Z0
G00 Z3.0000
G00 X28.3138 Y26.1790
G01 Z-3.0000
G01 Z0
G00 Z3.0000
G00 X28.3138 Y23.6380
G01 Z-3.0000
G01 Z0
G00 Z3.0000
G00 X28.3138 Y21.0990
G01 Z-3.0000
G01 Z0
G00 Z3.0000
G00 X28.3138 Y18.5580
G01 Z-3.0000
G01 Z0
G00 Z3.0000
G00 X28.3138 Y16.0180
G01 Z-3.0000
G01 Z0
G00 Z3.0000
G00 X32.2868 Y23.6380
G01 Z-3.0000
G01 Z0
G00 Z3.0000
G00 X32.2868 Y26.1780
G01 Z-3.0000
G01 Z0
G00 Z3.0000
G00 X32.2868 Y28.7180
G01 Z-3.0000
G01 Z0
G00 Z3.0000
G00 X32.2868 Y31.2580
G01 Z-3.0000
G01 Z0
G00 Z3.0000
G00 X32.2868 Y33.7980
G01 Z-3.0000
G01 Z0
G00 Z3.0000
G00 X32.2868 Y36.3380
G01 Z-3.0000
G01 Z0
G00 Z3.0000
G00 X32.2868 Y38.8780
G01 Z-3.0000
G01 Z0
G00 Z3.0000
G00 X32.2868 Y41.4180
G01 Z-3.0000
G01 Z0
G00 Z3.0000
G00 X32.2868 Y43.9580
G01 Z-3.0000
G01 Z0
G00 Z3.0000
G00 X39.9068 Y41.4180
G01 Z-3.0000
G01 Z0
G00 Z3.0000
G00 X39.9068 Y43.9580
G01 Z-3.0000
G01 Z0
G00 Z3.0000
G00 X46.6378 Y43.8780
G01 Z-3.0000
G01 Z0
G00 Z3.0000
G00 X46.6378 Y41.3780
G01 Z-3.0000
G01 Z0
G00 Z3.0000
G00 X46.6378 Y38.8780
G01 Z-3.0000
G01 Z0
G00 Z3.0000
G00 X46.6378 Y36.3780
G01 Z-3.0000
G01 Z0
G00 Z3.0000
G00 X46.6378 Y33.8780
G01 Z-3.0000
G01 Z0
G00 Z3.0000
G00 X39.9068 Y38.8780
G01 Z-3.0000
G01 Z0
G00 Z3.0000
G00 X39.9068 Y36.3380
G01 Z-3.0000
G01 Z0
G00 Z3.0000
G00 X39.9068 Y33.7980
G01 Z-3.0000
G01 Z0
G00 Z3.0000
G00 X39.9068 Y31.2580
G01 Z-3.0000
G01 Z0
G00 Z3.0000
G00 X39.9068 Y28.7180
G01 Z-3.0000
G01 Z0
G00 Z3.0000
G00 X39.9068 Y26.1780
G01 Z-3.0000
G01 Z0
G00 Z3.0000
G00 X39.9068 Y23.6380
G01 Z-3.0000
G01 Z0
G00 Z3.0000
G00 X46.6378 Y28.5110
G01 Z-3.0000
G01 Z0
G00 Z3.0000
G00 X46.6378 Y26.0110
G01 Z-3.0000
G01 Z0
G00 Z3.0000
G00 X46.6378 Y23.5110
G01 Z-3.0000
G01 Z0
G00 Z3.0000
G00 X46.6378 Y21.0110
G01 Z-3.0000
G01 Z0
G00 Z3.0000
G00 X46.6378 Y18.5110
G01 Z-3.0000
G01 Z0
G00 Z3.0000
G00 X35.8298 Y3.4450
G01 Z-3.0000
G01 Z0
G00 Z3.0000
G00 X33.3298 Y3.4450
G01 Z-3.0000
G01 Z0
G00 Z3.0000
G00 X30.8298 Y3.4450
G01 Z-3.0000
G01 Z0
G00 Z3.0000
G00 X28.3298 Y3.4450
G01 Z-3.0000
G01 Z0
G00 Z3.0000
G00 X25.8298 Y3.4450
G01 Z-3.0000
G01 Z0
G00 Z3.0000
G00 X23.3298 Y3.4450
G01 Z-3.0000
G01 Z0
G00 Z3.0000
G00 X20.8298 Y3.4450
G01 Z-3.0000
G01 Z0
G00 Z3.0000
G00 X18.3298 Y3.4450
G01 Z-3.0000
G01 Z0
G00 Z3.0000
G00 X13.0738 Y16.0180
G01 Z-3.0000
G01 Z0
G00 Z3.0000
G00 X13.0738 Y18.5570
G01 Z-3.0000
G01 Z0
G00 Z3.0000
G00 X13.0738 Y21.0980
G01 Z-3.0000
G01 Z0
G00 Z3.0000
G00 X13.0738 Y23.6370
G01 Z-3.0000
G01 Z0
G00 Z3.0000
G00 X13.0738 Y26.1780
G01 Z-3.0000
G01 Z0
G00 Z3.0000
G00 X13.0738 Y28.7170
G01 Z-3.0000
G01 Z0
G00 Z3.0000
G00 X13.0738 Y31.2580
G01 Z-3.0000
G01 Z0
G00 Z3.0000
G00 X13.0738 Y33.7970
G01 Z-3.0000
G01 Z0
G00 Z3.0000
G00 X13.0738 Y36.3380
G01 Z-3.0000
G01 Z0
G00 Z3.0000
G00 X13.0738 Y38.8770
G01 Z-3.0000
G01 Z0
G00 Z3.0000
G00 X13.0738 Y41.4180
G01 Z-3.0000
G01 Z0
G00 Z3.0000
G00 X13.0738 Y43.9570
G01 Z-3.0000
G01 Z0
G00 Z3.0000
G00 X1.8068 Y36.9730
G01 Z-3.0000
G01 Z0
G00 Z3.0000
G00 X1.8068 Y42.3070
G01 Z-3.0000
G01 Z0
G00 Z3.0000
G00 X1.6798 Y53.6100
G01 Z-3.0000
G01 Z0
G00 Z3.0000
G00 X6.7598 Y53.6100
G01 Z-3.0000
G01 Z0
G00 Z3.0000
G00 X13.0738 Y51.5780
G01 Z-3.0000
G01 Z0
G00 Z3.0000
G00 X13.0738 Y49.0380
G01 Z-3.0000
G01 Z0
G00 Z3.0000
G00 X13.0738 Y46.4980
G01 Z-3.0000
G01 Z0
G00 Z3.0000
M05
G00 Z18.00
G00 X0.0 Y0.0

