(G-CODE GENERATED BY FLATCAM v8.991 - www.flatcam.org - Version Date: 2019/12/27)

(Name: Pistas)
(Type: G-code from Geometry)
(Units: MM)

(Created on Monday, 30 March 2026 at 19:54)

(TOOL DIAMETER: 0.2322 mm)
(Feedrate: 70.0 mm/min)
(Feedrate_Z: 60.0 mm/min)
(Feedrate rapids 1500.0 mm/min)

(Z_Cut: -0.06 mm)
(Z_Move: 2.0 mm)
(Z Toolchange: 15.0 mm)
(X,Y Toolchange: 0.0000, 0.0000 mm)
(Z Start: None mm)
(Z End: 18.0 mm)
(Steps per circle: 64)
(Preprocessor Geometry: default)

(X range:   -0.1612 ...   49.8761  mm)
(Y range:   -0.4283 ...   62.0549  mm)

(Spindle Speed: None RPM)
G21
G90
G94




G01 F70.00
G00 Z2.0000

M03
G00 X3.2088 Y7.1153
G01 F60.00
G01 Z-0.0600
G01 F70.00
G01 X3.2407 Y7.1169
G01 X3.2722 Y7.1216
G01 X3.3032 Y7.1293
G01 X3.3332 Y7.1401
G01 X3.3621 Y7.1537
G01 X3.3894 Y7.1701
G01 X3.4151 Y7.1891
G01 X3.4387 Y7.2106
G01 X3.4601 Y7.2342
G01 X3.4791 Y7.2598
G01 X3.4955 Y7.2872
G01 X3.5092 Y7.3160
G01 X3.5199 Y7.3461
G01 X3.5277 Y7.3770
G01 X3.5323 Y7.4086
G01 X3.5339 Y7.4404
G01 X3.5339 Y7.7147
G01 X3.5323 Y7.7466
G01 X3.5277 Y7.7782
G01 X3.5199 Y7.8091
G01 X3.5092 Y7.8391
G01 X3.4955 Y7.8680
G01 X3.4791 Y7.8953
G01 X3.4601 Y7.9210
G01 X3.4387 Y7.9446
G01 X3.4151 Y7.9660
G01 X3.3894 Y7.9850
G01 X3.3621 Y8.0014
G01 X3.3332 Y8.0151
G01 X3.3032 Y8.0258
G01 X3.2722 Y8.0336
G01 X3.2407 Y8.0383
G01 X3.2246 Y8.0390
G01 X3.2694 Y8.0865
G01 X3.2856 Y8.1052
G01 X3.3207 Y8.1489
G01 X3.3312 Y8.1628
G01 X3.3648 Y8.2095
G01 X3.3761 Y8.2264
G01 X3.4076 Y8.2767
G01 X3.4190 Y8.2964
G01 X3.4474 Y8.3497
G01 X3.4574 Y8.3701
G01 X3.4828 Y8.4270
G01 X3.4914 Y8.4482
G01 X3.5132 Y8.5081
G01 X3.5215 Y8.5342
G01 X3.5388 Y8.5977
G01 X3.5439 Y8.6192
G01 X3.5571 Y8.6853
G01 X3.5612 Y8.7113
G01 X3.5693 Y8.7809
G01 X3.5712 Y8.8049
G01 X3.5743 Y8.8771
G01 X3.5744 Y8.8994
G01 X3.5729 Y8.9563
G01 X3.5722 Y8.9714
G01 X3.5681 Y9.0268
G01 X3.5666 Y9.0419
G01 X3.5600 Y9.0968
G01 X3.5572 Y9.1158
G01 X3.5475 Y9.1691
G01 X3.5442 Y9.1850
G01 X3.5320 Y9.2373
G01 X3.5279 Y9.2533
G01 X3.5132 Y9.3046
G01 X3.5044 Y9.3307
G01 X3.4668 Y9.4293
G01 X3.4570 Y9.4524
G01 X3.4346 Y9.4997
G01 X3.4263 Y9.5161
G01 X3.4014 Y9.5618
G01 X3.3930 Y9.5764
G01 X3.3655 Y9.6211
G01 X3.3545 Y9.6379
G01 X3.3245 Y9.6806
G01 X3.3086 Y9.7014
G01 X3.2415 Y9.7822
G01 X3.2189 Y9.8067
G01 X3.1427 Y9.8814
G01 X3.1161 Y9.9048
G01 X3.0307 Y9.9719
G01 X3.0036 Y9.9910
G01 X2.9297 Y10.0378
G01 X2.9458 Y10.0354
G01 X2.9777 Y10.0338
G01 X3.2088 Y10.0338
G01 X3.2407 Y10.0354
G01 X3.2722 Y10.0400
G01 X3.3032 Y10.0478
G01 X3.3332 Y10.0585
G01 X3.3621 Y10.0722
G01 X3.3894 Y10.0886
G01 X3.4151 Y10.1076
G01 X3.4387 Y10.1290
G01 X3.4601 Y10.1527
G01 X3.4791 Y10.1783
G01 X3.4955 Y10.2056
G01 X3.5092 Y10.2345
G01 X3.5199 Y10.2645
G01 X3.5277 Y10.2955
G01 X3.5323 Y10.3270
G01 X3.5339 Y10.3589
G01 X3.5339 Y11.7356
G01 X3.5323 Y11.7674
G01 X3.5277 Y11.7990
G01 X3.5199 Y11.8299
G01 X3.5092 Y11.8600
G01 X3.4955 Y11.8888
G01 X3.4791 Y11.9162
G01 X3.4601 Y11.9418
G01 X3.4479 Y11.9553
G01 X3.4601 Y11.9688
G01 X3.4791 Y11.9944
G01 X3.4955 Y12.0217
G01 X3.5092 Y12.0506
G01 X3.5199 Y12.0806
G01 X3.5277 Y12.1116
G01 X3.5323 Y12.1431
G01 X3.5339 Y12.1750
G01 X3.5339 Y13.9276
G01 X3.5323 Y13.9594
G01 X3.5277 Y13.9910
G01 X3.5199 Y14.0219
G01 X3.5092 Y14.0520
G01 X3.4955 Y14.0808
G01 X3.4791 Y14.1082
G01 X3.4601 Y14.1338
G01 X3.4387 Y14.1574
G01 X3.4151 Y14.1789
G01 X3.3894 Y14.1979
G01 X3.3621 Y14.2143
G01 X3.3332 Y14.2279
G01 X3.3032 Y14.2387
G01 X3.2722 Y14.2464
G01 X3.2407 Y14.2511
G01 X3.2088 Y14.2527
G01 X2.9777 Y14.2527
G01 X2.9458 Y14.2511
G01 X2.9143 Y14.2464
G01 X2.8833 Y14.2387
G01 X2.8533 Y14.2279
G01 X2.8244 Y14.2143
G01 X2.7971 Y14.1979
G01 X2.7715 Y14.1789
G01 X2.7478 Y14.1574
G01 X2.7264 Y14.1338
G01 X2.7074 Y14.1082
G01 X2.6910 Y14.0808
G01 X2.6774 Y14.0520
G01 X2.6666 Y14.0219
G01 X2.6589 Y13.9910
G01 X2.6542 Y13.9594
G01 X2.6526 Y13.9276
G01 X2.6526 Y13.5161
G01 X0.7908 Y13.5161
G01 X0.7589 Y13.5145
G01 X0.7273 Y13.5098
G01 X0.6964 Y13.5021
G01 X0.6663 Y13.4913
G01 X0.6375 Y13.4777
G01 X0.6101 Y13.4613
G01 X0.5845 Y13.4423
G01 X0.5609 Y13.4208
G01 X0.5395 Y13.3972
G01 X0.5205 Y13.3716
G01 X0.5041 Y13.3442
G01 X0.4904 Y13.3154
G01 X0.4797 Y13.2853
G01 X0.4719 Y13.2544
G01 X0.4672 Y13.2228
G01 X0.4657 Y13.1910
G01 X0.4657 Y12.9141
G01 X0.4672 Y12.8823
G01 X0.4719 Y12.8507
G01 X0.4797 Y12.8198
G01 X0.4904 Y12.7897
G01 X0.5041 Y12.7609
G01 X0.5205 Y12.7335
G01 X0.5395 Y12.7079
G01 X0.5609 Y12.6843
G01 X0.5845 Y12.6628
G01 X0.6101 Y12.6438
G01 X0.6375 Y12.6274
G01 X0.6663 Y12.6138
G01 X0.6964 Y12.6030
G01 X0.7273 Y12.5953
G01 X0.7589 Y12.5906
G01 X0.7908 Y12.5890
G01 X2.6526 Y12.5890
G01 X2.6526 Y12.1750
G01 X2.6542 Y12.1431
G01 X2.6589 Y12.1116
G01 X2.6666 Y12.0806
G01 X2.6738 Y12.0606
G01 X0.7908 Y12.0606
G01 X0.7589 Y12.0591
G01 X0.7273 Y12.0544
G01 X0.6964 Y12.0466
G01 X0.6663 Y12.0359
G01 X0.6375 Y12.0223
G01 X0.6101 Y12.0059
G01 X0.5845 Y11.9869
G01 X0.5609 Y11.9654
G01 X0.5395 Y11.9418
G01 X0.5205 Y11.9162
G01 X0.5041 Y11.8888
G01 X0.4904 Y11.8600
G01 X0.4797 Y11.8299
G01 X0.4719 Y11.7990
G01 X0.4672 Y11.7674
G01 X0.4657 Y11.7356
G01 X0.4657 Y10.3233
G01 X0.4672 Y10.2915
G01 X0.4719 Y10.2599
G01 X0.4797 Y10.2290
G01 X0.4904 Y10.1989
G01 X0.5041 Y10.1701
G01 X0.5205 Y10.1427
G01 X0.5395 Y10.1171
G01 X0.5609 Y10.0935
G01 X0.5845 Y10.0720
G01 X0.6101 Y10.0530
G01 X0.6375 Y10.0366
G01 X0.6663 Y10.0230
G01 X0.6964 Y10.0122
G01 X0.7273 Y10.0045
G01 X0.7589 Y9.9998
G01 X0.7908 Y9.9982
G01 X0.9973 Y9.9982
G01 X0.9853 Y9.9903
G01 X0.9677 Y9.9777
G01 X0.8823 Y9.9121
G01 X0.8552 Y9.8888
G01 X0.7790 Y9.8156
G01 X0.7604 Y9.7963
G01 X0.7259 Y9.7572
G01 X0.7093 Y9.7368
G01 X0.6473 Y9.6540
G01 X0.6271 Y9.6236
G01 X0.5753 Y9.5352
G01 X0.5625 Y9.5111
G01 X0.5402 Y9.4643
G01 X0.5332 Y9.4487
G01 X0.5134 Y9.4010
G01 X0.5068 Y9.3838
G01 X0.4896 Y9.3346
G01 X0.4844 Y9.3184
G01 X0.4696 Y9.2681
G01 X0.4653 Y9.2519
G01 X0.4531 Y9.2006
G01 X0.4496 Y9.1839
G01 X0.4400 Y9.1310
G01 X0.4371 Y9.1122
G01 X0.4305 Y9.0584
G01 X0.4290 Y9.0430
G01 X0.4249 Y8.9886
G01 X0.4241 Y8.9733
G01 X0.4226 Y8.9174
G01 X0.4227 Y8.8978
G01 X0.4252 Y8.8211
G01 X0.4268 Y8.7981
G01 X0.4344 Y8.7250
G01 X0.4378 Y8.7011
G01 X0.4505 Y8.6305
G01 X0.4561 Y8.6053
G01 X0.4738 Y8.5378
G01 X0.4808 Y8.5148
G01 X0.5032 Y8.4498
G01 X0.5124 Y8.4260
G01 X0.5393 Y8.3640
G01 X0.5513 Y8.3394
G01 X0.5833 Y8.2800
G01 X0.5961 Y8.2582
G01 X0.6326 Y8.2014
G01 X0.6448 Y8.1837
G01 X0.6855 Y8.1288
G01 X0.7007 Y8.1098
G01 X0.7459 Y8.0574
G01 X0.7637 Y8.0385
G01 X0.7589 Y8.0383
G01 X0.7273 Y8.0336
G01 X0.6964 Y8.0258
G01 X0.6663 Y8.0151
G01 X0.6375 Y8.0014
G01 X0.6101 Y7.9850
G01 X0.5845 Y7.9660
G01 X0.5609 Y7.9446
G01 X0.5395 Y7.9210
G01 X0.5205 Y7.8953
G01 X0.5041 Y7.8680
G01 X0.4904 Y7.8391
G01 X0.4797 Y7.8091
G01 X0.4719 Y7.7782
G01 X0.4672 Y7.7466
G01 X0.4657 Y7.7147
G01 X0.4657 Y7.4404
G01 X0.4672 Y7.4086
G01 X0.4719 Y7.3770
G01 X0.4797 Y7.3461
G01 X0.4904 Y7.3160
G01 X0.5041 Y7.2872
G01 X0.5205 Y7.2598
G01 X0.5395 Y7.2342
G01 X0.5609 Y7.2106
G01 X0.5845 Y7.1891
G01 X0.6101 Y7.1701
G01 X0.6375 Y7.1537
G01 X0.6663 Y7.1401
G01 X0.6964 Y7.1293
G01 X0.7273 Y7.1216
G01 X0.7589 Y7.1169
G01 X0.7908 Y7.1153
G01 X1.6214 Y7.1153
G01 X1.6214 Y6.5996
G01 X0.7908 Y6.5996
G01 X0.7589 Y6.5981
G01 X0.7273 Y6.5934
G01 X0.6964 Y6.5856
G01 X0.6663 Y6.5749
G01 X0.6375 Y6.5613
G01 X0.6101 Y6.5449
G01 X0.5845 Y6.5259
G01 X0.5609 Y6.5044
G01 X0.5395 Y6.4808
G01 X0.5205 Y6.4552
G01 X0.5041 Y6.4278
G01 X0.4904 Y6.3990
G01 X0.4797 Y6.3689
G01 X0.4719 Y6.3380
G01 X0.4672 Y6.3064
G01 X0.4657 Y6.2746
G01 X0.4657 Y6.0002
G01 X0.4672 Y5.9684
G01 X0.4719 Y5.9368
G01 X0.4797 Y5.9059
G01 X0.4904 Y5.8758
G01 X0.5041 Y5.8470
G01 X0.5205 Y5.8196
G01 X0.5395 Y5.7940
G01 X0.5609 Y5.7704
G01 X0.5845 Y5.7489
G01 X0.6101 Y5.7299
G01 X0.6375 Y5.7135
G01 X0.6663 Y5.6999
G01 X0.6964 Y5.6892
G01 X0.7273 Y5.6814
G01 X0.7589 Y5.6767
G01 X0.7908 Y5.6752
G01 X3.2088 Y5.6752
G01 X3.2407 Y5.6767
G01 X3.2722 Y5.6814
G01 X3.3032 Y5.6892
G01 X3.3332 Y5.6999
G01 X3.3621 Y5.7135
G01 X3.3894 Y5.7299
G01 X3.4151 Y5.7489
G01 X3.4387 Y5.7704
G01 X3.4601 Y5.7940
G01 X3.4791 Y5.8196
G01 X3.4955 Y5.8470
G01 X3.5092 Y5.8758
G01 X3.5199 Y5.9059
G01 X3.5277 Y5.9368
G01 X3.5323 Y5.9684
G01 X3.5339 Y6.0002
G01 X3.5339 Y6.2746
G01 X3.5323 Y6.3064
G01 X3.5277 Y6.3380
G01 X3.5199 Y6.3689
G01 X3.5092 Y6.3990
G01 X3.4955 Y6.4278
G01 X3.4791 Y6.4552
G01 X3.4601 Y6.4808
G01 X3.4387 Y6.5044
G01 X3.4151 Y6.5259
G01 X3.3894 Y6.5449
G01 X3.3621 Y6.5613
G01 X3.3332 Y6.5749
G01 X3.3032 Y6.5856
G01 X3.2722 Y6.5934
G01 X3.2407 Y6.5981
G01 X3.2088 Y6.5996
G01 X2.5103 Y6.5996
G01 X2.5103 Y7.1153
G01 X3.2088 Y7.1153
G00 Z2.0000
G00 X1.4353 Y8.0398
G01 F60.00
G01 Z-0.0600
G01 F70.00
G01 X2.6831 Y8.0398
G01 X2.5680 Y8.1385
G01 X2.5451 Y8.1602
G01 X2.5243 Y8.1840
G01 X2.5060 Y8.2097
G01 X2.4902 Y8.2371
G01 X2.4772 Y8.2659
G01 X2.4670 Y8.2958
G01 X2.4598 Y8.3266
G01 X2.4556 Y8.3579
G01 X2.4545 Y8.3895
G01 X2.4565 Y8.4210
G01 X2.4615 Y8.4522
G01 X2.4695 Y8.4828
G01 X2.4804 Y8.5124
G01 X2.4941 Y8.5409
G01 X2.5106 Y8.5678
G01 X2.5296 Y8.5931
G01 X2.5509 Y8.6164
G01 X2.5905 Y8.6556
G01 X2.6164 Y8.6859
G01 X2.6373 Y8.7156
G01 X2.6537 Y8.7451
G01 X2.6670 Y8.7771
G01 X2.6770 Y8.8104
G01 X2.6830 Y8.8455
G01 X2.6853 Y8.8886
G01 X2.6842 Y8.9210
G01 X2.6806 Y8.9545
G01 X2.6751 Y8.9855
G01 X2.6676 Y9.0144
G01 X2.6581 Y9.0421
G01 X2.6476 Y9.0667
G01 X2.6346 Y9.0912
G01 X2.6198 Y9.1149
G01 X2.6045 Y9.1354
G01 X2.5851 Y9.1572
G01 X2.5638 Y9.1783
G01 X2.5403 Y9.1981
G01 X2.5137 Y9.2175
G01 X2.4833 Y9.2367
G01 X2.4511 Y9.2542
G01 X2.4145 Y9.2710
G01 X2.3752 Y9.2866
G01 X2.3332 Y9.3000
G01 X2.2854 Y9.3127
G01 X2.2362 Y9.3233
G01 X2.1847 Y9.3313
G01 X2.1269 Y9.3375
G01 X2.0671 Y9.3416
G01 X2.0049 Y9.3429
G01 X1.9414 Y9.3416
G01 X1.8812 Y9.3379
G01 X1.8246 Y9.3319
G01 X1.7704 Y9.3234
G01 X1.7192 Y9.3133
G01 X1.6720 Y9.3012
G01 X1.6281 Y9.2877
G01 X1.5884 Y9.2727
G01 X1.5522 Y9.2566
G01 X1.5184 Y9.2387
G01 X1.4869 Y9.2196
G01 X1.4604 Y9.2011
G01 X1.4363 Y9.1813
G01 X1.4143 Y9.1605
G01 X1.3951 Y9.1393
G01 X1.3792 Y9.1189
G01 X1.3649 Y9.0967
G01 X1.3517 Y9.0726
G01 X1.3412 Y9.0490
G01 X1.3320 Y9.0228
G01 X1.3246 Y8.9946
G01 X1.3189 Y8.9635
G01 X1.3154 Y8.9311
G01 X1.3142 Y8.8959
G01 X1.3154 Y8.8622
G01 X1.3187 Y8.8320
G01 X1.3239 Y8.8046
G01 X1.3312 Y8.7786
G01 X1.3409 Y8.7518
G01 X1.3519 Y8.7272
G01 X1.3651 Y8.7030
G01 X1.3815 Y8.6778
G01 X1.4010 Y8.6519
G01 X1.4219 Y8.6274
G01 X1.4949 Y8.5549
G01 X1.5159 Y8.5319
G01 X1.5346 Y8.5071
G01 X1.5509 Y8.4805
G01 X1.5645 Y8.4525
G01 X1.5754 Y8.4233
G01 X1.5834 Y8.3932
G01 X1.5886 Y8.3625
G01 X1.5907 Y8.3315
G01 X1.5899 Y8.3003
G01 X1.5861 Y8.2694
G01 X1.5794 Y8.2390
G01 X1.5698 Y8.2094
G01 X1.5574 Y8.1808
G01 X1.5424 Y8.1536
G01 X1.5248 Y8.1279
G01 X1.5048 Y8.1040
G01 X1.4826 Y8.0822
G01 X1.4353 Y8.0398
G00 Z2.0000
G00 X1.2990 Y10.1540
G01 F60.00
G01 Z-0.0600
G01 F70.00
G01 X1.3078 Y10.1575
G01 X1.3647 Y10.1778
G01 X1.3865 Y10.1848
G01 X1.5063 Y10.2183
G01 X1.5328 Y10.2245
G01 X1.6603 Y10.2489
G01 X1.6772 Y10.2517
G01 X1.7437 Y10.2608
G01 X1.7691 Y10.2634
G01 X1.7428 Y10.2828
G01 X1.7191 Y10.3043
G01 X1.6977 Y10.3279
G01 X1.6787 Y10.3535
G01 X1.6623 Y10.3809
G01 X1.6487 Y10.4097
G01 X1.6379 Y10.4398
G01 X1.6302 Y10.4707
G01 X1.6255 Y10.5023
G01 X1.6239 Y10.5341
G01 X1.6239 Y11.1362
G01 X1.3470 Y11.1362
G01 X1.3470 Y10.3233
G01 X1.3454 Y10.2915
G01 X1.3407 Y10.2599
G01 X1.3330 Y10.2290
G01 X1.3222 Y10.1989
G01 X1.3086 Y10.1701
G01 X1.2990 Y10.1540
G00 Z2.0000
G00 X2.3360 Y10.2490
G01 F60.00
G01 Z-0.0600
G01 F70.00
G01 X2.4666 Y10.2229
G01 X2.4846 Y10.2188
G01 X2.5451 Y10.2030
G01 X2.5595 Y10.1989
G01 X2.6184 Y10.1807
G01 X2.6322 Y10.1760
G01 X2.6886 Y10.1557
G01 X2.7044 Y10.1495
G01 X2.7445 Y10.1327
G01 X2.7264 Y10.1527
G01 X2.7074 Y10.1783
G01 X2.6910 Y10.2056
G01 X2.6774 Y10.2345
G01 X2.6666 Y10.2645
G01 X2.6589 Y10.2955
G01 X2.6542 Y10.3270
G01 X2.6526 Y10.3589
G01 X2.6526 Y11.1362
G01 X2.5052 Y11.1362
G01 X2.5052 Y10.5341
G01 X2.5036 Y10.5023
G01 X2.4990 Y10.4707
G01 X2.4912 Y10.4398
G01 X2.4805 Y10.4097
G01 X2.4668 Y10.3809
G01 X2.4504 Y10.3535
G01 X2.4314 Y10.3279
G01 X2.4100 Y10.3043
G01 X2.3864 Y10.2828
G01 X2.3607 Y10.2638
G01 X2.3360 Y10.2490
G00 Z2.0000
G00 X2.6854 Y15.9900
G01 F60.00
G01 Z-0.0600
G01 F70.00
G01 X2.6843 Y16.0203
G01 X2.6809 Y16.0493
G01 X2.6759 Y16.0765
G01 X2.6692 Y16.1008
G01 X2.6607 Y16.1242
G01 X2.6505 Y16.1467
G01 X2.6391 Y16.1673
G01 X2.6253 Y16.1877
G01 X2.6096 Y16.2077
G01 X2.5909 Y16.2278
G01 X2.5697 Y16.2479
G01 X2.5479 Y16.2654
G01 X2.5204 Y16.2842
G01 X2.4912 Y16.3020
G01 X2.4585 Y16.3185
G01 X2.4212 Y16.3350
G01 X2.3811 Y16.3499
G01 X2.3381 Y16.3634
G01 X2.2921 Y16.3750
G01 X2.2425 Y16.3850
G01 X2.1886 Y16.3930
G01 X2.1318 Y16.3991
G01 X2.0723 Y16.4028
G01 X2.0099 Y16.4041
G01 X1.9465 Y16.4028
G01 X1.8863 Y16.3991
G01 X1.8283 Y16.3929
G01 X1.7737 Y16.3849
G01 X1.7223 Y16.3747
G01 X1.6746 Y16.3629
G01 X1.6306 Y16.3494
G01 X1.5891 Y16.3342
G01 X1.5506 Y16.3175
G01 X1.5159 Y16.3003
G01 X1.4857 Y16.2825
G01 X1.4573 Y16.2633
G01 X1.4333 Y16.2447
G01 X1.4116 Y16.2247
G01 X1.3919 Y16.2041
G01 X1.3761 Y16.1845
G01 X1.3618 Y16.1637
G01 X1.3490 Y16.1416
G01 X1.3388 Y16.1201
G01 X1.3305 Y16.0978
G01 X1.3235 Y16.0735
G01 X1.3185 Y16.0478
G01 X1.3153 Y16.0202
G01 X1.3142 Y15.9900
G01 X1.3153 Y15.9590
G01 X1.3185 Y15.9305
G01 X1.3236 Y15.9047
G01 X1.3308 Y15.8793
G01 X1.3392 Y15.8563
G01 X1.3497 Y15.8342
G01 X1.3622 Y15.8122
G01 X1.3761 Y15.7920
G01 X1.3933 Y15.7708
G01 X1.4124 Y15.7502
G01 X1.4324 Y15.7321
G01 X1.4583 Y15.7120
G01 X1.4867 Y15.6924
G01 X1.5170 Y15.6746
G01 X1.5518 Y15.6571
G01 X1.5892 Y15.6408
G01 X1.6306 Y15.6257
G01 X1.6746 Y15.6121
G01 X1.7223 Y15.6003
G01 X1.7737 Y15.5901
G01 X1.8283 Y15.5821
G01 X1.8863 Y15.5760
G01 X1.9465 Y15.5722
G01 X2.0099 Y15.5710
G01 X2.0723 Y15.5722
G01 X2.1318 Y15.5759
G01 X2.1886 Y15.5821
G01 X2.2425 Y15.5900
G01 X2.2921 Y15.6000
G01 X2.3381 Y15.6116
G01 X2.3811 Y15.6251
G01 X2.4212 Y15.6400
G01 X2.4573 Y15.6560
G01 X2.4902 Y15.6729
G01 X2.5194 Y15.6907
G01 X2.5469 Y15.7098
G01 X2.5705 Y15.7288
G01 X2.5901 Y15.7471
G01 X2.6083 Y15.7671
G01 X2.6253 Y15.7889
G01 X2.6387 Y15.8086
G01 X2.6498 Y15.8291
G01 X2.6602 Y15.8522
G01 X2.6689 Y15.8764
G01 X2.6758 Y15.9017
G01 X2.6809 Y15.9290
G01 X2.6843 Y15.9589
G01 X2.6854 Y15.9900
G00 Z2.0000
G00 X3.5744 Y15.9812
G01 F60.00
G01 Z-0.0600
G01 F70.00
G01 X3.5744 Y15.9990
G01 X3.5729 Y16.0544
G01 X3.5721 Y16.0696
G01 X3.5681 Y16.1240
G01 X3.5665 Y16.1398
G01 X3.5599 Y16.1931
G01 X3.5556 Y16.2190
G01 X3.5343 Y16.3221
G01 X3.5274 Y16.3494
G01 X3.5127 Y16.3987
G01 X3.5073 Y16.4150
G01 X3.4900 Y16.4633
G01 X3.4837 Y16.4795
G01 X3.4639 Y16.5267
G01 X3.4562 Y16.5438
G01 X3.4338 Y16.5895
G01 X3.4210 Y16.6133
G01 X3.3691 Y16.7002
G01 X3.3479 Y16.7315
G01 X3.2859 Y16.8123
G01 X3.2690 Y16.8326
G01 X3.2349 Y16.8702
G01 X3.2238 Y16.8818
G01 X3.1872 Y16.9184
G01 X3.1667 Y16.9373
G01 X3.0865 Y17.0048
G01 X3.0667 Y17.0202
G01 X3.0235 Y17.0512
G01 X3.0100 Y17.0604
G01 X2.9643 Y17.0898
G01 X2.9479 Y17.0997
G01 X2.9002 Y17.1267
G01 X2.8817 Y17.1363
G01 X2.7857 Y17.1826
G01 X2.8072 Y17.1863
G01 X2.8610 Y17.1985
G01 X2.8920 Y17.2072
G01 X2.9423 Y17.2239
G01 X2.9746 Y17.2366
G01 X3.0213 Y17.2580
G01 X3.0535 Y17.2749
G01 X3.0967 Y17.3008
G01 X3.1218 Y17.3175
G01 X3.1619 Y17.3470
G01 X3.1911 Y17.3711
G01 X3.2276 Y17.4051
G01 X3.2502 Y17.4283
G01 X3.2837 Y17.4664
G01 X3.3020 Y17.4892
G01 X3.3325 Y17.5309
G01 X3.3495 Y17.5566
G01 X3.3764 Y17.6018
G01 X3.3878 Y17.6226
G01 X3.4122 Y17.6714
G01 X3.4235 Y17.6966
G01 X3.4443 Y17.7489
G01 X3.4518 Y17.7698
G01 X3.4696 Y17.8251
G01 X3.4748 Y17.8431
G01 X3.4900 Y17.9021
G01 X3.4942 Y17.9202
G01 X3.5064 Y17.9817
G01 X3.5091 Y17.9972
G01 X3.5187 Y18.0622
G01 X3.5207 Y18.0781
G01 X3.5273 Y18.1452
G01 X3.5286 Y18.1654
G01 X3.5339 Y18.3192
G01 X3.5339 Y19.0203
G01 X3.5323 Y19.0521
G01 X3.5277 Y19.0837
G01 X3.5199 Y19.1146
G01 X3.5092 Y19.1447
G01 X3.4955 Y19.1735
G01 X3.4791 Y19.2009
G01 X3.4601 Y19.2265
G01 X3.4387 Y19.2501
G01 X3.4151 Y19.2716
G01 X3.3894 Y19.2906
G01 X3.3621 Y19.3070
G01 X3.3332 Y19.3206
G01 X3.3032 Y19.3314
G01 X3.2722 Y19.3391
G01 X3.2407 Y19.3438
G01 X3.2088 Y19.3454
G01 X0.7908 Y19.3454
G01 X0.7589 Y19.3438
G01 X0.7273 Y19.3391
G01 X0.6963 Y19.3313
G01 X0.6663 Y19.3206
G01 X0.6374 Y19.3069
G01 X0.6100 Y19.2905
G01 X0.5844 Y19.2715
G01 X0.5607 Y19.2500
G01 X0.5393 Y19.2263
G01 X0.5203 Y19.2007
G01 X0.5039 Y19.1733
G01 X0.4903 Y19.1444
G01 X0.4796 Y19.1143
G01 X0.4718 Y19.0834
G01 X0.4672 Y19.0518
G01 X0.4657 Y19.0199
G01 X0.4667 Y18.1989
G01 X0.4673 Y18.1791
G01 X0.4714 Y18.1141
G01 X0.4729 Y18.0972
G01 X0.4871 Y17.9733
G01 X0.4920 Y17.9434
G01 X0.5163 Y17.8276
G01 X0.5230 Y17.8014
G01 X0.5393 Y17.7470
G01 X0.5442 Y17.7320
G01 X0.5625 Y17.6802
G01 X0.5691 Y17.6630
G01 X0.5899 Y17.6132
G01 X0.5978 Y17.5957
G01 X0.6207 Y17.5490
G01 X0.6322 Y17.5275
G01 X0.6581 Y17.4833
G01 X0.6686 Y17.4666
G01 X0.6965 Y17.4249
G01 X0.7101 Y17.4062
G01 X0.7406 Y17.3671
G01 X0.7605 Y17.3439
G01 X0.7940 Y17.3083
G01 X0.8093 Y17.2931
G01 X0.8449 Y17.2601
G01 X0.8634 Y17.2441
G01 X0.9010 Y17.2142
G01 X0.9265 Y17.1958
G01 X0.9671 Y17.1694
G01 X0.9856 Y17.1582
G01 X1.0282 Y17.1344
G01 X1.0577 Y17.1198
G01 X1.0813 Y17.1096
G01 X1.0713 Y17.1043
G01 X1.0492 Y17.0916
G01 X1.0025 Y17.0621
G01 X0.9892 Y17.0533
G01 X0.9450 Y17.0223
G01 X0.9253 Y17.0074
G01 X0.8431 Y16.9398
G01 X0.8179 Y16.9168
G01 X0.7447 Y16.8427
G01 X0.7264 Y16.8225
G01 X0.6934 Y16.7829
G01 X0.6819 Y16.7683
G01 X0.6515 Y16.7271
G01 X0.6407 Y16.7117
G01 X0.6127 Y16.6690
G01 X0.6029 Y16.6529
G01 X0.5775 Y16.6087
G01 X0.5651 Y16.5850
G01 X0.5214 Y16.4920
G01 X0.5106 Y16.4662
G01 X0.4928 Y16.4179
G01 X0.4873 Y16.4016
G01 X0.4721 Y16.3523
G01 X0.4673 Y16.3351
G01 X0.4546 Y16.2843
G01 X0.4503 Y16.2645
G01 X0.4406 Y16.2121
G01 X0.4380 Y16.1961
G01 X0.4309 Y16.1427
G01 X0.4290 Y16.1240
G01 X0.4249 Y16.0696
G01 X0.4241 Y16.0544
G01 X0.4226 Y15.9990
G01 X0.4226 Y15.9812
G01 X0.4241 Y15.9253
G01 X0.4249 Y15.9102
G01 X0.4290 Y15.8553
G01 X0.4309 Y15.8368
G01 X0.4380 Y15.7829
G01 X0.4406 Y15.7664
G01 X0.4503 Y15.7141
G01 X0.4544 Y15.6950
G01 X0.4671 Y15.6437
G01 X0.4718 Y15.6267
G01 X0.4870 Y15.5769
G01 X0.4925 Y15.5607
G01 X0.5102 Y15.5119
G01 X0.5177 Y15.4934
G01 X0.5385 Y15.4456
G01 X0.5457 Y15.4301
G01 X0.5686 Y15.3844
G01 X0.5767 Y15.3692
G01 X0.6021 Y15.3245
G01 X0.6128 Y15.3070
G01 X0.6407 Y15.2643
G01 X0.6503 Y15.2504
G01 X0.6808 Y15.2088
G01 X0.6934 Y15.1927
G01 X0.7264 Y15.1531
G01 X0.7371 Y15.1409
G01 X0.7726 Y15.1023
G01 X0.7851 Y15.0895
G01 X0.8227 Y15.0529
G01 X0.8421 Y15.0355
G01 X0.9244 Y14.9674
G01 X0.9450 Y14.9517
G01 X0.9892 Y14.9207
G01 X1.0024 Y14.9119
G01 X1.0491 Y14.8825
G01 X1.0690 Y14.8709
G01 X1.1686 Y14.8175
G01 X1.1963 Y14.8044
G01 X1.3040 Y14.7591
G01 X1.3254 Y14.7510
G01 X1.3823 Y14.7317
G01 X1.4542 Y14.7104
G01 X1.4729 Y14.7055
G01 X1.5969 Y14.6770
G01 X1.6166 Y14.6731
G01 X1.6811 Y14.6625
G01 X1.7604 Y14.6524
G01 X1.7763 Y14.6509
G01 X1.9145 Y14.6407
G01 X1.9383 Y14.6398
G01 X2.0811 Y14.6398
G01 X2.1000 Y14.6404
G01 X2.1696 Y14.6445
G01 X2.1851 Y14.6457
G01 X2.3187 Y14.6599
G01 X2.3377 Y14.6625
G01 X2.4017 Y14.6732
G01 X2.4222 Y14.6773
G01 X2.5441 Y14.7057
G01 X2.5693 Y14.7127
G01 X2.6836 Y14.7493
G01 X2.7119 Y14.7598
G01 X2.8180 Y14.8050
G01 X2.8466 Y14.8189
G01 X2.9442 Y14.8722
G01 X2.9643 Y14.8842
G01 X3.0101 Y14.9137
G01 X3.0235 Y14.9228
G01 X3.0667 Y14.9538
G01 X3.0874 Y14.9700
G01 X3.1676 Y15.0380
G01 X3.1872 Y15.0561
G01 X3.2238 Y15.0926
G01 X3.2424 Y15.1129
G01 X3.3084 Y15.1911
G01 X3.3239 Y15.2109
G01 X3.3538 Y15.2526
G01 X3.3649 Y15.2689
G01 X3.3918 Y15.3116
G01 X3.4009 Y15.3270
G01 X3.4258 Y15.3717
G01 X3.4338 Y15.3870
G01 X3.4562 Y15.4328
G01 X3.4644 Y15.4510
G01 X3.4842 Y15.4987
G01 X3.4904 Y15.5148
G01 X3.5076 Y15.5635
G01 X3.5129 Y15.5798
G01 X3.5277 Y15.6295
G01 X3.5344 Y15.6563
G01 X3.5557 Y15.7599
G01 X3.5599 Y15.7859
G01 X3.5665 Y15.8397
G01 X3.5681 Y15.8553
G01 X3.5721 Y15.9102
G01 X3.5729 Y15.9253
G01 X3.5744 Y15.9812
G00 Z2.0000
G00 X2.5481 Y18.0956
G01 F60.00
G01 Z-0.0600
G01 F70.00
G01 X2.5511 Y18.0943
G01 X2.5558 Y18.0931
G01 X2.5666 Y18.0917
G01 X2.5833 Y18.0909
G01 X2.6080 Y18.0921
G01 X2.6224 Y18.0940
G01 X2.6273 Y18.0954
G01 X2.6299 Y18.0998
G01 X2.6352 Y18.1125
G01 X2.6426 Y18.1352
G01 X2.6497 Y18.1652
G01 X2.6562 Y18.2038
G01 X2.6609 Y18.2456
G01 X2.6653 Y18.3658
G01 X2.6653 Y18.4209
G01 X2.4950 Y18.4209
G01 X2.4950 Y18.3794
G01 X2.4968 Y18.3136
G01 X2.5011 Y18.2576
G01 X2.5070 Y18.2118
G01 X2.5148 Y18.1745
G01 X2.5232 Y18.1448
G01 X2.5316 Y18.1233
G01 X2.5393 Y18.1077
G01 X2.5443 Y18.1000
G01 X2.5481 Y18.0956
G00 Z2.0000
G00 X1.6341 Y18.4209
G01 F60.00
G01 Z-0.0600
G01 F70.00
G01 X1.3343 Y18.4209
G01 X1.3343 Y18.3133
G01 X1.3360 Y18.2461
G01 X1.3399 Y18.1894
G01 X1.3468 Y18.1392
G01 X1.3555 Y18.0943
G01 X1.3653 Y18.0583
G01 X1.3759 Y18.0297
G01 X1.3872 Y18.0061
G01 X1.3980 Y17.9884
G01 X1.4068 Y17.9770
G01 X1.4133 Y17.9705
G01 X1.4209 Y17.9647
G01 X1.4287 Y17.9602
G01 X1.4394 Y17.9557
G01 X1.4560 Y17.9512
G01 X1.4785 Y17.9476
G01 X1.5062 Y17.9462
G01 X1.5278 Y17.9474
G01 X1.5428 Y17.9499
G01 X1.5515 Y17.9524
G01 X1.5557 Y17.9543
G01 X1.5613 Y17.9584
G01 X1.5674 Y17.9650
G01 X1.5748 Y17.9752
G01 X1.5835 Y17.9909
G01 X1.5939 Y18.0147
G01 X1.6044 Y18.0463
G01 X1.6142 Y18.0845
G01 X1.6223 Y18.1304
G01 X1.6288 Y18.1838
G01 X1.6328 Y18.2428
G01 X1.6341 Y18.3121
G01 X1.6341 Y18.4209
G00 Z2.0000
G00 X3.2088 Y19.3581
G01 F60.00
G01 Z-0.0600
G01 F70.00
G01 X3.2407 Y19.3597
G01 X3.2722 Y19.3644
G01 X3.3032 Y19.3721
G01 X3.3332 Y19.3829
G01 X3.3621 Y19.3965
G01 X3.3894 Y19.4129
G01 X3.4151 Y19.4319
G01 X3.4387 Y19.4534
G01 X3.4601 Y19.4770
G01 X3.4791 Y19.5026
G01 X3.4955 Y19.5300
G01 X3.5092 Y19.5588
G01 X3.5199 Y19.5889
G01 X3.5277 Y19.6198
G01 X3.5323 Y19.6514
G01 X3.5339 Y19.6832
G01 X3.5339 Y19.9448
G01 X3.5323 Y19.9767
G01 X3.5277 Y20.0083
G01 X3.5199 Y20.0392
G01 X3.5092 Y20.0692
G01 X3.4955 Y20.0981
G01 X3.4791 Y20.1254
G01 X3.4601 Y20.1511
G01 X3.4387 Y20.1747
G01 X3.4151 Y20.1961
G01 X3.3894 Y20.2151
G01 X3.3621 Y20.2315
G01 X3.3332 Y20.2452
G01 X3.3032 Y20.2559
G01 X3.2722 Y20.2637
G01 X3.2407 Y20.2684
G01 X3.2088 Y20.2699
G01 X1.7725 Y20.2699
G01 X1.6975 Y20.2717
G01 X1.6348 Y20.2761
G01 X1.5795 Y20.2832
G01 X1.5307 Y20.2926
G01 X1.4892 Y20.3033
G01 X1.4548 Y20.3150
G01 X1.4262 Y20.3274
G01 X1.4034 Y20.3395
G01 X1.3866 Y20.3506
G01 X1.3731 Y20.3615
G01 X1.3616 Y20.3728
G01 X1.3523 Y20.3840
G01 X1.3447 Y20.3954
G01 X1.3377 Y20.4082
G01 X1.3316 Y20.4224
G01 X1.3259 Y20.4399
G01 X1.3210 Y20.4604
G01 X1.3173 Y20.4833
G01 X1.3150 Y20.5095
G01 X1.3141 Y20.5391
G01 X1.3150 Y20.5675
G01 X1.3172 Y20.5919
G01 X1.3207 Y20.6131
G01 X1.3255 Y20.6329
G01 X1.3307 Y20.6485
G01 X1.3362 Y20.6611
G01 X1.3432 Y20.6735
G01 X1.3504 Y20.6841
G01 X1.3592 Y20.6944
G01 X1.3712 Y20.7060
G01 X1.3834 Y20.7157
G01 X1.4010 Y20.7270
G01 X1.4250 Y20.7397
G01 X1.4524 Y20.7513
G01 X1.4868 Y20.7627
G01 X1.5295 Y20.7733
G01 X1.5784 Y20.7828
G01 X1.6337 Y20.7895
G01 X1.6975 Y20.7940
G01 X1.7725 Y20.7958
G01 X3.2088 Y20.7958
G01 X3.2407 Y20.7973
G01 X3.2722 Y20.8020
G01 X3.3032 Y20.8098
G01 X3.3332 Y20.8205
G01 X3.3621 Y20.8342
G01 X3.3894 Y20.8506
G01 X3.4151 Y20.8696
G01 X3.4387 Y20.8910
G01 X3.4601 Y20.9146
G01 X3.4791 Y20.9403
G01 X3.4955 Y20.9676
G01 X3.5092 Y20.9965
G01 X3.5199 Y21.0265
G01 X3.5277 Y21.0574
G01 X3.5323 Y21.0890
G01 X3.5339 Y21.1209
G01 X3.5339 Y21.3952
G01 X3.5323 Y21.4270
G01 X3.5277 Y21.4586
G01 X3.5199 Y21.4895
G01 X3.5092 Y21.5196
G01 X3.4955 Y21.5484
G01 X3.4791 Y21.5758
G01 X3.4601 Y21.6014
G01 X3.4387 Y21.6250
G01 X3.4151 Y21.6465
G01 X3.3894 Y21.6655
G01 X3.3621 Y21.6819
G01 X3.3332 Y21.6955
G01 X3.3032 Y21.7063
G01 X3.2750 Y21.7133
G01 X3.2856 Y21.7257
G01 X3.3207 Y21.7693
G01 X3.3312 Y21.7833
G01 X3.3648 Y21.8300
G01 X3.3761 Y21.8469
G01 X3.4076 Y21.8972
G01 X3.4190 Y21.9169
G01 X3.4474 Y21.9702
G01 X3.4574 Y21.9906
G01 X3.4828 Y22.0475
G01 X3.4914 Y22.0687
G01 X3.5132 Y22.1286
G01 X3.5213 Y22.1540
G01 X3.5386 Y22.2170
G01 X3.5439 Y22.2392
G01 X3.5571 Y22.3052
G01 X3.5612 Y22.3310
G01 X3.5693 Y22.4001
G01 X3.5712 Y22.4244
G01 X3.5743 Y22.4966
G01 X3.5744 Y22.5189
G01 X3.5729 Y22.5758
G01 X3.5722 Y22.5907
G01 X3.5681 Y22.6466
G01 X3.5666 Y22.6619
G01 X3.5600 Y22.7168
G01 X3.5573 Y22.7352
G01 X3.5476 Y22.7891
G01 X3.5442 Y22.8055
G01 X3.5320 Y22.8578
G01 X3.5279 Y22.8738
G01 X3.5132 Y22.9251
G01 X3.5044 Y22.9512
G01 X3.4668 Y23.0498
G01 X3.4570 Y23.0729
G01 X3.4346 Y23.1202
G01 X3.4270 Y23.1353
G01 X3.4021 Y23.1815
G01 X3.3921 Y23.1988
G01 X3.3647 Y23.2430
G01 X3.3545 Y23.2584
G01 X3.3245 Y23.3011
G01 X3.3086 Y23.3219
G01 X3.2415 Y23.4027
G01 X3.2244 Y23.4217
G01 X3.1873 Y23.4598
G01 X3.1747 Y23.4721
G01 X3.1356 Y23.5082
G01 X3.1227 Y23.5194
G01 X3.0810 Y23.5540
G01 X3.0676 Y23.5645
G01 X3.0240 Y23.5970
G01 X3.0109 Y23.6063
G01 X2.9646 Y23.6373
G01 X2.9500 Y23.6465
G01 X2.9023 Y23.6749
G01 X2.8881 Y23.6829
G01 X2.8373 Y23.7098
G01 X2.8167 Y23.7198
G01 X2.7101 Y23.7671
G01 X2.6886 Y23.7757
G01 X2.6322 Y23.7960
G01 X2.6111 Y23.8028
G01 X2.4918 Y23.8368
G01 X2.4724 Y23.8417
G01 X2.3961 Y23.8582
G01 X2.3321 Y23.8693
G01 X2.3127 Y23.8721
G01 X2.1781 Y23.8874
G01 X2.1532 Y23.8892
G01 X2.0114 Y23.8943
G01 X1.9882 Y23.8943
G01 X1.8455 Y23.8892
G01 X1.8285 Y23.8882
G01 X1.7594 Y23.8821
G01 X1.7437 Y23.8803
G01 X1.6772 Y23.8712
G01 X1.6603 Y23.8684
G01 X1.5328 Y23.8440
G01 X1.5063 Y23.8378
G01 X1.3865 Y23.8042
G01 X1.3647 Y23.7973
G01 X1.3078 Y23.7770
G01 X1.2884 Y23.7694
G01 X1.1812 Y23.7232
G01 X1.1587 Y23.7124
G01 X1.1085 Y23.6860
G01 X1.0946 Y23.6783
G01 X1.0463 Y23.6498
G01 X1.0332 Y23.6416
G01 X0.9874 Y23.6117
G01 X0.9736 Y23.6021
G01 X0.9299 Y23.5701
G01 X0.9163 Y23.5595
G01 X0.8746 Y23.5255
G01 X0.8560 Y23.5091
G01 X0.7798 Y23.4364
G01 X0.7604 Y23.4163
G01 X0.7259 Y23.3772
G01 X0.7099 Y23.3576
G01 X0.6479 Y23.2753
G01 X0.6267 Y23.2434
G01 X0.5749 Y23.1545
G01 X0.5631 Y23.1323
G01 X0.5408 Y23.0861
G01 X0.5332 Y23.0692
G01 X0.5134 Y23.0214
G01 X0.5072 Y23.0054
G01 X0.4899 Y22.9566
G01 X0.4844 Y22.9394
G01 X0.4696 Y22.8891
G01 X0.4653 Y22.8729
G01 X0.4531 Y22.8216
G01 X0.4497 Y22.8054
G01 X0.4401 Y22.7531
G01 X0.4372 Y22.7341
G01 X0.4305 Y22.6808
G01 X0.4290 Y22.6648
G01 X0.4249 Y22.6099
G01 X0.4241 Y22.5949
G01 X0.4226 Y22.5395
G01 X0.4227 Y22.5199
G01 X0.4252 Y22.4427
G01 X0.4268 Y22.4199
G01 X0.4344 Y22.3462
G01 X0.4378 Y22.3221
G01 X0.4505 Y22.2515
G01 X0.4561 Y22.2263
G01 X0.4738 Y22.1588
G01 X0.4808 Y22.1358
G01 X0.5032 Y22.0708
G01 X0.5124 Y22.0470
G01 X0.5393 Y21.9850
G01 X0.5513 Y21.9604
G01 X0.5833 Y21.9010
G01 X0.5968 Y21.8782
G01 X0.6333 Y21.8218
G01 X0.6449 Y21.8052
G01 X0.6855 Y21.7503
G01 X0.7018 Y21.7301
G01 X0.7470 Y21.6783
G01 X0.7609 Y21.6633
G01 X0.8107 Y21.6130
G01 X0.8260 Y21.5985
G01 X0.8799 Y21.5508
G01 X0.9044 Y21.5310
G01 X0.9246 Y21.5178
G01 X0.9036 Y21.5046
G01 X0.8619 Y21.4762
G01 X0.8459 Y21.4645
G01 X0.8073 Y21.4345
G01 X0.7890 Y21.4192
G01 X0.7529 Y21.3867
G01 X0.7355 Y21.3698
G01 X0.7030 Y21.3358
G01 X0.6895 Y21.3207
G01 X0.6595 Y21.2851
G01 X0.6438 Y21.2649
G01 X0.6169 Y21.2273
G01 X0.6053 Y21.2101
G01 X0.5810 Y21.1710
G01 X0.5712 Y21.1543
G01 X0.5494 Y21.1142
G01 X0.5394 Y21.0941
G01 X0.5201 Y21.0520
G01 X0.5085 Y21.0232
G01 X0.4780 Y20.9353
G01 X0.4684 Y20.9019
G01 X0.4471 Y20.8094
G01 X0.4413 Y20.7768
G01 X0.4291 Y20.6798
G01 X0.4268 Y20.6525
G01 X0.4228 Y20.5524
G01 X0.4228 Y20.5260
G01 X0.4268 Y20.4259
G01 X0.4291 Y20.3986
G01 X0.4413 Y20.3016
G01 X0.4471 Y20.2690
G01 X0.4684 Y20.1765
G01 X0.4780 Y20.1431
G01 X0.5085 Y20.0552
G01 X0.5201 Y20.0264
G01 X0.5394 Y19.9843
G01 X0.5494 Y19.9642
G01 X0.5713 Y19.9241
G01 X0.5809 Y19.9075
G01 X0.6053 Y19.8684
G01 X0.6169 Y19.8511
G01 X0.6438 Y19.8135
G01 X0.6595 Y19.7933
G01 X0.6895 Y19.7577
G01 X0.7030 Y19.7426
G01 X0.7355 Y19.7086
G01 X0.7529 Y19.6917
G01 X0.7890 Y19.6592
G01 X0.8073 Y19.6438
G01 X0.8459 Y19.6139
G01 X0.8619 Y19.6022
G01 X0.9036 Y19.5738
G01 X0.9229 Y19.5616
G01 X0.9681 Y19.5351
G01 X0.9880 Y19.5244
G01 X1.0363 Y19.5005
G01 X1.0505 Y19.4939
G01 X1.1018 Y19.4716
G01 X1.1238 Y19.4629
G01 X1.1787 Y19.4436
G01 X1.1944 Y19.4385
G01 X1.2528 Y19.4213
G01 X1.2698 Y19.4167
G01 X1.3318 Y19.4020
G01 X1.4097 Y19.3865
G01 X1.4270 Y19.3836
G01 X1.4961 Y19.3740
G01 X1.5827 Y19.3652
G01 X1.5970 Y19.3642
G01 X1.6848 Y19.3597
G01 X1.7712 Y19.3581
G01 X3.2088 Y19.3581
G00 Z2.0000
G00 X1.4804 Y21.7022
G01 F60.00
G01 Z-0.0600
G01 F70.00
G01 X1.5096 Y21.7060
G01 X1.5828 Y21.7131
G01 X1.5970 Y21.7142
G01 X1.6847 Y21.7187
G01 X1.7650 Y21.7202
G01 X2.6120 Y21.7203
G01 X2.5680 Y21.7580
G01 X2.5451 Y21.7796
G01 X2.5244 Y21.8033
G01 X2.5061 Y21.8290
G01 X2.4904 Y21.8563
G01 X2.4774 Y21.8849
G01 X2.4672 Y21.9147
G01 X2.4600 Y21.9454
G01 X2.4557 Y21.9766
G01 X2.4545 Y22.0081
G01 X2.4564 Y22.0395
G01 X2.4612 Y22.0706
G01 X2.4691 Y22.1011
G01 X2.4799 Y22.1307
G01 X2.4935 Y22.1591
G01 X2.5097 Y22.1861
G01 X2.5286 Y22.2113
G01 X2.5497 Y22.2347
G01 X2.5889 Y22.2738
G01 X2.6151 Y22.3051
G01 X2.6369 Y22.3365
G01 X2.6537 Y22.3666
G01 X2.6669 Y22.3983
G01 X2.6769 Y22.4321
G01 X2.6830 Y22.4675
G01 X2.6853 Y22.5107
G01 X2.6842 Y22.5430
G01 X2.6806 Y22.5766
G01 X2.6751 Y22.6075
G01 X2.6676 Y22.6364
G01 X2.6581 Y22.6642
G01 X2.6476 Y22.6888
G01 X2.6346 Y22.7133
G01 X2.6198 Y22.7369
G01 X2.6045 Y22.7574
G01 X2.5851 Y22.7793
G01 X2.5638 Y22.8003
G01 X2.5403 Y22.8201
G01 X2.5137 Y22.8395
G01 X2.4833 Y22.8587
G01 X2.4511 Y22.8762
G01 X2.4145 Y22.8930
G01 X2.3752 Y22.9086
G01 X2.3332 Y22.9220
G01 X2.2854 Y22.9347
G01 X2.2362 Y22.9453
G01 X2.1847 Y22.9534
G01 X2.1269 Y22.9595
G01 X2.0671 Y22.9636
G01 X2.0049 Y22.9649
G01 X1.9414 Y22.9636
G01 X1.8812 Y22.9599
G01 X1.8246 Y22.9539
G01 X1.7704 Y22.9455
G01 X1.7192 Y22.9353
G01 X1.6720 Y22.9232
G01 X1.6281 Y22.9097
G01 X1.5884 Y22.8947
G01 X1.5522 Y22.8786
G01 X1.5184 Y22.8607
G01 X1.4869 Y22.8417
G01 X1.4604 Y22.8231
G01 X1.4363 Y22.8033
G01 X1.4143 Y22.7825
G01 X1.3951 Y22.7614
G01 X1.3792 Y22.7410
G01 X1.3649 Y22.7187
G01 X1.3517 Y22.6947
G01 X1.3412 Y22.6711
G01 X1.3320 Y22.6448
G01 X1.3246 Y22.6166
G01 X1.3189 Y22.5855
G01 X1.3154 Y22.5531
G01 X1.3141 Y22.5179
G01 X1.3154 Y22.4835
G01 X1.3187 Y22.4528
G01 X1.3240 Y22.4252
G01 X1.3315 Y22.3982
G01 X1.3411 Y22.3713
G01 X1.3515 Y22.3479
G01 X1.3647 Y22.3242
G01 X1.3815 Y22.2983
G01 X1.4004 Y22.2732
G01 X1.4236 Y22.2464
G01 X1.4509 Y22.2180
G01 X1.4869 Y22.1846
G01 X1.5091 Y22.1618
G01 X1.5290 Y22.1370
G01 X1.5464 Y22.1104
G01 X1.5611 Y22.0822
G01 X1.5729 Y22.0527
G01 X1.5818 Y22.0222
G01 X1.5877 Y21.9910
G01 X1.5906 Y21.9593
G01 X1.5903 Y21.9275
G01 X1.5869 Y21.8959
G01 X1.5804 Y21.8648
G01 X1.5709 Y21.8345
G01 X1.5586 Y21.8052
G01 X1.5434 Y21.7773
G01 X1.5255 Y21.7510
G01 X1.5052 Y21.7265
G01 X1.4804 Y21.7022
G00 Z2.0000
G00 X9.3048 Y22.0886
G01 F60.00
G01 Z-0.0600
G01 F70.00
G01 X9.3367 Y22.0902
G01 X9.3682 Y22.0949
G01 X9.3992 Y22.1026
G01 X9.4292 Y22.1134
G01 X9.4581 Y22.1270
G01 X9.4854 Y22.1434
G01 X9.5111 Y22.1624
G01 X9.5347 Y22.1839
G01 X9.5561 Y22.2075
G01 X9.5751 Y22.2331
G01 X9.5915 Y22.2605
G01 X9.6052 Y22.2893
G01 X9.6159 Y22.3194
G01 X9.6237 Y22.3503
G01 X9.6283 Y22.3819
G01 X9.6299 Y22.4137
G01 X9.6299 Y24.1663
G01 X9.6283 Y24.1982
G01 X9.6237 Y24.2297
G01 X9.6159 Y24.2607
G01 X9.6052 Y24.2907
G01 X9.5915 Y24.3196
G01 X9.5751 Y24.3469
G01 X9.5561 Y24.3725
G01 X9.5347 Y24.3962
G01 X9.5111 Y24.4176
G01 X9.4854 Y24.4366
G01 X9.4581 Y24.4530
G01 X9.4292 Y24.4667
G01 X9.3992 Y24.4774
G01 X9.3682 Y24.4852
G01 X9.3367 Y24.4898
G01 X9.3048 Y24.4914
G01 X9.0737 Y24.4914
G01 X9.0418 Y24.4898
G01 X9.0103 Y24.4852
G01 X8.9793 Y24.4774
G01 X8.9493 Y24.4667
G01 X8.9204 Y24.4530
G01 X8.8931 Y24.4366
G01 X8.8675 Y24.4176
G01 X8.8438 Y24.3962
G01 X8.8224 Y24.3725
G01 X8.8034 Y24.3469
G01 X8.7870 Y24.3196
G01 X8.7734 Y24.2907
G01 X8.7626 Y24.2607
G01 X8.7549 Y24.2297
G01 X8.7502 Y24.1982
G01 X8.7486 Y24.1663
G01 X8.7486 Y23.7573
G01 X6.8868 Y23.7573
G01 X6.8549 Y23.7558
G01 X6.8233 Y23.7511
G01 X6.7924 Y23.7433
G01 X6.7623 Y23.7326
G01 X6.7335 Y23.7190
G01 X6.7061 Y23.7026
G01 X6.6805 Y23.6836
G01 X6.6569 Y23.6621
G01 X6.6355 Y23.6385
G01 X6.6165 Y23.6129
G01 X6.6001 Y23.5855
G01 X6.5864 Y23.5567
G01 X6.5757 Y23.5266
G01 X6.5679 Y23.4957
G01 X6.5632 Y23.4641
G01 X6.5617 Y23.4323
G01 X6.5617 Y23.1529
G01 X6.5632 Y23.1210
G01 X6.5679 Y23.0894
G01 X6.5757 Y23.0585
G01 X6.5864 Y23.0285
G01 X6.6001 Y22.9996
G01 X6.6165 Y22.9723
G01 X6.6355 Y22.9466
G01 X6.6569 Y22.9230
G01 X6.6805 Y22.9016
G01 X6.7061 Y22.8826
G01 X6.7335 Y22.8662
G01 X6.7623 Y22.8525
G01 X6.7924 Y22.8418
G01 X6.8233 Y22.8340
G01 X6.8549 Y22.8293
G01 X6.8868 Y22.8278
G01 X8.7486 Y22.8278
G01 X8.7486 Y22.4137
G01 X8.7502 Y22.3819
G01 X8.7549 Y22.3503
G01 X8.7626 Y22.3194
G01 X8.7734 Y22.2893
G01 X8.7870 Y22.2605
G01 X8.8034 Y22.2331
G01 X8.8224 Y22.2075
G01 X8.8438 Y22.1839
G01 X8.8675 Y22.1624
G01 X8.8931 Y22.1434
G01 X8.9204 Y22.1270
G01 X8.9493 Y22.1134
G01 X8.9793 Y22.1026
G01 X9.0103 Y22.0949
G01 X9.0418 Y22.0902
G01 X9.0737 Y22.0886
G01 X9.3048 Y22.0886
G00 Z2.0000
G00 X9.3048 Y19.5359
G01 F60.00
G01 Z-0.0600
G01 F70.00
G01 X9.3367 Y19.5375
G01 X9.3682 Y19.5422
G01 X9.3992 Y19.5499
G01 X9.4292 Y19.5607
G01 X9.4581 Y19.5743
G01 X9.4854 Y19.5907
G01 X9.5111 Y19.6097
G01 X9.5347 Y19.6312
G01 X9.5561 Y19.6548
G01 X9.5751 Y19.6804
G01 X9.5915 Y19.7078
G01 X9.6052 Y19.7366
G01 X9.6159 Y19.7667
G01 X9.6237 Y19.7976
G01 X9.6283 Y19.8292
G01 X9.6299 Y19.8610
G01 X9.6299 Y21.2377
G01 X9.6283 Y21.2696
G01 X9.6237 Y21.3011
G01 X9.6159 Y21.3321
G01 X9.6052 Y21.3621
G01 X9.5915 Y21.3909
G01 X9.5751 Y21.4183
G01 X9.5561 Y21.4439
G01 X9.5347 Y21.4676
G01 X9.5111 Y21.4890
G01 X9.4854 Y21.5080
G01 X9.4581 Y21.5244
G01 X9.4292 Y21.5380
G01 X9.3992 Y21.5488
G01 X9.3682 Y21.5565
G01 X9.3367 Y21.5612
G01 X9.3048 Y21.5628
G01 X6.8868 Y21.5628
G01 X6.8549 Y21.5612
G01 X6.8233 Y21.5565
G01 X6.7924 Y21.5488
G01 X6.7623 Y21.5380
G01 X6.7335 Y21.5244
G01 X6.7061 Y21.5080
G01 X6.6805 Y21.4890
G01 X6.6569 Y21.4676
G01 X6.6355 Y21.4439
G01 X6.6165 Y21.4183
G01 X6.6001 Y21.3909
G01 X6.5864 Y21.3621
G01 X6.5757 Y21.3321
G01 X6.5679 Y21.3011
G01 X6.5632 Y21.2696
G01 X6.5617 Y21.2377
G01 X6.5617 Y19.8255
G01 X6.5632 Y19.7936
G01 X6.5679 Y19.7620
G01 X6.5757 Y19.7311
G01 X6.5864 Y19.7011
G01 X6.6001 Y19.6722
G01 X6.6165 Y19.6449
G01 X6.6355 Y19.6192
G01 X6.6569 Y19.5956
G01 X6.6805 Y19.5742
G01 X6.7061 Y19.5552
G01 X6.7335 Y19.5388
G01 X6.7623 Y19.5251
G01 X6.7924 Y19.5144
G01 X6.8233 Y19.5066
G01 X6.8549 Y19.5019
G01 X6.8868 Y19.5004
G01 X7.1179 Y19.5004
G01 X7.1498 Y19.5019
G01 X7.1813 Y19.5066
G01 X7.2123 Y19.5144
G01 X7.2423 Y19.5251
G01 X7.2711 Y19.5388
G01 X7.2985 Y19.5552
G01 X7.3241 Y19.5742
G01 X7.3478 Y19.5956
G01 X7.3692 Y19.6192
G01 X7.3882 Y19.6449
G01 X7.4046 Y19.6722
G01 X7.4182 Y19.7011
G01 X7.4290 Y19.7311
G01 X7.4367 Y19.7620
G01 X7.4414 Y19.7936
G01 X7.4430 Y19.8255
G01 X7.4430 Y20.6383
G01 X7.7199 Y20.6383
G01 X7.7199 Y20.0363
G01 X7.7215 Y20.0044
G01 X7.7262 Y19.9729
G01 X7.7339 Y19.9419
G01 X7.7447 Y19.9119
G01 X7.7583 Y19.8830
G01 X7.7747 Y19.8557
G01 X7.7937 Y19.8301
G01 X7.8151 Y19.8064
G01 X7.8388 Y19.7850
G01 X7.8644 Y19.7660
G01 X7.8917 Y19.7496
G01 X7.9206 Y19.7359
G01 X7.9506 Y19.7252
G01 X7.9816 Y19.7174
G01 X8.0131 Y19.7128
G01 X8.0450 Y19.7112
G01 X8.2761 Y19.7112
G01 X8.3080 Y19.7128
G01 X8.3395 Y19.7174
G01 X8.3705 Y19.7252
G01 X8.4005 Y19.7359
G01 X8.4294 Y19.7496
G01 X8.4567 Y19.7660
G01 X8.4824 Y19.7850
G01 X8.5060 Y19.8064
G01 X8.5274 Y19.8301
G01 X8.5464 Y19.8557
G01 X8.5628 Y19.8830
G01 X8.5765 Y19.9119
G01 X8.5872 Y19.9419
G01 X8.5950 Y19.9729
G01 X8.5996 Y20.0044
G01 X8.6012 Y20.0363
G01 X8.6012 Y20.6383
G01 X8.7486 Y20.6383
G01 X8.7486 Y19.8610
G01 X8.7502 Y19.8292
G01 X8.7549 Y19.7976
G01 X8.7626 Y19.7667
G01 X8.7734 Y19.7366
G01 X8.7870 Y19.7078
G01 X8.8034 Y19.6804
G01 X8.8224 Y19.6548
G01 X8.8438 Y19.6312
G01 X8.8675 Y19.6097
G01 X8.8931 Y19.5907
G01 X8.9204 Y19.5743
G01 X8.9493 Y19.5607
G01 X8.9793 Y19.5499
G01 X9.0103 Y19.5422
G01 X9.0418 Y19.5375
G01 X9.0737 Y19.5359
G01 X9.3048 Y19.5359
G00 Z2.0000
G00 X8.8418 Y16.7516
G01 F60.00
G01 Z-0.0600
G01 F70.00
G01 X8.8671 Y16.7320
G01 X8.8943 Y16.7149
G01 X8.9230 Y16.7006
G01 X8.9530 Y16.6892
G01 X8.9839 Y16.6809
G01 X9.0156 Y16.6756
G01 X9.0476 Y16.6734
G01 X9.0796 Y16.6744
G01 X9.1114 Y16.6786
G01 X9.1426 Y16.6859
G01 X9.1730 Y16.6962
G01 X9.2022 Y16.7094
G01 X9.2300 Y16.7255
G01 X9.2560 Y16.7442
G01 X9.2801 Y16.7654
G01 X9.3177 Y16.8020
G01 X9.3297 Y16.8144
G01 X9.3668 Y16.8545
G01 X9.3816 Y16.8717
G01 X9.4167 Y16.9154
G01 X9.4272 Y16.9293
G01 X9.4608 Y16.9761
G01 X9.4721 Y16.9930
G01 X9.5036 Y17.0433
G01 X9.5150 Y17.0629
G01 X9.5434 Y17.1163
G01 X9.5534 Y17.1367
G01 X9.5788 Y17.1936
G01 X9.5874 Y17.2148
G01 X9.6092 Y17.2747
G01 X9.6173 Y17.3001
G01 X9.6346 Y17.3631
G01 X9.6399 Y17.3853
G01 X9.6531 Y17.4513
G01 X9.6572 Y17.4771
G01 X9.6653 Y17.5462
G01 X9.6672 Y17.5705
G01 X9.6703 Y17.6426
G01 X9.6704 Y17.6650
G01 X9.6689 Y17.7219
G01 X9.6682 Y17.7370
G01 X9.6641 Y17.7923
G01 X9.6626 Y17.8074
G01 X9.6560 Y17.8623
G01 X9.6532 Y17.8813
G01 X9.6435 Y17.9346
G01 X9.6402 Y17.9505
G01 X9.6280 Y18.0029
G01 X9.6239 Y18.0188
G01 X9.6092 Y18.0701
G01 X9.6004 Y18.0963
G01 X9.5628 Y18.1948
G01 X9.5530 Y18.2180
G01 X9.5306 Y18.2652
G01 X9.5223 Y18.2816
G01 X9.4974 Y18.3274
G01 X9.4889 Y18.3419
G01 X9.4615 Y18.3866
G01 X9.4505 Y18.4035
G01 X9.4205 Y18.4461
G01 X9.4046 Y18.4669
G01 X9.3375 Y18.5477
G01 X9.3204 Y18.5668
G01 X9.2833 Y18.6049
G01 X9.2707 Y18.6172
G01 X9.2316 Y18.6532
G01 X9.2130 Y18.6691
G01 X9.1277 Y18.7367
G01 X9.0996 Y18.7566
G01 X9.0056 Y18.8160
G01 X8.9767 Y18.8323
G01 X8.8736 Y18.8836
G01 X8.8548 Y18.8922
G01 X8.8004 Y18.9151
G01 X8.7846 Y18.9212
G01 X8.7282 Y18.9415
G01 X8.7144 Y18.9462
G01 X8.6555 Y18.9645
G01 X8.6410 Y18.9686
G01 X8.5806 Y18.9843
G01 X8.5627 Y18.9885
G01 X8.4362 Y19.0139
G01 X8.4087 Y19.0182
G01 X8.2741 Y19.0334
G01 X8.2492 Y19.0353
G01 X8.1075 Y19.0404
G01 X8.0842 Y19.0404
G01 X7.9415 Y19.0353
G01 X7.9245 Y19.0342
G01 X7.8554 Y19.0281
G01 X7.8397 Y19.0264
G01 X7.7732 Y19.0172
G01 X7.7563 Y19.0145
G01 X7.6288 Y18.9901
G01 X7.6023 Y18.9838
G01 X7.4825 Y18.9503
G01 X7.4607 Y18.9434
G01 X7.4038 Y18.9231
G01 X7.3844 Y18.9154
G01 X7.2772 Y18.8692
G01 X7.2547 Y18.8585
G01 X7.2045 Y18.8321
G01 X7.1906 Y18.8243
G01 X7.1423 Y18.7959
G01 X7.1292 Y18.7877
G01 X7.0834 Y18.7577
G01 X7.0696 Y18.7481
G01 X7.0259 Y18.7161
G01 X7.0123 Y18.7056
G01 X6.9706 Y18.6716
G01 X6.9520 Y18.6551
G01 X6.8758 Y18.5825
G01 X6.8564 Y18.5623
G01 X6.8219 Y18.5232
G01 X6.8059 Y18.5036
G01 X6.7439 Y18.4213
G01 X6.7227 Y18.3894
G01 X6.6709 Y18.3005
G01 X6.6591 Y18.2784
G01 X6.6368 Y18.2322
G01 X6.6292 Y18.2152
G01 X6.6094 Y18.1675
G01 X6.6032 Y18.1514
G01 X6.5859 Y18.1027
G01 X6.5804 Y18.0855
G01 X6.5656 Y18.0352
G01 X6.5613 Y18.0190
G01 X6.5491 Y17.9677
G01 X6.5457 Y17.9515
G01 X6.5361 Y17.8991
G01 X6.5332 Y17.8802
G01 X6.5265 Y17.8268
G01 X6.5250 Y17.8108
G01 X6.5209 Y17.7560
G01 X6.5201 Y17.7410
G01 X6.5186 Y17.6856
G01 X6.5187 Y17.6659
G01 X6.5212 Y17.5887
G01 X6.5228 Y17.5659
G01 X6.5304 Y17.4923
G01 X6.5338 Y17.4682
G01 X6.5465 Y17.3976
G01 X6.5521 Y17.3724
G01 X6.5698 Y17.3048
G01 X6.5768 Y17.2818
G01 X6.5992 Y17.2168
G01 X6.6084 Y17.1930
G01 X6.6353 Y17.1311
G01 X6.6473 Y17.1064
G01 X6.6793 Y17.0470
G01 X6.6928 Y17.0242
G01 X6.7293 Y16.9678
G01 X6.7409 Y16.9512
G01 X6.7815 Y16.8964
G01 X6.7978 Y16.8762
G01 X6.8430 Y16.8243
G01 X6.8569 Y16.8093
G01 X6.9067 Y16.7591
G01 X6.9220 Y16.7446
G01 X6.9759 Y16.6968
G01 X7.0004 Y16.6771
G01 X7.0268 Y16.6598
G01 X7.0547 Y16.6451
G01 X7.0840 Y16.6333
G01 X7.1142 Y16.6243
G01 X7.1452 Y16.6183
G01 X7.1766 Y16.6153
G01 X7.2081 Y16.6154
G01 X7.2395 Y16.6185
G01 X7.2704 Y16.6247
G01 X7.3006 Y16.6338
G01 X7.3298 Y16.6458
G01 X7.3576 Y16.6606
G01 X7.3839 Y16.6780
G01 X7.4084 Y16.6979
G01 X7.5786 Y16.8503
G01 X7.6012 Y16.8726
G01 X7.6215 Y16.8970
G01 X7.6394 Y16.9233
G01 X7.6546 Y16.9513
G01 X7.6669 Y16.9805
G01 X7.6764 Y17.0109
G01 X7.6829 Y17.0420
G01 X7.6863 Y17.0736
G01 X7.6866 Y17.1054
G01 X7.6837 Y17.1370
G01 X7.6778 Y17.1683
G01 X7.6689 Y17.1988
G01 X7.6571 Y17.2283
G01 X7.6424 Y17.2565
G01 X7.6250 Y17.2831
G01 X7.6051 Y17.3079
G01 X7.5829 Y17.3306
G01 X7.5469 Y17.3641
G01 X7.5196 Y17.3925
G01 X7.4964 Y17.4193
G01 X7.4770 Y17.4451
G01 X7.4607 Y17.4698
G01 X7.4475 Y17.4938
G01 X7.4367 Y17.5179
G01 X7.4274 Y17.5437
G01 X7.4199 Y17.5705
G01 X7.4147 Y17.5978
G01 X7.4114 Y17.6277
G01 X7.4101 Y17.6615
G01 X7.4114 Y17.6972
G01 X7.4149 Y17.7296
G01 X7.4207 Y17.7610
G01 X7.4281 Y17.7897
G01 X7.4374 Y17.8162
G01 X7.4480 Y17.8403
G01 X7.4608 Y17.8637
G01 X7.4757 Y17.8868
G01 X7.4917 Y17.9076
G01 X7.5111 Y17.9289
G01 X7.5323 Y17.9493
G01 X7.5554 Y17.9680
G01 X7.5839 Y17.9879
G01 X7.6144 Y18.0067
G01 X7.6482 Y18.0242
G01 X7.6844 Y18.0406
G01 X7.7241 Y18.0553
G01 X7.7692 Y18.0696
G01 X7.8152 Y18.0813
G01 X7.8664 Y18.0915
G01 X7.9206 Y18.0999
G01 X7.9772 Y18.1060
G01 X8.0374 Y18.1097
G01 X8.1009 Y18.1109
G01 X8.1632 Y18.1097
G01 X8.2229 Y18.1056
G01 X8.2795 Y18.0995
G01 X8.3322 Y18.0910
G01 X8.3814 Y18.0808
G01 X8.4268 Y18.0683
G01 X8.4712 Y18.0537
G01 X8.5104 Y18.0385
G01 X8.5460 Y18.0218
G01 X8.5793 Y18.0037
G01 X8.6087 Y17.9852
G01 X8.6354 Y17.9654
G01 X8.6598 Y17.9448
G01 X8.6812 Y17.9238
G01 X8.6999 Y17.9027
G01 X8.7153 Y17.8818
G01 X8.7306 Y17.8573
G01 X8.7436 Y17.8328
G01 X8.7540 Y17.8086
G01 X8.7635 Y17.7804
G01 X8.7711 Y17.7510
G01 X8.7766 Y17.7201
G01 X8.7802 Y17.6865
G01 X8.7813 Y17.6542
G01 X8.7790 Y17.6110
G01 X8.7730 Y17.5759
G01 X8.7630 Y17.5427
G01 X8.7497 Y17.5106
G01 X8.7333 Y17.4811
G01 X8.7124 Y17.4514
G01 X8.6865 Y17.4211
G01 X8.6469 Y17.3819
G01 X8.6256 Y17.3586
G01 X8.6066 Y17.3334
G01 X8.5901 Y17.3064
G01 X8.5764 Y17.2780
G01 X8.5655 Y17.2483
G01 X8.5575 Y17.2178
G01 X8.5525 Y17.1866
G01 X8.5505 Y17.1550
G01 X8.5516 Y17.1235
G01 X8.5558 Y17.0921
G01 X8.5630 Y17.0614
G01 X8.5732 Y17.0315
G01 X8.5862 Y17.0027
G01 X8.6020 Y16.9753
G01 X8.6203 Y16.9496
G01 X8.6410 Y16.9257
G01 X8.6640 Y16.9040
G01 X8.8418 Y16.7516
G00 Z2.0000
G00 X9.3048 Y13.7041
G01 F60.00
G01 Z-0.0600
G01 F70.00
G01 X9.3367 Y13.7057
G01 X9.3682 Y13.7103
G01 X9.3992 Y13.7181
G01 X9.4292 Y13.7288
G01 X9.4581 Y13.7425
G01 X9.4854 Y13.7589
G01 X9.5111 Y13.7779
G01 X9.5347 Y13.7993
G01 X9.5561 Y13.8230
G01 X9.5751 Y13.8486
G01 X9.5915 Y13.8759
G01 X9.6052 Y13.9048
G01 X9.6159 Y13.9348
G01 X9.6237 Y13.9658
G01 X9.6283 Y13.9973
G01 X9.6299 Y14.0292
G01 X9.6299 Y14.3035
G01 X9.6283 Y14.3354
G01 X9.6237 Y14.3669
G01 X9.6159 Y14.3979
G01 X9.6052 Y14.4279
G01 X9.5915 Y14.4567
G01 X9.5751 Y14.4841
G01 X9.5561 Y14.5097
G01 X9.5347 Y14.5334
G01 X9.5111 Y14.5548
G01 X9.4854 Y14.5738
G01 X9.4581 Y14.5902
G01 X9.4292 Y14.6038
G01 X9.3992 Y14.6146
G01 X9.3682 Y14.6223
G01 X9.3367 Y14.6270
G01 X9.3048 Y14.6286
G01 X8.6063 Y14.6286
G01 X8.6063 Y15.1443
G01 X9.3048 Y15.1443
G01 X9.3367 Y15.1458
G01 X9.3682 Y15.1505
G01 X9.3992 Y15.1583
G01 X9.4292 Y15.1690
G01 X9.4581 Y15.1827
G01 X9.4854 Y15.1991
G01 X9.5111 Y15.2181
G01 X9.5347 Y15.2395
G01 X9.5561 Y15.2631
G01 X9.5751 Y15.2888
G01 X9.5915 Y15.3161
G01 X9.6052 Y15.3450
G01 X9.6159 Y15.3750
G01 X9.6237 Y15.4059
G01 X9.6283 Y15.4375
G01 X9.6299 Y15.4694
G01 X9.6299 Y15.7437
G01 X9.6283 Y15.7755
G01 X9.6237 Y15.8071
G01 X9.6159 Y15.8380
G01 X9.6052 Y15.8681
G01 X9.5915 Y15.8969
G01 X9.5751 Y15.9243
G01 X9.5561 Y15.9499
G01 X9.5347 Y15.9735
G01 X9.5111 Y15.9950
G01 X9.4854 Y16.0140
G01 X9.4581 Y16.0304
G01 X9.4292 Y16.0440
G01 X9.3992 Y16.0548
G01 X9.3682 Y16.0625
G01 X9.3367 Y16.0672
G01 X9.3048 Y16.0688
G01 X6.8868 Y16.0688
G01 X6.8549 Y16.0672
G01 X6.8233 Y16.0625
G01 X6.7924 Y16.0548
G01 X6.7623 Y16.0440
G01 X6.7335 Y16.0304
G01 X6.7061 Y16.0140
G01 X6.6805 Y15.9950
G01 X6.6569 Y15.9735
G01 X6.6355 Y15.9499
G01 X6.6165 Y15.9243
G01 X6.6001 Y15.8969
G01 X6.5864 Y15.8681
G01 X6.5757 Y15.8380
G01 X6.5679 Y15.8071
G01 X6.5632 Y15.7755
G01 X6.5617 Y15.7437
G01 X6.5617 Y15.4694
G01 X6.5632 Y15.4375
G01 X6.5679 Y15.4059
G01 X6.5757 Y15.3750
G01 X6.5864 Y15.3450
G01 X6.6001 Y15.3161
G01 X6.6165 Y15.2888
G01 X6.6355 Y15.2631
G01 X6.6569 Y15.2395
G01 X6.6805 Y15.2181
G01 X6.7061 Y15.1991
G01 X6.7335 Y15.1827
G01 X6.7623 Y15.1690
G01 X6.7924 Y15.1583
G01 X6.8233 Y15.1505
G01 X6.8549 Y15.1458
G01 X6.8868 Y15.1443
G01 X7.7174 Y15.1443
G01 X7.7174 Y14.6286
G01 X6.8868 Y14.6286
G01 X6.8549 Y14.6270
G01 X6.8233 Y14.6223
G01 X6.7924 Y14.6146
G01 X6.7623 Y14.6038
G01 X6.7335 Y14.5902
G01 X6.7061 Y14.5738
G01 X6.6805 Y14.5548
G01 X6.6569 Y14.5334
G01 X6.6355 Y14.5097
G01 X6.6165 Y14.4841
G01 X6.6001 Y14.4567
G01 X6.5864 Y14.4279
G01 X6.5757 Y14.3979
G01 X6.5679 Y14.3669
G01 X6.5632 Y14.3354
G01 X6.5617 Y14.3035
G01 X6.5617 Y14.0292
G01 X6.5632 Y13.9973
G01 X6.5679 Y13.9658
G01 X6.5757 Y13.9348
G01 X6.5864 Y13.9048
G01 X6.6001 Y13.8759
G01 X6.6165 Y13.8486
G01 X6.6355 Y13.8230
G01 X6.6569 Y13.7993
G01 X6.6805 Y13.7779
G01 X6.7061 Y13.7589
G01 X6.7335 Y13.7425
G01 X6.7623 Y13.7288
G01 X6.7924 Y13.7181
G01 X6.8233 Y13.7103
G01 X6.8549 Y13.7057
G01 X6.8868 Y13.7041
G01 X9.3048 Y13.7041
G00 Z2.0000
G00 X9.3048 Y10.5850
G01 F60.00
G01 Z-0.0600
G01 F70.00
G01 X9.3367 Y10.5865
G01 X9.3682 Y10.5912
G01 X9.3992 Y10.5990
G01 X9.4292 Y10.6097
G01 X9.4581 Y10.6234
G01 X9.4854 Y10.6398
G01 X9.5111 Y10.6588
G01 X9.5347 Y10.6802
G01 X9.5561 Y10.7038
G01 X9.5751 Y10.7295
G01 X9.5915 Y10.7568
G01 X9.6052 Y10.7857
G01 X9.6159 Y10.8157
G01 X9.6237 Y10.8466
G01 X9.6283 Y10.8782
G01 X9.6299 Y10.9101
G01 X9.6299 Y11.1844
G01 X9.6283 Y11.2162
G01 X9.6237 Y11.2478
G01 X9.6159 Y11.2787
G01 X9.6052 Y11.3088
G01 X9.5915 Y11.3376
G01 X9.5751 Y11.3650
G01 X9.5561 Y11.3906
G01 X9.5347 Y11.4142
G01 X9.5111 Y11.4357
G01 X9.4854 Y11.4547
G01 X9.4581 Y11.4711
G01 X9.4292 Y11.4847
G01 X9.3992 Y11.4955
G01 X9.3682 Y11.5032
G01 X9.3367 Y11.5079
G01 X9.3048 Y11.5095
G01 X8.6063 Y11.5095
G01 X8.6063 Y12.0252
G01 X9.3048 Y12.0252
G01 X9.3367 Y12.0267
G01 X9.3682 Y12.0314
G01 X9.3992 Y12.0392
G01 X9.4292 Y12.0499
G01 X9.4581 Y12.0635
G01 X9.4854 Y12.0799
G01 X9.5111 Y12.0989
G01 X9.5347 Y12.1204
G01 X9.5561 Y12.1440
G01 X9.5751 Y12.1696
G01 X9.5915 Y12.1970
G01 X9.6052 Y12.2258
G01 X9.6159 Y12.2559
G01 X9.6237 Y12.2868
G01 X9.6283 Y12.3184
G01 X9.6299 Y12.3502
G01 X9.6299 Y12.6246
G01 X9.6283 Y12.6564
G01 X9.6237 Y12.6880
G01 X9.6159 Y12.7189
G01 X9.6052 Y12.7490
G01 X9.5915 Y12.7778
G01 X9.5751 Y12.8052
G01 X9.5561 Y12.8308
G01 X9.5347 Y12.8544
G01 X9.5111 Y12.8759
G01 X9.4854 Y12.8949
G01 X9.4581 Y12.9113
G01 X9.4292 Y12.9249
G01 X9.3992 Y12.9356
G01 X9.3682 Y12.9434
G01 X9.3367 Y12.9481
G01 X9.3048 Y12.9496
G01 X6.8868 Y12.9496
G01 X6.8549 Y12.9481
G01 X6.8233 Y12.9434
G01 X6.7924 Y12.9356
G01 X6.7623 Y12.9249
G01 X6.7335 Y12.9113
G01 X6.7061 Y12.8949
G01 X6.6805 Y12.8759
G01 X6.6569 Y12.8544
G01 X6.6355 Y12.8308
G01 X6.6165 Y12.8052
G01 X6.6001 Y12.7778
G01 X6.5864 Y12.7490
G01 X6.5757 Y12.7189
G01 X6.5679 Y12.6880
G01 X6.5632 Y12.6564
G01 X6.5617 Y12.6246
G01 X6.5617 Y12.3502
G01 X6.5632 Y12.3184
G01 X6.5679 Y12.2868
G01 X6.5757 Y12.2559
G01 X6.5864 Y12.2258
G01 X6.6001 Y12.1970
G01 X6.6165 Y12.1696
G01 X6.6355 Y12.1440
G01 X6.6569 Y12.1204
G01 X6.6805 Y12.0989
G01 X6.7061 Y12.0799
G01 X6.7335 Y12.0635
G01 X6.7623 Y12.0499
G01 X6.7924 Y12.0392
G01 X6.8233 Y12.0314
G01 X6.8549 Y12.0267
G01 X6.8868 Y12.0252
G01 X7.7174 Y12.0252
G01 X7.7174 Y11.5095
G01 X6.8868 Y11.5095
G01 X6.8549 Y11.5079
G01 X6.8233 Y11.5032
G01 X6.7924 Y11.4955
G01 X6.7623 Y11.4847
G01 X6.7335 Y11.4711
G01 X6.7061 Y11.4547
G01 X6.6805 Y11.4357
G01 X6.6569 Y11.4142
G01 X6.6355 Y11.3906
G01 X6.6165 Y11.3650
G01 X6.6001 Y11.3376
G01 X6.5864 Y11.3088
G01 X6.5757 Y11.2787
G01 X6.5679 Y11.2478
G01 X6.5632 Y11.2162
G01 X6.5617 Y11.1844
G01 X6.5617 Y10.9101
G01 X6.5632 Y10.8782
G01 X6.5679 Y10.8466
G01 X6.5757 Y10.8157
G01 X6.5864 Y10.7857
G01 X6.6001 Y10.7568
G01 X6.6165 Y10.7295
G01 X6.6355 Y10.7038
G01 X6.6569 Y10.6802
G01 X6.6805 Y10.6588
G01 X6.7061 Y10.6398
G01 X6.7335 Y10.6234
G01 X6.7623 Y10.6097
G01 X6.7924 Y10.5990
G01 X6.8233 Y10.5912
G01 X6.8549 Y10.5865
G01 X6.8868 Y10.5850
G01 X9.3048 Y10.5850
G00 Z2.0000
G00 X9.6704 Y8.6152
G01 F60.00
G01 Z-0.0600
G01 F70.00
G01 X9.6704 Y8.6329
G01 X9.6689 Y8.6888
G01 X9.6681 Y8.7042
G01 X9.6641 Y8.7585
G01 X9.6625 Y8.7743
G01 X9.6559 Y8.8276
G01 X9.6517 Y8.8532
G01 X9.6304 Y8.9568
G01 X9.6237 Y8.9835
G01 X9.6089 Y9.0333
G01 X9.6033 Y9.0506
G01 X9.5860 Y9.0988
G01 X9.5797 Y9.1150
G01 X9.5599 Y9.1623
G01 X9.5522 Y9.1793
G01 X9.5298 Y9.2250
G01 X9.5170 Y9.2488
G01 X9.4651 Y9.3357
G01 X9.4498 Y9.3590
G01 X9.4199 Y9.4006
G01 X9.4037 Y9.4213
G01 X9.3377 Y9.4990
G01 X9.3182 Y9.5200
G01 X9.2816 Y9.5561
G01 X9.2686 Y9.5683
G01 X9.2294 Y9.6028
G01 X9.2118 Y9.6173
G01 X9.1275 Y9.6818
G01 X9.0978 Y9.7020
G01 X9.0044 Y9.7584
G01 X8.9842 Y9.7696
G01 X8.9344 Y9.7950
G01 X8.9140 Y9.8045
G01 X8.8079 Y9.8497
G01 X8.7858 Y9.8582
G01 X8.7294 Y9.8775
G01 X8.7106 Y9.8833
G01 X8.5927 Y9.9158
G01 X8.5715 Y9.9209
G01 X8.5095 Y9.9336
G01 X8.4920 Y9.9367
G01 X8.3620 Y9.9560
G01 X8.3370 Y9.9587
G01 X8.1999 Y9.9684
G01 X8.1817 Y9.9692
G01 X8.1106 Y9.9702
G01 X8.0297 Y9.9692
G01 X8.0117 Y9.9684
G01 X7.8735 Y9.9588
G01 X7.8540 Y9.9568
G01 X7.7879 Y9.9482
G01 X7.7715 Y9.9456
G01 X7.6440 Y9.9222
G01 X7.6175 Y9.9162
G01 X7.4976 Y9.8837
G01 X7.4783 Y9.8778
G01 X7.4214 Y9.8585
G01 X7.4000 Y9.8504
G01 X7.2923 Y9.8052
G01 X7.2727 Y9.7962
G01 X7.2219 Y9.7708
G01 X7.2021 Y9.7600
G01 X7.1066 Y9.7036
G01 X7.0832 Y9.6884
G01 X7.0390 Y9.6569
G01 X7.0213 Y9.6434
G01 X6.9391 Y9.5758
G01 X6.9203 Y9.5592
G01 X6.8827 Y9.5231
G01 X6.8701 Y9.5103
G01 X6.8345 Y9.4722
G01 X6.8224 Y9.4585
G01 X6.7894 Y9.4189
G01 X6.7768 Y9.4028
G01 X6.7463 Y9.3611
G01 X6.7367 Y9.3472
G01 X6.7088 Y9.3046
G01 X6.6989 Y9.2884
G01 X6.6735 Y9.2442
G01 X6.6611 Y9.2205
G01 X6.6174 Y9.1276
G01 X6.6066 Y9.1017
G01 X6.5888 Y9.0534
G01 X6.5830 Y9.0362
G01 X6.5678 Y8.9864
G01 X6.5631 Y8.9694
G01 X6.5504 Y8.9181
G01 X6.5463 Y8.8990
G01 X6.5366 Y8.8466
G01 X6.5340 Y8.8306
G01 X6.5269 Y8.7772
G01 X6.5250 Y8.7585
G01 X6.5209 Y8.7042
G01 X6.5201 Y8.6888
G01 X6.5186 Y8.6330
G01 X6.5186 Y8.6152
G01 X6.5201 Y8.5593
G01 X6.5209 Y8.5440
G01 X6.5250 Y8.4896
G01 X6.5269 Y8.4709
G01 X6.5340 Y8.4175
G01 X6.5366 Y8.4015
G01 X6.5463 Y8.3491
G01 X6.5504 Y8.3301
G01 X6.5631 Y8.2787
G01 X6.5678 Y8.2617
G01 X6.5830 Y8.2119
G01 X6.5885 Y8.1957
G01 X6.6062 Y8.1469
G01 X6.6174 Y8.1201
G01 X6.6611 Y8.0271
G01 X6.6735 Y8.0033
G01 X6.6989 Y7.9591
G01 X6.7078 Y7.9445
G01 X6.7357 Y7.9014
G01 X6.7474 Y7.8845
G01 X6.7779 Y7.8433
G01 X6.7894 Y7.8287
G01 X6.8224 Y7.7891
G01 X6.8331 Y7.7769
G01 X6.8686 Y7.7383
G01 X6.8883 Y7.7187
G01 X6.9660 Y7.6476
G01 X6.9909 Y7.6270
G01 X7.0773 Y7.5625
G01 X7.1054 Y7.5437
G01 X7.2009 Y7.4868
G01 X7.2219 Y7.4753
G01 X7.2727 Y7.4499
G01 X7.2923 Y7.4409
G01 X7.4000 Y7.3957
G01 X7.4214 Y7.3876
G01 X7.4913 Y7.3642
G01 X7.5502 Y7.3469
G01 X7.5689 Y7.3420
G01 X7.6929 Y7.3136
G01 X7.7126 Y7.3097
G01 X7.7904 Y7.2971
G01 X7.8564 Y7.2890
G01 X7.8723 Y7.2874
G01 X8.0105 Y7.2772
G01 X8.0343 Y7.2764
G01 X8.1771 Y7.2764
G01 X8.1960 Y7.2769
G01 X8.2656 Y7.2810
G01 X8.2811 Y7.2823
G01 X8.4147 Y7.2965
G01 X8.4337 Y7.2991
G01 X8.4977 Y7.3098
G01 X8.5182 Y7.3138
G01 X8.6401 Y7.3423
G01 X8.6653 Y7.3492
G01 X8.7796 Y7.3858
G01 X8.8079 Y7.3963
G01 X8.9140 Y7.4415
G01 X8.9344 Y7.4511
G01 X8.9842 Y7.4765
G01 X9.0055 Y7.4884
G01 X9.0990 Y7.5453
G01 X9.1275 Y7.5648
G01 X9.2118 Y7.6293
G01 X9.2369 Y7.6506
G01 X9.3126 Y7.7217
G01 X9.3338 Y7.7436
G01 X9.3678 Y7.7822
G01 X9.3819 Y7.7993
G01 X9.4439 Y7.8801
G01 X9.4656 Y7.9121
G01 X9.5174 Y7.9995
G01 X9.5298 Y8.0226
G01 X9.5522 Y8.0683
G01 X9.5599 Y8.0854
G01 X9.5797 Y8.1326
G01 X9.5864 Y8.1498
G01 X9.6036 Y8.1985
G01 X9.6089 Y8.2148
G01 X9.6237 Y8.2646
G01 X9.6304 Y8.2913
G01 X9.6517 Y8.3949
G01 X9.6559 Y8.4205
G01 X9.6625 Y8.4738
G01 X9.6641 Y8.4896
G01 X9.6681 Y8.5440
G01 X9.6689 Y8.5593
G01 X9.6704 Y8.6152
G00 Z2.0000
G00 X8.7814 Y8.6240
G01 F60.00
G01 Z-0.0600
G01 F70.00
G01 X8.7803 Y8.6544
G01 X8.7769 Y8.6840
G01 X8.7719 Y8.7110
G01 X8.7650 Y8.7358
G01 X8.7562 Y8.7604
G01 X8.7465 Y8.7821
G01 X8.7356 Y8.8016
G01 X8.7213 Y8.8227
G01 X8.7049 Y8.8436
G01 X8.6869 Y8.8632
G01 X8.6665 Y8.8822
G01 X8.6439 Y8.9004
G01 X8.6175 Y8.9185
G01 X8.5873 Y8.9365
G01 X8.5545 Y8.9534
G01 X8.5184 Y8.9691
G01 X8.4783 Y8.9840
G01 X8.4341 Y8.9975
G01 X8.3911 Y9.0087
G01 X8.2817 Y9.0277
G01 X8.2290 Y9.0330
G01 X8.1683 Y9.0368
G01 X8.1059 Y9.0380
G01 X8.0425 Y9.0368
G01 X7.9811 Y9.0330
G01 X7.9272 Y9.0277
G01 X7.8155 Y9.0084
G01 X7.7706 Y8.9970
G01 X7.7254 Y8.9834
G01 X7.6840 Y8.9683
G01 X7.6466 Y8.9524
G01 X7.6119 Y8.9349
G01 X7.5806 Y8.9168
G01 X7.5533 Y8.8983
G01 X7.5284 Y8.8790
G01 X7.5076 Y8.8601
G01 X7.4886 Y8.8400
G01 X7.4721 Y8.8196
G01 X7.4573 Y8.7981
G01 X7.4450 Y8.7769
G01 X7.4352 Y8.7563
G01 X7.4266 Y8.7329
G01 X7.4195 Y8.7080
G01 X7.4145 Y8.6825
G01 X7.4113 Y8.6544
G01 X7.4102 Y8.6240
G01 X7.4113 Y8.5930
G01 X7.4145 Y8.5645
G01 X7.4195 Y8.5391
G01 X7.4266 Y8.5142
G01 X7.4352 Y8.4908
G01 X7.4457 Y8.4687
G01 X7.4582 Y8.4467
G01 X7.4720 Y8.4265
G01 X7.4886 Y8.4061
G01 X7.5076 Y8.3860
G01 X7.5284 Y8.3671
G01 X7.5533 Y8.3478
G01 X7.5817 Y8.3285
G01 X7.6119 Y8.3108
G01 X7.6466 Y8.2936
G01 X7.6851 Y8.2768
G01 X7.7254 Y8.2621
G01 X7.7706 Y8.2486
G01 X7.8155 Y8.2372
G01 X7.9272 Y8.2179
G01 X7.9811 Y8.2126
G01 X8.0425 Y8.2088
G01 X8.1059 Y8.2075
G01 X8.1683 Y8.2088
G01 X8.2290 Y8.2125
G01 X8.2817 Y8.2178
G01 X8.3911 Y8.2369
G01 X8.4341 Y8.2481
G01 X8.4783 Y8.2616
G01 X8.5172 Y8.2761
G01 X8.5545 Y8.2926
G01 X8.5873 Y8.3091
G01 X8.6165 Y8.3268
G01 X8.6439 Y8.3456
G01 X8.6665 Y8.3639
G01 X8.6869 Y8.3829
G01 X8.7049 Y8.4025
G01 X8.7213 Y8.4234
G01 X8.7347 Y8.4432
G01 X8.7458 Y8.4636
G01 X8.7562 Y8.4867
G01 X8.7650 Y8.5113
G01 X8.7719 Y8.5361
G01 X8.7769 Y8.5630
G01 X8.7803 Y8.5929
G01 X8.7814 Y8.6240
G00 Z2.0000
G00 X7.0649 Y4.9308
G01 F60.00
G01 Z-0.0600
G01 F70.00
G01 X6.8869 Y4.9309
G01 X6.8550 Y4.9293
G01 X6.8234 Y4.9246
G01 X6.7925 Y4.9169
G01 X6.7624 Y4.9061
G01 X6.7336 Y4.8925
G01 X6.7062 Y4.8761
G01 X6.6806 Y4.8571
G01 X6.6569 Y4.8357
G01 X6.6355 Y4.8120
G01 X6.6165 Y4.7864
G01 X6.6001 Y4.7591
G01 X6.5864 Y4.7302
G01 X6.5757 Y4.7002
G01 X6.5679 Y4.6692
G01 X6.5632 Y4.6377
G01 X6.5617 Y4.6058
G01 X6.5617 Y4.3518
G01 X6.5632 Y4.3199
G01 X6.5679 Y4.2884
G01 X6.5757 Y4.2574
G01 X6.5864 Y4.2274
G01 X6.6001 Y4.1985
G01 X6.6165 Y4.1712
G01 X6.6355 Y4.1456
G01 X6.6569 Y4.1219
G01 X6.6805 Y4.1005
G01 X6.7061 Y4.0815
G01 X6.7335 Y4.0651
G01 X6.7623 Y4.0514
G01 X6.7924 Y4.0407
G01 X6.8233 Y4.0329
G01 X6.8549 Y4.0283
G01 X6.8868 Y4.0267
G01 X9.3048 Y4.0267
G01 X9.3367 Y4.0283
G01 X9.3682 Y4.0329
G01 X9.3992 Y4.0407
G01 X9.4292 Y4.0514
G01 X9.4581 Y4.0651
G01 X9.4854 Y4.0815
G01 X9.5111 Y4.1005
G01 X9.5347 Y4.1219
G01 X9.5561 Y4.1456
G01 X9.5751 Y4.1712
G01 X9.5915 Y4.1985
G01 X9.6052 Y4.2274
G01 X9.6159 Y4.2574
G01 X9.6237 Y4.2884
G01 X9.6283 Y4.3199
G01 X9.6299 Y4.3518
G01 X9.6299 Y4.6896
G01 X9.6285 Y4.7202
G01 X9.6241 Y4.7506
G01 X9.6170 Y4.7804
G01 X9.6070 Y4.8095
G01 X9.5944 Y4.8374
G01 X9.5791 Y4.8640
G01 X9.5615 Y4.8891
G01 X9.5415 Y4.9124
G01 X9.5195 Y4.9338
G01 X9.4955 Y4.9529
G01 X9.4698 Y4.9697
G01 X9.4427 Y4.9840
G01 X9.4143 Y4.9957
G01 X8.4464 Y5.3419
G01 X9.4146 Y5.6892
G01 X9.4452 Y5.7020
G01 X9.4744 Y5.7178
G01 X9.5018 Y5.7366
G01 X9.5272 Y5.7580
G01 X9.5502 Y5.7819
G01 X9.5707 Y5.8081
G01 X9.5884 Y5.8362
G01 X9.6031 Y5.8659
G01 X9.6147 Y5.8970
G01 X9.6231 Y5.9292
G01 X9.6282 Y5.9620
G01 X9.6299 Y5.9952
G01 X9.6299 Y6.3330
G01 X9.6283 Y6.3648
G01 X9.6237 Y6.3964
G01 X9.6159 Y6.4273
G01 X9.6052 Y6.4574
G01 X9.5915 Y6.4862
G01 X9.5751 Y6.5136
G01 X9.5561 Y6.5392
G01 X9.5347 Y6.5628
G01 X9.5111 Y6.5843
G01 X9.4854 Y6.6033
G01 X9.4581 Y6.6197
G01 X9.4292 Y6.6333
G01 X9.3992 Y6.6441
G01 X9.3682 Y6.6518
G01 X9.3367 Y6.6565
G01 X9.3048 Y6.6581
G01 X6.8868 Y6.6581
G01 X6.8549 Y6.6565
G01 X6.8233 Y6.6518
G01 X6.7924 Y6.6441
G01 X6.7623 Y6.6333
G01 X6.7335 Y6.6197
G01 X6.7061 Y6.6033
G01 X6.6805 Y6.5843
G01 X6.6569 Y6.5628
G01 X6.6355 Y6.5392
G01 X6.6165 Y6.5136
G01 X6.6001 Y6.4862
G01 X6.5864 Y6.4574
G01 X6.5757 Y6.4273
G01 X6.5679 Y6.3964
G01 X6.5632 Y6.3648
G01 X6.5617 Y6.3330
G01 X6.5617 Y6.0866
G01 X6.5632 Y6.0547
G01 X6.5679 Y6.0232
G01 X6.5757 Y5.9922
G01 X6.5864 Y5.9622
G01 X6.6001 Y5.9333
G01 X6.6165 Y5.9060
G01 X6.6355 Y5.8803
G01 X6.6569 Y5.8567
G01 X6.6806 Y5.8353
G01 X6.7062 Y5.8163
G01 X6.7336 Y5.7999
G01 X6.7624 Y5.7862
G01 X6.7925 Y5.7755
G01 X6.8234 Y5.7677
G01 X6.8550 Y5.7631
G01 X6.8869 Y5.7615
G01 X7.0716 Y5.7616
G01 X7.0241 Y5.7443
G01 X6.9937 Y5.7313
G01 X6.9648 Y5.7154
G01 X6.9376 Y5.6966
G01 X6.9124 Y5.6752
G01 X6.8896 Y5.6513
G01 X6.8693 Y5.6252
G01 X6.8517 Y5.5972
G01 X6.8371 Y5.5675
G01 X6.8256 Y5.5366
G01 X6.8173 Y5.5046
G01 X6.8123 Y5.4719
G01 X6.8106 Y5.4389
G01 X6.8106 Y5.2509
G01 X6.8123 Y5.2179
G01 X6.8173 Y5.1852
G01 X6.8257 Y5.1531
G01 X6.8372 Y5.1221
G01 X6.8518 Y5.0924
G01 X6.8694 Y5.0644
G01 X6.8898 Y5.0383
G01 X6.9127 Y5.0144
G01 X6.9379 Y4.9929
G01 X6.9652 Y4.9742
G01 X6.9942 Y4.9583
G01 X7.0247 Y4.9454
G01 X7.0649 Y4.9308
G00 Z2.0000
G00 X9.3048 Y1.2403
G01 F60.00
G01 Z-0.0600
G01 F70.00
G01 X9.3367 Y1.2419
G01 X9.3682 Y1.2466
G01 X9.3992 Y1.2543
G01 X9.4292 Y1.2651
G01 X9.4581 Y1.2787
G01 X9.4854 Y1.2951
G01 X9.5111 Y1.3141
G01 X9.5347 Y1.3355
G01 X9.5561 Y1.3592
G01 X9.5751 Y1.3848
G01 X9.5915 Y1.4122
G01 X9.6052 Y1.4410
G01 X9.6159 Y1.4710
G01 X9.6237 Y1.5020
G01 X9.6283 Y1.5335
G01 X9.6299 Y1.5654
G01 X9.6299 Y2.9421
G01 X9.6283 Y2.9739
G01 X9.6237 Y3.0055
G01 X9.6159 Y3.0364
G01 X9.6052 Y3.0665
G01 X9.5915 Y3.0953
G01 X9.5751 Y3.1227
G01 X9.5561 Y3.1483
G01 X9.5347 Y3.1719
G01 X9.5111 Y3.1934
G01 X9.4854 Y3.2124
G01 X9.4581 Y3.2288
G01 X9.4292 Y3.2424
G01 X9.3992 Y3.2532
G01 X9.3682 Y3.2609
G01 X9.3367 Y3.2656
G01 X9.3048 Y3.2672
G01 X6.8868 Y3.2672
G01 X6.8549 Y3.2656
G01 X6.8233 Y3.2609
G01 X6.7924 Y3.2532
G01 X6.7623 Y3.2424
G01 X6.7335 Y3.2288
G01 X6.7061 Y3.2124
G01 X6.6805 Y3.1934
G01 X6.6569 Y3.1719
G01 X6.6355 Y3.1483
G01 X6.6165 Y3.1227
G01 X6.6001 Y3.0953
G01 X6.5864 Y3.0665
G01 X6.5757 Y3.0364
G01 X6.5679 Y3.0055
G01 X6.5632 Y2.9739
G01 X6.5617 Y2.9421
G01 X6.5617 Y1.5298
G01 X6.5632 Y1.4980
G01 X6.5679 Y1.4664
G01 X6.5757 Y1.4355
G01 X6.5864 Y1.4054
G01 X6.6001 Y1.3766
G01 X6.6165 Y1.3492
G01 X6.6355 Y1.3236
G01 X6.6569 Y1.3000
G01 X6.6805 Y1.2785
G01 X6.7061 Y1.2595
G01 X6.7335 Y1.2431
G01 X6.7623 Y1.2295
G01 X6.7924 Y1.2188
G01 X6.8233 Y1.2110
G01 X6.8549 Y1.2063
G01 X6.8868 Y1.2048
G01 X7.1179 Y1.2048
G01 X7.1498 Y1.2063
G01 X7.1813 Y1.2110
G01 X7.2123 Y1.2188
G01 X7.2423 Y1.2295
G01 X7.2711 Y1.2431
G01 X7.2985 Y1.2595
G01 X7.3241 Y1.2785
G01 X7.3478 Y1.3000
G01 X7.3692 Y1.3236
G01 X7.3882 Y1.3492
G01 X7.4046 Y1.3766
G01 X7.4182 Y1.4054
G01 X7.4290 Y1.4355
G01 X7.4367 Y1.4664
G01 X7.4414 Y1.4980
G01 X7.4430 Y1.5298
G01 X7.4430 Y2.3427
G01 X7.7199 Y2.3427
G01 X7.7199 Y1.7407
G01 X7.7215 Y1.7088
G01 X7.7262 Y1.6772
G01 X7.7339 Y1.6463
G01 X7.7447 Y1.6163
G01 X7.7583 Y1.5874
G01 X7.7747 Y1.5601
G01 X7.7937 Y1.5344
G01 X7.8151 Y1.5108
G01 X7.8388 Y1.4894
G01 X7.8644 Y1.4704
G01 X7.8917 Y1.4540
G01 X7.9206 Y1.4403
G01 X7.9506 Y1.4296
G01 X7.9816 Y1.4218
G01 X8.0131 Y1.4171
G01 X8.0450 Y1.4156
G01 X8.2761 Y1.4156
G01 X8.3080 Y1.4171
G01 X8.3395 Y1.4218
G01 X8.3705 Y1.4296
G01 X8.4005 Y1.4403
G01 X8.4294 Y1.4540
G01 X8.4567 Y1.4704
G01 X8.4824 Y1.4894
G01 X8.5060 Y1.5108
G01 X8.5274 Y1.5344
G01 X8.5464 Y1.5601
G01 X8.5628 Y1.5874
G01 X8.5765 Y1.6163
G01 X8.5872 Y1.6463
G01 X8.5950 Y1.6772
G01 X8.5996 Y1.7088
G01 X8.6012 Y1.7407
G01 X8.6012 Y2.3427
G01 X8.7486 Y2.3427
G01 X8.7486 Y1.5654
G01 X8.7502 Y1.5335
G01 X8.7549 Y1.5020
G01 X8.7626 Y1.4710
G01 X8.7734 Y1.4410
G01 X8.7870 Y1.4122
G01 X8.8034 Y1.3848
G01 X8.8224 Y1.3592
G01 X8.8438 Y1.3355
G01 X8.8675 Y1.3141
G01 X8.8931 Y1.2951
G01 X8.9204 Y1.2787
G01 X8.9493 Y1.2651
G01 X8.9793 Y1.2543
G01 X9.0103 Y1.2466
G01 X9.0418 Y1.2419
G01 X9.0737 Y1.2403
G01 X9.3048 Y1.2403
G00 Z2.0000
G00 X12.2486 Y15.1139
G01 F60.00
G01 Z-0.0600
G01 F70.00
G01 X12.2489 Y0.3970
G01 X12.2493 Y0.3810
G01 X12.2517 Y0.3320
G01 X12.2548 Y0.3003
G01 X12.2620 Y0.2517
G01 X12.2682 Y0.2204
G01 X12.2801 Y0.1728
G01 X12.2894 Y0.1423
G01 X12.3059 Y0.0960
G01 X12.3182 Y0.0666
G01 X12.3391 Y0.0222
G01 X12.3542 Y-0.0059
G01 X12.3794 Y-0.0480
G01 X12.3971 Y-0.0746
G01 X12.4264 Y-0.1140
G01 X12.4466 Y-0.1387
G01 X12.4796 Y-0.1750
G01 X12.5021 Y-0.1976
G01 X12.5385 Y-0.2306
G01 X12.5632 Y-0.2508
G01 X12.6026 Y-0.2800
G01 X12.6291 Y-0.2978
G01 X12.6712 Y-0.3230
G01 X12.6994 Y-0.3380
G01 X12.7438 Y-0.3590
G01 X12.7732 Y-0.3712
G01 X12.8195 Y-0.3878
G01 X12.8500 Y-0.3970
G01 X12.8976 Y-0.4090
G01 X12.9289 Y-0.4152
G01 X12.9775 Y-0.4224
G01 X13.0092 Y-0.4255
G01 X13.0582 Y-0.4279
G01 X13.0742 Y-0.4283
G01 X33.3307 Y-0.4283
G01 X33.3466 Y-0.4279
G01 X33.3957 Y-0.4255
G01 X33.4274 Y-0.4224
G01 X33.4760 Y-0.4152
G01 X33.5073 Y-0.4090
G01 X33.5549 Y-0.3970
G01 X33.5854 Y-0.3878
G01 X33.6316 Y-0.3712
G01 X33.6611 Y-0.3590
G01 X33.7055 Y-0.3380
G01 X33.7336 Y-0.3230
G01 X33.7757 Y-0.2978
G01 X33.8023 Y-0.2800
G01 X33.8417 Y-0.2508
G01 X33.8664 Y-0.2306
G01 X33.9027 Y-0.1976
G01 X33.9253 Y-0.1750
G01 X33.9583 Y-0.1387
G01 X33.9785 Y-0.1140
G01 X34.0077 Y-0.0746
G01 X34.0255 Y-0.0480
G01 X34.0507 Y-0.0059
G01 X34.0657 Y0.0222
G01 X34.0867 Y0.0666
G01 X34.0989 Y0.0960
G01 X34.1155 Y0.1423
G01 X34.1247 Y0.1728
G01 X34.1367 Y0.2204
G01 X34.1429 Y0.2517
G01 X34.1501 Y0.3003
G01 X34.1532 Y0.3320
G01 X34.1556 Y0.3810
G01 X34.1560 Y0.3970
G01 X34.1560 Y2.5420
G01 X34.1844 Y2.5677
G01 X34.2069 Y2.5903
G01 X34.2663 Y2.6557
G01 X34.2865 Y2.6804
G01 X34.3391 Y2.7513
G01 X34.3568 Y2.7779
G01 X34.4022 Y2.8536
G01 X34.4173 Y2.8818
G01 X34.4550 Y2.9616
G01 X34.4672 Y2.9911
G01 X34.4970 Y3.0742
G01 X34.5063 Y3.1048
G01 X34.5277 Y3.1904
G01 X34.5339 Y3.2217
G01 X34.5469 Y3.3091
G01 X34.5500 Y3.3408
G01 X34.5544 Y3.4290
G01 X34.5544 Y3.4610
G01 X34.5500 Y3.5492
G01 X34.5469 Y3.5809
G01 X34.5339 Y3.6683
G01 X34.5277 Y3.6996
G01 X34.5063 Y3.7852
G01 X34.4970 Y3.8158
G01 X34.4672 Y3.8989
G01 X34.4550 Y3.9284
G01 X34.4173 Y4.0082
G01 X34.4022 Y4.0364
G01 X34.3568 Y4.1121
G01 X34.3391 Y4.1387
G01 X34.2865 Y4.2096
G01 X34.2663 Y4.2343
G01 X34.2069 Y4.2997
G01 X34.1844 Y4.3223
G01 X34.1189 Y4.3816
G01 X34.0943 Y4.4018
G01 X34.0233 Y4.4544
G01 X33.9968 Y4.4722
G01 X33.9211 Y4.5176
G01 X33.8929 Y4.5326
G01 X33.8131 Y4.5704
G01 X33.7836 Y4.5826
G01 X33.7005 Y4.6123
G01 X33.6699 Y4.6216
G01 X33.5842 Y4.6430
G01 X33.5530 Y4.6493
G01 X33.4656 Y4.6622
G01 X33.4338 Y4.6654
G01 X33.3456 Y4.6697
G01 X33.3137 Y4.6697
G01 X33.2255 Y4.6654
G01 X33.1938 Y4.6622
G01 X33.1064 Y4.6493
G01 X33.0751 Y4.6430
G01 X32.9894 Y4.6216
G01 X32.9589 Y4.6123
G01 X32.8757 Y4.5826
G01 X32.8463 Y4.5704
G01 X32.7664 Y4.5326
G01 X32.7383 Y4.5176
G01 X32.6625 Y4.4722
G01 X32.6360 Y4.4544
G01 X32.5651 Y4.4018
G01 X32.5404 Y4.3816
G01 X32.4750 Y4.3223
G01 X32.4524 Y4.2997
G01 X32.3931 Y4.2343
G01 X32.3729 Y4.2096
G01 X32.3203 Y4.1387
G01 X32.3025 Y4.1121
G01 X32.2571 Y4.0364
G01 X32.2421 Y4.0082
G01 X32.2043 Y3.9284
G01 X32.1921 Y3.8989
G01 X32.1624 Y3.8158
G01 X32.1531 Y3.7852
G01 X32.1316 Y3.6996
G01 X32.1254 Y3.6683
G01 X32.1125 Y3.5809
G01 X32.1093 Y3.5492
G01 X32.1050 Y3.4610
G01 X32.1050 Y3.4290
G01 X32.1093 Y3.3408
G01 X32.1125 Y3.3091
G01 X32.1254 Y3.2217
G01 X32.1316 Y3.1904
G01 X32.1531 Y3.1048
G01 X32.1624 Y3.0742
G01 X32.1921 Y2.9911
G01 X32.2043 Y2.9616
G01 X32.2421 Y2.8818
G01 X32.2571 Y2.8536
G01 X32.3025 Y2.7779
G01 X32.3203 Y2.7513
G01 X32.3729 Y2.6804
G01 X32.3931 Y2.6557
G01 X32.4524 Y2.5903
G01 X32.4750 Y2.5677
G01 X32.5047 Y2.5408
G01 X32.5052 Y1.2223
G01 X13.8995 Y1.2223
G01 X13.8995 Y15.1146
G01 X13.9284 Y15.1407
G01 X13.9510 Y15.1633
G01 X14.0103 Y15.2287
G01 X14.0305 Y15.2534
G01 X14.0831 Y15.3243
G01 X14.1008 Y15.3509
G01 X14.1462 Y15.4266
G01 X14.1613 Y15.4548
G01 X14.1991 Y15.5346
G01 X14.2113 Y15.5641
G01 X14.2410 Y15.6472
G01 X14.2503 Y15.6778
G01 X14.2717 Y15.7634
G01 X14.2780 Y15.7947
G01 X14.2909 Y15.8821
G01 X14.2940 Y15.9138
G01 X14.2984 Y16.0020
G01 X14.2984 Y16.0340
G01 X14.2940 Y16.1222
G01 X14.2909 Y16.1539
G01 X14.2780 Y16.2413
G01 X14.2717 Y16.2726
G01 X14.2503 Y16.3582
G01 X14.2410 Y16.3888
G01 X14.2113 Y16.4719
G01 X14.1991 Y16.5014
G01 X14.1613 Y16.5812
G01 X14.1462 Y16.6094
G01 X14.1008 Y16.6851
G01 X14.0831 Y16.7117
G01 X14.0305 Y16.7826
G01 X14.0103 Y16.8073
G01 X13.9510 Y16.8727
G01 X13.9284 Y16.8953
G01 X13.8630 Y16.9546
G01 X13.8383 Y16.9748
G01 X13.7674 Y17.0274
G01 X13.7408 Y17.0452
G01 X13.6651 Y17.0906
G01 X13.6369 Y17.1056
G01 X13.5571 Y17.1434
G01 X13.5276 Y17.1556
G01 X13.4445 Y17.1853
G01 X13.4139 Y17.1946
G01 X13.3283 Y17.2160
G01 X13.2970 Y17.2223
G01 X13.2096 Y17.2352
G01 X13.1779 Y17.2384
G01 X13.0896 Y17.2427
G01 X13.0577 Y17.2427
G01 X12.9695 Y17.2384
G01 X12.9378 Y17.2352
G01 X12.8504 Y17.2223
G01 X12.8191 Y17.2160
G01 X12.7334 Y17.1946
G01 X12.7029 Y17.1853
G01 X12.6198 Y17.1556
G01 X12.5903 Y17.1434
G01 X12.5104 Y17.1056
G01 X12.4823 Y17.0906
G01 X12.4066 Y17.0452
G01 X12.3800 Y17.0274
G01 X12.3091 Y16.9748
G01 X12.2844 Y16.9546
G01 X12.2190 Y16.8953
G01 X12.1964 Y16.8727
G01 X12.1371 Y16.8073
G01 X12.1169 Y16.7826
G01 X12.0643 Y16.7117
G01 X12.0465 Y16.6851
G01 X12.0011 Y16.6094
G01 X11.9861 Y16.5812
G01 X11.9483 Y16.5014
G01 X11.9361 Y16.4719
G01 X11.9064 Y16.3888
G01 X11.8971 Y16.3582
G01 X11.8756 Y16.2726
G01 X11.8694 Y16.2413
G01 X11.8565 Y16.1539
G01 X11.8533 Y16.1222
G01 X11.8490 Y16.0340
G01 X11.8490 Y16.0020
G01 X11.8533 Y15.9138
G01 X11.8565 Y15.8821
G01 X11.8694 Y15.7947
G01 X11.8756 Y15.7634
G01 X11.8971 Y15.6778
G01 X11.9064 Y15.6472
G01 X11.9361 Y15.5641
G01 X11.9483 Y15.5346
G01 X11.9861 Y15.4548
G01 X12.0011 Y15.4266
G01 X12.0465 Y15.3509
G01 X12.0643 Y15.3243
G01 X12.1169 Y15.2534
G01 X12.1371 Y15.2287
G01 X12.1964 Y15.1633
G01 X12.2190 Y15.1407
G01 X12.2486 Y15.1139
G00 Z2.0000
G00 X13.9776 Y17.7327
G01 F60.00
G01 Z-0.0600
G01 F70.00
G01 X17.5044 Y17.7327
G01 X17.5044 Y4.3489
G01 X17.4750 Y4.3223
G01 X17.4524 Y4.2997
G01 X17.3931 Y4.2343
G01 X17.3729 Y4.2096
G01 X17.3203 Y4.1387
G01 X17.3026 Y4.1121
G01 X17.2572 Y4.0364
G01 X17.2421 Y4.0082
G01 X17.2043 Y3.9284
G01 X17.1921 Y3.8989
G01 X17.1624 Y3.8158
G01 X17.1531 Y3.7852
G01 X17.1317 Y3.6996
G01 X17.1254 Y3.6683
G01 X17.1125 Y3.5809
G01 X17.1094 Y3.5492
G01 X17.1050 Y3.4610
G01 X17.1050 Y3.4290
G01 X17.1094 Y3.3408
G01 X17.1125 Y3.3091
G01 X17.1254 Y3.2217
G01 X17.1317 Y3.1904
G01 X17.1531 Y3.1048
G01 X17.1624 Y3.0742
G01 X17.1921 Y2.9911
G01 X17.2043 Y2.9616
G01 X17.2421 Y2.8818
G01 X17.2572 Y2.8536
G01 X17.3026 Y2.7779
G01 X17.3203 Y2.7513
G01 X17.3729 Y2.6804
G01 X17.3931 Y2.6557
G01 X17.4524 Y2.5903
G01 X17.4750 Y2.5677
G01 X17.5404 Y2.5084
G01 X17.5651 Y2.4882
G01 X17.6360 Y2.4356
G01 X17.6626 Y2.4178
G01 X17.7383 Y2.3724
G01 X17.7665 Y2.3574
G01 X17.8463 Y2.3196
G01 X17.8758 Y2.3074
G01 X17.9589 Y2.2777
G01 X17.9895 Y2.2684
G01 X18.0751 Y2.2470
G01 X18.1064 Y2.2407
G01 X18.1938 Y2.2278
G01 X18.2255 Y2.2246
G01 X18.3138 Y2.2203
G01 X18.3457 Y2.2203
G01 X18.4339 Y2.2246
G01 X18.4656 Y2.2278
G01 X18.5530 Y2.2407
G01 X18.5843 Y2.2470
G01 X18.6700 Y2.2684
G01 X18.7005 Y2.2777
G01 X18.7836 Y2.3074
G01 X18.8131 Y2.3196
G01 X18.8930 Y2.3574
G01 X18.9211 Y2.3724
G01 X18.9968 Y2.4178
G01 X19.0234 Y2.4356
G01 X19.0943 Y2.4882
G01 X19.1190 Y2.5084
G01 X19.1844 Y2.5677
G01 X19.2070 Y2.5903
G01 X19.2663 Y2.6557
G01 X19.2865 Y2.6804
G01 X19.3391 Y2.7513
G01 X19.3569 Y2.7779
G01 X19.4023 Y2.8536
G01 X19.4173 Y2.8818
G01 X19.4551 Y2.9616
G01 X19.4673 Y2.9911
G01 X19.4970 Y3.0742
G01 X19.5063 Y3.1048
G01 X19.5278 Y3.1904
G01 X19.5340 Y3.2217
G01 X19.5469 Y3.3091
G01 X19.5501 Y3.3408
G01 X19.5544 Y3.4290
G01 X19.5544 Y3.4610
G01 X19.5501 Y3.5492
G01 X19.5469 Y3.5809
G01 X19.5340 Y3.6683
G01 X19.5278 Y3.6996
G01 X19.5063 Y3.7852
G01 X19.4970 Y3.8158
G01 X19.4673 Y3.8989
G01 X19.4551 Y3.9284
G01 X19.4173 Y4.0082
G01 X19.4023 Y4.0364
G01 X19.3569 Y4.1121
G01 X19.3391 Y4.1387
G01 X19.2865 Y4.2096
G01 X19.2663 Y4.2343
G01 X19.2070 Y4.2997
G01 X19.1844 Y4.3223
G01 X19.1550 Y4.3489
G01 X19.1550 Y18.5580
G01 X19.1546 Y18.5740
G01 X19.1522 Y18.6230
G01 X19.1491 Y18.6547
G01 X19.1419 Y18.7033
G01 X19.1357 Y18.7346
G01 X19.1238 Y18.7822
G01 X19.1145 Y18.8127
G01 X19.0980 Y18.8590
G01 X19.0857 Y18.8884
G01 X19.0648 Y18.9328
G01 X19.0497 Y18.9609
G01 X19.0245 Y19.0030
G01 X19.0068 Y19.0296
G01 X18.9775 Y19.0690
G01 X18.9573 Y19.0937
G01 X18.9243 Y19.1300
G01 X18.9018 Y19.1526
G01 X18.8654 Y19.1856
G01 X18.8407 Y19.2058
G01 X18.8013 Y19.2350
G01 X18.7748 Y19.2528
G01 X18.7327 Y19.2780
G01 X18.7045 Y19.2930
G01 X18.6601 Y19.3140
G01 X18.6307 Y19.3262
G01 X18.5844 Y19.3428
G01 X18.5539 Y19.3520
G01 X18.5063 Y19.3640
G01 X18.4750 Y19.3702
G01 X18.4264 Y19.3774
G01 X18.3947 Y19.3805
G01 X18.3457 Y19.3829
G01 X18.3297 Y19.3833
G01 X13.9776 Y19.3833
G01 X13.9510 Y19.4127
G01 X13.9284 Y19.4353
G01 X13.8630 Y19.4946
G01 X13.8383 Y19.5148
G01 X13.7674 Y19.5674
G01 X13.7408 Y19.5852
G01 X13.6651 Y19.6306
G01 X13.6369 Y19.6456
G01 X13.5571 Y19.6834
G01 X13.5276 Y19.6956
G01 X13.4445 Y19.7253
G01 X13.4139 Y19.7346
G01 X13.3283 Y19.7560
G01 X13.2970 Y19.7623
G01 X13.2096 Y19.7752
G01 X13.1779 Y19.7784
G01 X13.0896 Y19.7827
G01 X13.0577 Y19.7827
G01 X12.9695 Y19.7784
G01 X12.9378 Y19.7752
G01 X12.8504 Y19.7623
G01 X12.8191 Y19.7560
G01 X12.7334 Y19.7346
G01 X12.7029 Y19.7253
G01 X12.6198 Y19.6956
G01 X12.5903 Y19.6834
G01 X12.5104 Y19.6456
G01 X12.4823 Y19.6306
G01 X12.4066 Y19.5852
G01 X12.3800 Y19.5674
G01 X12.3091 Y19.5148
G01 X12.2844 Y19.4946
G01 X12.2190 Y19.4353
G01 X12.1964 Y19.4127
G01 X12.1371 Y19.3473
G01 X12.1169 Y19.3226
G01 X12.0643 Y19.2517
G01 X12.0465 Y19.2251
G01 X12.0011 Y19.1494
G01 X11.9861 Y19.1212
G01 X11.9483 Y19.0414
G01 X11.9361 Y19.0119
G01 X11.9064 Y18.9288
G01 X11.8971 Y18.8982
G01 X11.8756 Y18.8126
G01 X11.8694 Y18.7813
G01 X11.8565 Y18.6939
G01 X11.8533 Y18.6622
G01 X11.8490 Y18.5740
G01 X11.8490 Y18.5420
G01 X11.8533 Y18.4538
G01 X11.8565 Y18.4221
G01 X11.8694 Y18.3347
G01 X11.8756 Y18.3034
G01 X11.8971 Y18.2178
G01 X11.9064 Y18.1872
G01 X11.9361 Y18.1041
G01 X11.9483 Y18.0746
G01 X11.9861 Y17.9948
G01 X12.0011 Y17.9666
G01 X12.0465 Y17.8909
G01 X12.0643 Y17.8643
G01 X12.1169 Y17.7934
G01 X12.1371 Y17.7687
G01 X12.1964 Y17.7033
G01 X12.2190 Y17.6807
G01 X12.2844 Y17.6214
G01 X12.3091 Y17.6012
G01 X12.3800 Y17.5486
G01 X12.4066 Y17.5308
G01 X12.4823 Y17.4854
G01 X12.5104 Y17.4704
G01 X12.5903 Y17.4326
G01 X12.6198 Y17.4204
G01 X12.7029 Y17.3907
G01 X12.7334 Y17.3814
G01 X12.8191 Y17.3600
G01 X12.8504 Y17.3537
G01 X12.9378 Y17.3408
G01 X12.9695 Y17.3376
G01 X13.0577 Y17.3333
G01 X13.0896 Y17.3333
G01 X13.1779 Y17.3376
G01 X13.2096 Y17.3408
G01 X13.2970 Y17.3537
G01 X13.3283 Y17.3600
G01 X13.4139 Y17.3814
G01 X13.4445 Y17.3907
G01 X13.5276 Y17.4204
G01 X13.5571 Y17.4326
G01 X13.6369 Y17.4704
G01 X13.6651 Y17.4854
G01 X13.7408 Y17.5308
G01 X13.7674 Y17.5486
G01 X13.8383 Y17.6012
G01 X13.8630 Y17.6214
G01 X13.9284 Y17.6807
G01 X13.9510 Y17.7033
G01 X13.9776 Y17.7327
G00 Z2.0000
G00 X11.8490 Y21.1140
G01 F60.00
G01 Z-0.0600
G01 F70.00
G01 X11.8490 Y21.0820
G01 X11.8533 Y20.9938
G01 X11.8565 Y20.9621
G01 X11.8694 Y20.8747
G01 X11.8756 Y20.8434
G01 X11.8971 Y20.7578
G01 X11.9064 Y20.7272
G01 X11.9361 Y20.6441
G01 X11.9483 Y20.6146
G01 X11.9861 Y20.5348
G01 X12.0011 Y20.5066
G01 X12.0465 Y20.4309
G01 X12.0643 Y20.4043
G01 X12.1169 Y20.3334
G01 X12.1371 Y20.3087
G01 X12.1964 Y20.2433
G01 X12.2190 Y20.2207
G01 X12.2844 Y20.1614
G01 X12.3091 Y20.1412
G01 X12.3800 Y20.0886
G01 X12.4066 Y20.0708
G01 X12.4823 Y20.0254
G01 X12.5104 Y20.0104
G01 X12.5903 Y19.9726
G01 X12.6198 Y19.9604
G01 X12.7029 Y19.9307
G01 X12.7334 Y19.9214
G01 X12.8191 Y19.9000
G01 X12.8504 Y19.8937
G01 X12.9378 Y19.8808
G01 X12.9695 Y19.8776
G01 X13.0577 Y19.8733
G01 X13.0896 Y19.8733
G01 X13.1779 Y19.8776
G01 X13.2096 Y19.8808
G01 X13.2970 Y19.8937
G01 X13.3283 Y19.9000
G01 X13.4139 Y19.9214
G01 X13.4445 Y19.9307
G01 X13.5276 Y19.9604
G01 X13.5571 Y19.9726
G01 X13.6369 Y20.0104
G01 X13.6651 Y20.0254
G01 X13.7408 Y20.0708
G01 X13.7674 Y20.0886
G01 X13.8383 Y20.1412
G01 X13.8630 Y20.1614
G01 X13.9284 Y20.2207
G01 X13.9510 Y20.2433
G01 X14.0103 Y20.3087
G01 X14.0305 Y20.3334
G01 X14.0831 Y20.4043
G01 X14.1008 Y20.4309
G01 X14.1462 Y20.5066
G01 X14.1613 Y20.5348
G01 X14.1991 Y20.6146
G01 X14.2113 Y20.6441
G01 X14.2410 Y20.7272
G01 X14.2503 Y20.7578
G01 X14.2717 Y20.8434
G01 X14.2780 Y20.8747
G01 X14.2909 Y20.9621
G01 X14.2940 Y20.9938
G01 X14.2984 Y21.0820
G01 X14.2984 Y21.1140
G01 X14.2940 Y21.2022
G01 X14.2909 Y21.2339
G01 X14.2780 Y21.3213
G01 X14.2717 Y21.3526
G01 X14.2503 Y21.4382
G01 X14.2410 Y21.4688
G01 X14.2113 Y21.5519
G01 X14.1991 Y21.5814
G01 X14.1613 Y21.6612
G01 X14.1462 Y21.6894
G01 X14.1008 Y21.7651
G01 X14.0831 Y21.7917
G01 X14.0305 Y21.8626
G01 X14.0103 Y21.8873
G01 X13.9510 Y21.9527
G01 X13.9284 Y21.9753
G01 X13.8630 Y22.0346
G01 X13.8383 Y22.0548
G01 X13.7674 Y22.1074
G01 X13.7408 Y22.1252
G01 X13.6651 Y22.1706
G01 X13.6369 Y22.1856
G01 X13.5571 Y22.2234
G01 X13.5276 Y22.2356
G01 X13.4445 Y22.2653
G01 X13.4139 Y22.2746
G01 X13.3283 Y22.2960
G01 X13.2970 Y22.3023
G01 X13.2096 Y22.3152
G01 X13.1779 Y22.3184
G01 X13.0896 Y22.3227
G01 X13.0577 Y22.3227
G01 X12.9695 Y22.3184
G01 X12.9378 Y22.3152
G01 X12.8504 Y22.3023
G01 X12.8191 Y22.2960
G01 X12.7334 Y22.2746
G01 X12.7029 Y22.2653
G01 X12.6198 Y22.2356
G01 X12.5903 Y22.2234
G01 X12.5104 Y22.1856
G01 X12.4823 Y22.1706
G01 X12.4066 Y22.1252
G01 X12.3800 Y22.1074
G01 X12.3091 Y22.0548
G01 X12.2844 Y22.0346
G01 X12.2190 Y21.9753
G01 X12.1964 Y21.9527
G01 X12.1371 Y21.8873
G01 X12.1169 Y21.8626
G01 X12.0643 Y21.7917
G01 X12.0465 Y21.7651
G01 X12.0011 Y21.6894
G01 X11.9861 Y21.6612
G01 X11.9483 Y21.5814
G01 X11.9361 Y21.5519
G01 X11.9064 Y21.4688
G01 X11.8971 Y21.4382
G01 X11.8756 Y21.3526
G01 X11.8694 Y21.3213
G01 X11.8565 Y21.2339
G01 X11.8533 Y21.2022
G01 X11.8490 Y21.1140
G00 Z2.0000
G00 X13.9776 Y22.8127
G01 F60.00
G01 Z-0.0600
G01 F70.00
G01 X20.0045 Y22.8127
G01 X20.0045 Y4.3489
G01 X19.9751 Y4.3223
G01 X19.9526 Y4.2997
G01 X19.8933 Y4.2343
G01 X19.8730 Y4.2096
G01 X19.8204 Y4.1387
G01 X19.8027 Y4.1121
G01 X19.7573 Y4.0364
G01 X19.7422 Y4.0082
G01 X19.7045 Y3.9284
G01 X19.6923 Y3.8989
G01 X19.6625 Y3.8158
G01 X19.6532 Y3.7852
G01 X19.6318 Y3.6996
G01 X19.6256 Y3.6683
G01 X19.6126 Y3.5809
G01 X19.6095 Y3.5492
G01 X19.6051 Y3.4610
G01 X19.6051 Y3.4290
G01 X19.6095 Y3.3408
G01 X19.6126 Y3.3091
G01 X19.6256 Y3.2217
G01 X19.6318 Y3.1904
G01 X19.6532 Y3.1048
G01 X19.6625 Y3.0742
G01 X19.6923 Y2.9911
G01 X19.7045 Y2.9616
G01 X19.7422 Y2.8818
G01 X19.7573 Y2.8536
G01 X19.8027 Y2.7779
G01 X19.8204 Y2.7513
G01 X19.8730 Y2.6804
G01 X19.8933 Y2.6557
G01 X19.9526 Y2.5903
G01 X19.9751 Y2.5677
G01 X20.0406 Y2.5084
G01 X20.0652 Y2.4882
G01 X20.1362 Y2.4356
G01 X20.1627 Y2.4178
G01 X20.2384 Y2.3724
G01 X20.2666 Y2.3574
G01 X20.3464 Y2.3196
G01 X20.3759 Y2.3074
G01 X20.4591 Y2.2777
G01 X20.4896 Y2.2684
G01 X20.5753 Y2.2470
G01 X20.6065 Y2.2407
G01 X20.6939 Y2.2278
G01 X20.7257 Y2.2246
G01 X20.8139 Y2.2203
G01 X20.8458 Y2.2203
G01 X20.9340 Y2.2246
G01 X20.9657 Y2.2278
G01 X21.0531 Y2.2407
G01 X21.0844 Y2.2470
G01 X21.1701 Y2.2684
G01 X21.2006 Y2.2777
G01 X21.2838 Y2.3074
G01 X21.3132 Y2.3196
G01 X21.3931 Y2.3574
G01 X21.4212 Y2.3724
G01 X21.4970 Y2.4178
G01 X21.5235 Y2.4356
G01 X21.5944 Y2.4882
G01 X21.6191 Y2.5084
G01 X21.6845 Y2.5677
G01 X21.7071 Y2.5903
G01 X21.7664 Y2.6557
G01 X21.7866 Y2.6804
G01 X21.8393 Y2.7513
G01 X21.8570 Y2.7779
G01 X21.9024 Y2.8536
G01 X21.9174 Y2.8818
G01 X21.9552 Y2.9616
G01 X21.9674 Y2.9911
G01 X21.9972 Y3.0742
G01 X22.0064 Y3.1048
G01 X22.0279 Y3.1904
G01 X22.0341 Y3.2217
G01 X22.0471 Y3.3091
G01 X22.0502 Y3.3408
G01 X22.0545 Y3.4290
G01 X22.0545 Y3.4610
G01 X22.0502 Y3.5492
G01 X22.0471 Y3.5809
G01 X22.0341 Y3.6683
G01 X22.0279 Y3.6996
G01 X22.0064 Y3.7852
G01 X21.9972 Y3.8158
G01 X21.9674 Y3.8989
G01 X21.9552 Y3.9284
G01 X21.9174 Y4.0082
G01 X21.9024 Y4.0364
G01 X21.8570 Y4.1121
G01 X21.8393 Y4.1387
G01 X21.7866 Y4.2096
G01 X21.7664 Y4.2343
G01 X21.7071 Y4.2997
G01 X21.6845 Y4.3223
G01 X21.6552 Y4.3489
G01 X21.6552 Y23.6380
G01 X21.6548 Y23.6540
G01 X21.6524 Y23.7030
G01 X21.6492 Y23.7347
G01 X21.6420 Y23.7833
G01 X21.6358 Y23.8146
G01 X21.6239 Y23.8622
G01 X21.6146 Y23.8927
G01 X21.5981 Y23.9390
G01 X21.5859 Y23.9684
G01 X21.5649 Y24.0128
G01 X21.5498 Y24.0409
G01 X21.5246 Y24.0830
G01 X21.5069 Y24.1096
G01 X21.4776 Y24.1490
G01 X21.4574 Y24.1737
G01 X21.4244 Y24.2100
G01 X21.4019 Y24.2326
G01 X21.3655 Y24.2656
G01 X21.3408 Y24.2858
G01 X21.3014 Y24.3150
G01 X21.2749 Y24.3328
G01 X21.2328 Y24.3580
G01 X21.2046 Y24.3730
G01 X21.1603 Y24.3940
G01 X21.1308 Y24.4062
G01 X21.0846 Y24.4228
G01 X21.0540 Y24.4320
G01 X21.0064 Y24.4440
G01 X20.9751 Y24.4502
G01 X20.9266 Y24.4574
G01 X20.8948 Y24.4605
G01 X20.8458 Y24.4629
G01 X20.8298 Y24.4633
G01 X13.9776 Y24.4633
G01 X13.9510 Y24.4927
G01 X13.9284 Y24.5153
G01 X13.8630 Y24.5746
G01 X13.8383 Y24.5948
G01 X13.7674 Y24.6474
G01 X13.7408 Y24.6652
G01 X13.6651 Y24.7106
G01 X13.6369 Y24.7256
G01 X13.5571 Y24.7634
G01 X13.5276 Y24.7756
G01 X13.4445 Y24.8053
G01 X13.4139 Y24.8146
G01 X13.3283 Y24.8360
G01 X13.2970 Y24.8423
G01 X13.2096 Y24.8552
G01 X13.1779 Y24.8584
G01 X13.0896 Y24.8627
G01 X13.0577 Y24.8627
G01 X12.9695 Y24.8584
G01 X12.9378 Y24.8552
G01 X12.8504 Y24.8423
G01 X12.8191 Y24.8360
G01 X12.7334 Y24.8146
G01 X12.7029 Y24.8053
G01 X12.6198 Y24.7756
G01 X12.5903 Y24.7634
G01 X12.5104 Y24.7256
G01 X12.4823 Y24.7106
G01 X12.4066 Y24.6652
G01 X12.3800 Y24.6474
G01 X12.3091 Y24.5948
G01 X12.2844 Y24.5746
G01 X12.2190 Y24.5153
G01 X12.1964 Y24.4927
G01 X12.1371 Y24.4273
G01 X12.1169 Y24.4026
G01 X12.0643 Y24.3317
G01 X12.0465 Y24.3051
G01 X12.0011 Y24.2294
G01 X11.9861 Y24.2012
G01 X11.9483 Y24.1214
G01 X11.9361 Y24.0919
G01 X11.9064 Y24.0088
G01 X11.8971 Y23.9782
G01 X11.8756 Y23.8926
G01 X11.8694 Y23.8613
G01 X11.8565 Y23.7739
G01 X11.8533 Y23.7422
G01 X11.8490 Y23.6540
G01 X11.8490 Y23.6220
G01 X11.8533 Y23.5338
G01 X11.8565 Y23.5021
G01 X11.8694 Y23.4147
G01 X11.8756 Y23.3834
G01 X11.8971 Y23.2978
G01 X11.9064 Y23.2672
G01 X11.9361 Y23.1841
G01 X11.9483 Y23.1546
G01 X11.9861 Y23.0748
G01 X12.0011 Y23.0466
G01 X12.0465 Y22.9709
G01 X12.0643 Y22.9443
G01 X12.1169 Y22.8734
G01 X12.1371 Y22.8487
G01 X12.1964 Y22.7833
G01 X12.2190 Y22.7607
G01 X12.2844 Y22.7014
G01 X12.3091 Y22.6812
G01 X12.3800 Y22.6286
G01 X12.4066 Y22.6108
G01 X12.4823 Y22.5654
G01 X12.5104 Y22.5504
G01 X12.5903 Y22.5126
G01 X12.6198 Y22.5004
G01 X12.7029 Y22.4707
G01 X12.7334 Y22.4614
G01 X12.8191 Y22.4400
G01 X12.8504 Y22.4337
G01 X12.9378 Y22.4208
G01 X12.9695 Y22.4176
G01 X13.0577 Y22.4133
G01 X13.0896 Y22.4133
G01 X13.1779 Y22.4176
G01 X13.2096 Y22.4208
G01 X13.2970 Y22.4337
G01 X13.3283 Y22.4400
G01 X13.4139 Y22.4614
G01 X13.4445 Y22.4707
G01 X13.5276 Y22.5004
G01 X13.5571 Y22.5126
G01 X13.6369 Y22.5504
G01 X13.6651 Y22.5654
G01 X13.7408 Y22.6108
G01 X13.7674 Y22.6286
G01 X13.8383 Y22.6812
G01 X13.8630 Y22.7014
G01 X13.9284 Y22.7607
G01 X13.9510 Y22.7833
G01 X13.9776 Y22.8127
G00 Z2.0000
G00 X11.8490 Y28.7340
G01 F60.00
G01 Z-0.0600
G01 F70.00
G01 X11.8490 Y28.7020
G01 X11.8533 Y28.6138
G01 X11.8565 Y28.5821
G01 X11.8694 Y28.4947
G01 X11.8756 Y28.4634
G01 X11.8971 Y28.3778
G01 X11.9064 Y28.3472
G01 X11.9361 Y28.2641
G01 X11.9483 Y28.2346
G01 X11.9861 Y28.1548
G01 X12.0011 Y28.1266
G01 X12.0465 Y28.0509
G01 X12.0643 Y28.0243
G01 X12.1169 Y27.9534
G01 X12.1371 Y27.9287
G01 X12.1964 Y27.8633
G01 X12.2190 Y27.8407
G01 X12.2844 Y27.7814
G01 X12.3091 Y27.7612
G01 X12.3800 Y27.7086
G01 X12.4066 Y27.6908
G01 X12.4823 Y27.6454
G01 X12.5104 Y27.6304
G01 X12.5903 Y27.5926
G01 X12.6198 Y27.5804
G01 X12.7029 Y27.5507
G01 X12.7334 Y27.5414
G01 X12.8191 Y27.5200
G01 X12.8504 Y27.5137
G01 X12.9378 Y27.5008
G01 X12.9695 Y27.4976
G01 X13.0577 Y27.4933
G01 X13.0896 Y27.4933
G01 X13.1779 Y27.4976
G01 X13.2096 Y27.5008
G01 X13.2970 Y27.5137
G01 X13.3283 Y27.5200
G01 X13.4139 Y27.5414
G01 X13.4445 Y27.5507
G01 X13.5276 Y27.5804
G01 X13.5571 Y27.5926
G01 X13.6369 Y27.6304
G01 X13.6651 Y27.6454
G01 X13.7408 Y27.6908
G01 X13.7674 Y27.7086
G01 X13.8383 Y27.7612
G01 X13.8630 Y27.7814
G01 X13.9284 Y27.8407
G01 X13.9510 Y27.8633
G01 X14.0103 Y27.9287
G01 X14.0305 Y27.9534
G01 X14.0831 Y28.0243
G01 X14.1008 Y28.0509
G01 X14.1462 Y28.1266
G01 X14.1613 Y28.1548
G01 X14.1991 Y28.2346
G01 X14.2113 Y28.2641
G01 X14.2410 Y28.3472
G01 X14.2503 Y28.3778
G01 X14.2717 Y28.4634
G01 X14.2780 Y28.4947
G01 X14.2909 Y28.5821
G01 X14.2940 Y28.6138
G01 X14.2984 Y28.7020
G01 X14.2984 Y28.7340
G01 X14.2940 Y28.8222
G01 X14.2909 Y28.8539
G01 X14.2780 Y28.9413
G01 X14.2717 Y28.9726
G01 X14.2503 Y29.0582
G01 X14.2410 Y29.0888
G01 X14.2113 Y29.1719
G01 X14.1991 Y29.2014
G01 X14.1613 Y29.2812
G01 X14.1462 Y29.3094
G01 X14.1008 Y29.3851
G01 X14.0831 Y29.4117
G01 X14.0305 Y29.4826
G01 X14.0103 Y29.5073
G01 X13.9510 Y29.5727
G01 X13.9284 Y29.5953
G01 X13.8630 Y29.6546
G01 X13.8383 Y29.6748
G01 X13.7674 Y29.7274
G01 X13.7408 Y29.7452
G01 X13.6651 Y29.7906
G01 X13.6369 Y29.8056
G01 X13.5571 Y29.8434
G01 X13.5276 Y29.8556
G01 X13.4445 Y29.8853
G01 X13.4139 Y29.8946
G01 X13.3283 Y29.9160
G01 X13.2970 Y29.9223
G01 X13.2096 Y29.9352
G01 X13.1779 Y29.9384
G01 X13.0896 Y29.9427
G01 X13.0577 Y29.9427
G01 X12.9695 Y29.9384
G01 X12.9378 Y29.9352
G01 X12.8504 Y29.9223
G01 X12.8191 Y29.9160
G01 X12.7334 Y29.8946
G01 X12.7029 Y29.8853
G01 X12.6198 Y29.8556
G01 X12.5903 Y29.8434
G01 X12.5104 Y29.8056
G01 X12.4823 Y29.7906
G01 X12.4066 Y29.7452
G01 X12.3800 Y29.7274
G01 X12.3091 Y29.6748
G01 X12.2844 Y29.6546
G01 X12.2190 Y29.5953
G01 X12.1964 Y29.5727
G01 X12.1371 Y29.5073
G01 X12.1169 Y29.4826
G01 X12.0643 Y29.4117
G01 X12.0465 Y29.3851
G01 X12.0011 Y29.3094
G01 X11.9861 Y29.2812
G01 X11.9483 Y29.2014
G01 X11.9361 Y29.1719
G01 X11.9064 Y29.0888
G01 X11.8971 Y29.0582
G01 X11.8756 Y28.9726
G01 X11.8694 Y28.9413
G01 X11.8565 Y28.8539
G01 X11.8533 Y28.8222
G01 X11.8490 Y28.7340
G00 Z2.0000
G00 X11.9490 Y31.2740
G01 F60.00
G01 Z-0.0600
G01 F70.00
G01 X11.9490 Y31.2420
G01 X11.9529 Y31.1636
G01 X11.9560 Y31.1319
G01 X11.9675 Y31.0542
G01 X11.9737 Y31.0229
G01 X11.9928 Y30.9468
G01 X12.0021 Y30.9163
G01 X12.0285 Y30.8423
G01 X12.0407 Y30.8129
G01 X12.0743 Y30.7419
G01 X12.0893 Y30.7138
G01 X12.1297 Y30.6464
G01 X12.1474 Y30.6199
G01 X12.1942 Y30.5568
G01 X12.2144 Y30.5322
G01 X12.2671 Y30.4740
G01 X12.2897 Y30.4514
G01 X12.3479 Y30.3987
G01 X12.3725 Y30.3785
G01 X12.4356 Y30.3317
G01 X12.4621 Y30.3140
G01 X12.5294 Y30.2736
G01 X12.5576 Y30.2586
G01 X12.6286 Y30.2250
G01 X12.6580 Y30.2128
G01 X12.7319 Y30.1864
G01 X12.7625 Y30.1771
G01 X12.8386 Y30.1580
G01 X12.8699 Y30.1518
G01 X12.9476 Y30.1403
G01 X12.9793 Y30.1372
G01 X13.0577 Y30.1333
G01 X13.0896 Y30.1333
G01 X13.1681 Y30.1372
G01 X13.1998 Y30.1403
G01 X13.2775 Y30.1518
G01 X13.3088 Y30.1580
G01 X13.3849 Y30.1771
G01 X13.4154 Y30.1864
G01 X13.4894 Y30.2128
G01 X13.5188 Y30.2250
G01 X13.5898 Y30.2586
G01 X13.6179 Y30.2736
G01 X13.6853 Y30.3140
G01 X13.7118 Y30.3317
G01 X13.7749 Y30.3785
G01 X13.7995 Y30.3987
G01 X13.8577 Y30.4514
G01 X13.8802 Y30.4740
G01 X13.9330 Y30.5322
G01 X13.9532 Y30.5568
G01 X14.0000 Y30.6199
G01 X14.0177 Y30.6464
G01 X14.0581 Y30.7138
G01 X14.0731 Y30.7419
G01 X14.1067 Y30.8129
G01 X14.1189 Y30.8423
G01 X14.1453 Y30.9163
G01 X14.1546 Y30.9468
G01 X14.1737 Y31.0229
G01 X14.1799 Y31.0542
G01 X14.1914 Y31.1319
G01 X14.1945 Y31.1636
G01 X14.1984 Y31.2420
G01 X14.1984 Y31.2740
G01 X14.1945 Y31.3524
G01 X14.1914 Y31.3841
G01 X14.1799 Y31.4618
G01 X14.1737 Y31.4931
G01 X14.1546 Y31.5692
G01 X14.1453 Y31.5997
G01 X14.1189 Y31.6737
G01 X14.1067 Y31.7031
G01 X14.0731 Y31.7741
G01 X14.0581 Y31.8022
G01 X14.0177 Y31.8696
G01 X14.0000 Y31.8961
G01 X13.9532 Y31.9592
G01 X13.9330 Y31.9838
G01 X13.8802 Y32.0420
G01 X13.8577 Y32.0646
G01 X13.7995 Y32.1173
G01 X13.7749 Y32.1375
G01 X13.7118 Y32.1843
G01 X13.6853 Y32.2020
G01 X13.6179 Y32.2424
G01 X13.5898 Y32.2574
G01 X13.5188 Y32.2910
G01 X13.4894 Y32.3032
G01 X13.4154 Y32.3296
G01 X13.3849 Y32.3389
G01 X13.3088 Y32.3580
G01 X13.2775 Y32.3642
G01 X13.1998 Y32.3757
G01 X13.1681 Y32.3788
G01 X13.0896 Y32.3827
G01 X13.0577 Y32.3827
G01 X12.9793 Y32.3788
G01 X12.9476 Y32.3757
G01 X12.8699 Y32.3642
G01 X12.8386 Y32.3580
G01 X12.7625 Y32.3389
G01 X12.7319 Y32.3296
G01 X12.6580 Y32.3032
G01 X12.6286 Y32.2910
G01 X12.5576 Y32.2574
G01 X12.5294 Y32.2424
G01 X12.4621 Y32.2020
G01 X12.4356 Y32.1843
G01 X12.3725 Y32.1375
G01 X12.3479 Y32.1173
G01 X12.2897 Y32.0646
G01 X12.2671 Y32.0420
G01 X12.2144 Y31.9838
G01 X12.1942 Y31.9592
G01 X12.1474 Y31.8961
G01 X12.1297 Y31.8696
G01 X12.0893 Y31.8022
G01 X12.0743 Y31.7741
G01 X12.0407 Y31.7031
G01 X12.0285 Y31.6737
G01 X12.0021 Y31.5997
G01 X11.9928 Y31.5692
G01 X11.9737 Y31.4931
G01 X11.9675 Y31.4618
G01 X11.9560 Y31.3841
G01 X11.9529 Y31.3524
G01 X11.9490 Y31.2740
G00 Z2.0000
G00 X11.8490 Y33.8140
G01 F60.00
G01 Z-0.0600
G01 F70.00
G01 X11.8490 Y33.7820
G01 X11.8533 Y33.6938
G01 X11.8565 Y33.6621
G01 X11.8694 Y33.5747
G01 X11.8756 Y33.5434
G01 X11.8971 Y33.4578
G01 X11.9064 Y33.4272
G01 X11.9361 Y33.3441
G01 X11.9483 Y33.3146
G01 X11.9861 Y33.2348
G01 X12.0011 Y33.2066
G01 X12.0465 Y33.1309
G01 X12.0643 Y33.1043
G01 X12.1169 Y33.0334
G01 X12.1371 Y33.0087
G01 X12.1964 Y32.9433
G01 X12.2190 Y32.9207
G01 X12.2844 Y32.8614
G01 X12.3091 Y32.8412
G01 X12.3800 Y32.7886
G01 X12.4066 Y32.7708
G01 X12.4823 Y32.7254
G01 X12.5104 Y32.7104
G01 X12.5903 Y32.6726
G01 X12.6198 Y32.6604
G01 X12.7029 Y32.6307
G01 X12.7334 Y32.6214
G01 X12.8191 Y32.6000
G01 X12.8504 Y32.5937
G01 X12.9378 Y32.5808
G01 X12.9695 Y32.5776
G01 X13.0577 Y32.5733
G01 X13.0896 Y32.5733
G01 X13.1779 Y32.5776
G01 X13.2096 Y32.5808
G01 X13.2970 Y32.5937
G01 X13.3283 Y32.6000
G01 X13.4139 Y32.6214
G01 X13.4445 Y32.6307
G01 X13.5276 Y32.6604
G01 X13.5571 Y32.6726
G01 X13.6369 Y32.7104
G01 X13.6651 Y32.7254
G01 X13.7408 Y32.7708
G01 X13.7674 Y32.7886
G01 X13.8383 Y32.8412
G01 X13.8630 Y32.8614
G01 X13.9284 Y32.9207
G01 X13.9510 Y32.9433
G01 X14.0103 Y33.0087
G01 X14.0305 Y33.0334
G01 X14.0831 Y33.1043
G01 X14.1008 Y33.1309
G01 X14.1462 Y33.2066
G01 X14.1613 Y33.2348
G01 X14.1991 Y33.3146
G01 X14.2113 Y33.3441
G01 X14.2410 Y33.4272
G01 X14.2503 Y33.4578
G01 X14.2717 Y33.5434
G01 X14.2780 Y33.5747
G01 X14.2909 Y33.6621
G01 X14.2940 Y33.6938
G01 X14.2984 Y33.7820
G01 X14.2984 Y33.8140
G01 X14.2940 Y33.9022
G01 X14.2909 Y33.9339
G01 X14.2780 Y34.0213
G01 X14.2717 Y34.0526
G01 X14.2503 Y34.1382
G01 X14.2410 Y34.1688
G01 X14.2113 Y34.2519
G01 X14.1991 Y34.2814
G01 X14.1613 Y34.3612
G01 X14.1462 Y34.3894
G01 X14.1008 Y34.4651
G01 X14.0831 Y34.4917
G01 X14.0305 Y34.5626
G01 X14.0103 Y34.5873
G01 X13.9510 Y34.6527
G01 X13.9284 Y34.6753
G01 X13.8630 Y34.7346
G01 X13.8383 Y34.7548
G01 X13.7674 Y34.8074
G01 X13.7408 Y34.8252
G01 X13.6651 Y34.8706
G01 X13.6369 Y34.8856
G01 X13.5571 Y34.9234
G01 X13.5276 Y34.9356
G01 X13.4445 Y34.9653
G01 X13.4139 Y34.9746
G01 X13.3283 Y34.9960
G01 X13.2970 Y35.0023
G01 X13.2096 Y35.0152
G01 X13.1779 Y35.0184
G01 X13.0896 Y35.0227
G01 X13.0577 Y35.0227
G01 X12.9695 Y35.0184
G01 X12.9378 Y35.0152
G01 X12.8504 Y35.0023
G01 X12.8191 Y34.9960
G01 X12.7334 Y34.9746
G01 X12.7029 Y34.9653
G01 X12.6198 Y34.9356
G01 X12.5903 Y34.9234
G01 X12.5104 Y34.8856
G01 X12.4823 Y34.8706
G01 X12.4066 Y34.8252
G01 X12.3800 Y34.8074
G01 X12.3091 Y34.7548
G01 X12.2844 Y34.7346
G01 X12.2190 Y34.6753
G01 X12.1964 Y34.6527
G01 X12.1371 Y34.5873
G01 X12.1169 Y34.5626
G01 X12.0643 Y34.4917
G01 X12.0465 Y34.4651
G01 X12.0011 Y34.3894
G01 X11.9861 Y34.3612
G01 X11.9483 Y34.2814
G01 X11.9361 Y34.2519
G01 X11.9064 Y34.1688
G01 X11.8971 Y34.1382
G01 X11.8756 Y34.0526
G01 X11.8694 Y34.0213
G01 X11.8565 Y33.9339
G01 X11.8533 Y33.9022
G01 X11.8490 Y33.8140
G00 Z2.0000
G00 X11.8490 Y36.3540
G01 F60.00
G01 Z-0.0600
G01 F70.00
G01 X11.8490 Y36.3220
G01 X11.8533 Y36.2338
G01 X11.8565 Y36.2021
G01 X11.8694 Y36.1147
G01 X11.8756 Y36.0834
G01 X11.8971 Y35.9978
G01 X11.9064 Y35.9672
G01 X11.9361 Y35.8841
G01 X11.9483 Y35.8546
G01 X11.9861 Y35.7748
G01 X12.0011 Y35.7466
G01 X12.0465 Y35.6709
G01 X12.0643 Y35.6443
G01 X12.1169 Y35.5734
G01 X12.1371 Y35.5487
G01 X12.1964 Y35.4833
G01 X12.2190 Y35.4607
G01 X12.2844 Y35.4014
G01 X12.3091 Y35.3812
G01 X12.3800 Y35.3286
G01 X12.4066 Y35.3108
G01 X12.4823 Y35.2654
G01 X12.5104 Y35.2504
G01 X12.5903 Y35.2126
G01 X12.6198 Y35.2004
G01 X12.7029 Y35.1707
G01 X12.7334 Y35.1614
G01 X12.8191 Y35.1400
G01 X12.8504 Y35.1337
G01 X12.9378 Y35.1208
G01 X12.9695 Y35.1176
G01 X13.0577 Y35.1133
G01 X13.0896 Y35.1133
G01 X13.1779 Y35.1176
G01 X13.2096 Y35.1208
G01 X13.2970 Y35.1337
G01 X13.3283 Y35.1400
G01 X13.4139 Y35.1614
G01 X13.4445 Y35.1707
G01 X13.5276 Y35.2004
G01 X13.5571 Y35.2126
G01 X13.6369 Y35.2504
G01 X13.6651 Y35.2654
G01 X13.7408 Y35.3108
G01 X13.7674 Y35.3286
G01 X13.8383 Y35.3812
G01 X13.8630 Y35.4014
G01 X13.9284 Y35.4607
G01 X13.9510 Y35.4833
G01 X14.0103 Y35.5487
G01 X14.0305 Y35.5734
G01 X14.0831 Y35.6443
G01 X14.1008 Y35.6709
G01 X14.1462 Y35.7466
G01 X14.1613 Y35.7748
G01 X14.1991 Y35.8546
G01 X14.2113 Y35.8841
G01 X14.2410 Y35.9672
G01 X14.2503 Y35.9978
G01 X14.2717 Y36.0834
G01 X14.2780 Y36.1147
G01 X14.2909 Y36.2021
G01 X14.2940 Y36.2338
G01 X14.2984 Y36.3220
G01 X14.2984 Y36.3540
G01 X14.2940 Y36.4422
G01 X14.2909 Y36.4739
G01 X14.2780 Y36.5613
G01 X14.2717 Y36.5926
G01 X14.2503 Y36.6782
G01 X14.2410 Y36.7088
G01 X14.2113 Y36.7919
G01 X14.1991 Y36.8214
G01 X14.1613 Y36.9012
G01 X14.1462 Y36.9294
G01 X14.1008 Y37.0051
G01 X14.0831 Y37.0317
G01 X14.0305 Y37.1026
G01 X14.0103 Y37.1273
G01 X13.9510 Y37.1927
G01 X13.9284 Y37.2153
G01 X13.8630 Y37.2746
G01 X13.8383 Y37.2948
G01 X13.7674 Y37.3474
G01 X13.7408 Y37.3652
G01 X13.6651 Y37.4106
G01 X13.6369 Y37.4256
G01 X13.5571 Y37.4634
G01 X13.5276 Y37.4756
G01 X13.4445 Y37.5053
G01 X13.4139 Y37.5146
G01 X13.3283 Y37.5360
G01 X13.2970 Y37.5423
G01 X13.2096 Y37.5552
G01 X13.1779 Y37.5584
G01 X13.0896 Y37.5627
G01 X13.0577 Y37.5627
G01 X12.9695 Y37.5584
G01 X12.9378 Y37.5552
G01 X12.8504 Y37.5423
G01 X12.8191 Y37.5360
G01 X12.7334 Y37.5146
G01 X12.7029 Y37.5053
G01 X12.6198 Y37.4756
G01 X12.5903 Y37.4634
G01 X12.5104 Y37.4256
G01 X12.4823 Y37.4106
G01 X12.4066 Y37.3652
G01 X12.3800 Y37.3474
G01 X12.3091 Y37.2948
G01 X12.2844 Y37.2746
G01 X12.2190 Y37.2153
G01 X12.1964 Y37.1927
G01 X12.1371 Y37.1273
G01 X12.1169 Y37.1026
G01 X12.0643 Y37.0317
G01 X12.0465 Y37.0051
G01 X12.0011 Y36.9294
G01 X11.9861 Y36.9012
G01 X11.9483 Y36.8214
G01 X11.9361 Y36.7919
G01 X11.9064 Y36.7088
G01 X11.8971 Y36.6782
G01 X11.8756 Y36.5926
G01 X11.8694 Y36.5613
G01 X11.8565 Y36.4739
G01 X11.8533 Y36.4422
G01 X11.8490 Y36.3540
G00 Z2.0000
G00 X11.8490 Y38.8940
G01 F60.00
G01 Z-0.0600
G01 F70.00
G01 X11.8490 Y38.8620
G01 X11.8533 Y38.7738
G01 X11.8565 Y38.7421
G01 X11.8694 Y38.6547
G01 X11.8756 Y38.6234
G01 X11.8971 Y38.5378
G01 X11.9064 Y38.5072
G01 X11.9361 Y38.4241
G01 X11.9483 Y38.3946
G01 X11.9861 Y38.3148
G01 X12.0011 Y38.2866
G01 X12.0465 Y38.2109
G01 X12.0643 Y38.1843
G01 X12.1169 Y38.1134
G01 X12.1371 Y38.0887
G01 X12.1964 Y38.0233
G01 X12.2190 Y38.0007
G01 X12.2844 Y37.9414
G01 X12.3091 Y37.9212
G01 X12.3800 Y37.8686
G01 X12.4066 Y37.8508
G01 X12.4823 Y37.8054
G01 X12.5104 Y37.7904
G01 X12.5903 Y37.7526
G01 X12.6198 Y37.7404
G01 X12.7029 Y37.7107
G01 X12.7334 Y37.7014
G01 X12.8191 Y37.6800
G01 X12.8504 Y37.6737
G01 X12.9378 Y37.6608
G01 X12.9695 Y37.6576
G01 X13.0577 Y37.6533
G01 X13.0896 Y37.6533
G01 X13.1779 Y37.6576
G01 X13.2096 Y37.6608
G01 X13.2970 Y37.6737
G01 X13.3283 Y37.6800
G01 X13.4139 Y37.7014
G01 X13.4445 Y37.7107
G01 X13.5276 Y37.7404
G01 X13.5571 Y37.7526
G01 X13.6369 Y37.7904
G01 X13.6651 Y37.8054
G01 X13.7408 Y37.8508
G01 X13.7674 Y37.8686
G01 X13.8383 Y37.9212
G01 X13.8630 Y37.9414
G01 X13.9284 Y38.0007
G01 X13.9510 Y38.0233
G01 X14.0103 Y38.0887
G01 X14.0305 Y38.1134
G01 X14.0831 Y38.1843
G01 X14.1008 Y38.2109
G01 X14.1462 Y38.2866
G01 X14.1613 Y38.3148
G01 X14.1991 Y38.3946
G01 X14.2113 Y38.4241
G01 X14.2410 Y38.5072
G01 X14.2503 Y38.5378
G01 X14.2717 Y38.6234
G01 X14.2780 Y38.6547
G01 X14.2909 Y38.7421
G01 X14.2940 Y38.7738
G01 X14.2984 Y38.8620
G01 X14.2984 Y38.8940
G01 X14.2940 Y38.9822
G01 X14.2909 Y39.0139
G01 X14.2780 Y39.1013
G01 X14.2717 Y39.1326
G01 X14.2503 Y39.2182
G01 X14.2410 Y39.2488
G01 X14.2113 Y39.3319
G01 X14.1991 Y39.3614
G01 X14.1613 Y39.4412
G01 X14.1462 Y39.4694
G01 X14.1008 Y39.5451
G01 X14.0831 Y39.5717
G01 X14.0305 Y39.6426
G01 X14.0103 Y39.6673
G01 X13.9510 Y39.7327
G01 X13.9284 Y39.7553
G01 X13.8630 Y39.8146
G01 X13.8383 Y39.8348
G01 X13.7674 Y39.8874
G01 X13.7408 Y39.9052
G01 X13.6651 Y39.9506
G01 X13.6369 Y39.9656
G01 X13.5571 Y40.0034
G01 X13.5276 Y40.0156
G01 X13.4445 Y40.0453
G01 X13.4139 Y40.0546
G01 X13.3283 Y40.0760
G01 X13.2970 Y40.0823
G01 X13.2096 Y40.0952
G01 X13.1779 Y40.0984
G01 X13.0896 Y40.1027
G01 X13.0577 Y40.1027
G01 X12.9695 Y40.0984
G01 X12.9378 Y40.0952
G01 X12.8504 Y40.0823
G01 X12.8191 Y40.0760
G01 X12.7334 Y40.0546
G01 X12.7029 Y40.0453
G01 X12.6198 Y40.0156
G01 X12.5903 Y40.0034
G01 X12.5104 Y39.9656
G01 X12.4823 Y39.9506
G01 X12.4066 Y39.9052
G01 X12.3800 Y39.8874
G01 X12.3091 Y39.8348
G01 X12.2844 Y39.8146
G01 X12.2190 Y39.7553
G01 X12.1964 Y39.7327
G01 X12.1371 Y39.6673
G01 X12.1169 Y39.6426
G01 X12.0643 Y39.5717
G01 X12.0465 Y39.5451
G01 X12.0011 Y39.4694
G01 X11.9861 Y39.4412
G01 X11.9483 Y39.3614
G01 X11.9361 Y39.3319
G01 X11.9064 Y39.2488
G01 X11.8971 Y39.2182
G01 X11.8756 Y39.1326
G01 X11.8694 Y39.1013
G01 X11.8565 Y39.0139
G01 X11.8533 Y38.9822
G01 X11.8490 Y38.8940
G00 Z2.0000
G00 X11.8490 Y41.4340
G01 F60.00
G01 Z-0.0600
G01 F70.00
G01 X11.8490 Y41.4020
G01 X11.8533 Y41.3138
G01 X11.8565 Y41.2821
G01 X11.8694 Y41.1947
G01 X11.8756 Y41.1634
G01 X11.8971 Y41.0778
G01 X11.9064 Y41.0472
G01 X11.9361 Y40.9641
G01 X11.9483 Y40.9346
G01 X11.9861 Y40.8548
G01 X12.0011 Y40.8266
G01 X12.0465 Y40.7509
G01 X12.0643 Y40.7243
G01 X12.1169 Y40.6534
G01 X12.1371 Y40.6287
G01 X12.1964 Y40.5633
G01 X12.2190 Y40.5407
G01 X12.2844 Y40.4814
G01 X12.3091 Y40.4612
G01 X12.3800 Y40.4086
G01 X12.4066 Y40.3908
G01 X12.4823 Y40.3454
G01 X12.5104 Y40.3304
G01 X12.5903 Y40.2926
G01 X12.6198 Y40.2804
G01 X12.7029 Y40.2507
G01 X12.7334 Y40.2414
G01 X12.8191 Y40.2200
G01 X12.8504 Y40.2137
G01 X12.9378 Y40.2008
G01 X12.9695 Y40.1976
G01 X13.0577 Y40.1933
G01 X13.0896 Y40.1933
G01 X13.1779 Y40.1976
G01 X13.2096 Y40.2008
G01 X13.2970 Y40.2137
G01 X13.3283 Y40.2200
G01 X13.4139 Y40.2414
G01 X13.4445 Y40.2507
G01 X13.5276 Y40.2804
G01 X13.5571 Y40.2926
G01 X13.6369 Y40.3304
G01 X13.6651 Y40.3454
G01 X13.7408 Y40.3908
G01 X13.7674 Y40.4086
G01 X13.8383 Y40.4612
G01 X13.8630 Y40.4814
G01 X13.9284 Y40.5407
G01 X13.9510 Y40.5633
G01 X14.0103 Y40.6287
G01 X14.0305 Y40.6534
G01 X14.0831 Y40.7243
G01 X14.1008 Y40.7509
G01 X14.1462 Y40.8266
G01 X14.1613 Y40.8548
G01 X14.1991 Y40.9346
G01 X14.2113 Y40.9641
G01 X14.2410 Y41.0472
G01 X14.2503 Y41.0778
G01 X14.2717 Y41.1634
G01 X14.2780 Y41.1947
G01 X14.2909 Y41.2821
G01 X14.2940 Y41.3138
G01 X14.2984 Y41.4020
G01 X14.2984 Y41.4340
G01 X14.2940 Y41.5222
G01 X14.2909 Y41.5539
G01 X14.2780 Y41.6413
G01 X14.2717 Y41.6726
G01 X14.2503 Y41.7582
G01 X14.2410 Y41.7888
G01 X14.2113 Y41.8719
G01 X14.1991 Y41.9014
G01 X14.1613 Y41.9812
G01 X14.1462 Y42.0094
G01 X14.1008 Y42.0851
G01 X14.0831 Y42.1117
G01 X14.0305 Y42.1826
G01 X14.0103 Y42.2073
G01 X13.9510 Y42.2727
G01 X13.9284 Y42.2953
G01 X13.8630 Y42.3546
G01 X13.8383 Y42.3748
G01 X13.7674 Y42.4274
G01 X13.7408 Y42.4452
G01 X13.6651 Y42.4906
G01 X13.6369 Y42.5056
G01 X13.5571 Y42.5434
G01 X13.5276 Y42.5556
G01 X13.4445 Y42.5853
G01 X13.4139 Y42.5946
G01 X13.3283 Y42.6160
G01 X13.2970 Y42.6223
G01 X13.2096 Y42.6352
G01 X13.1779 Y42.6384
G01 X13.0896 Y42.6427
G01 X13.0577 Y42.6427
G01 X12.9695 Y42.6384
G01 X12.9378 Y42.6352
G01 X12.8504 Y42.6223
G01 X12.8191 Y42.6160
G01 X12.7334 Y42.5946
G01 X12.7029 Y42.5853
G01 X12.6198 Y42.5556
G01 X12.5903 Y42.5434
G01 X12.5104 Y42.5056
G01 X12.4823 Y42.4906
G01 X12.4066 Y42.4452
G01 X12.3800 Y42.4274
G01 X12.3091 Y42.3748
G01 X12.2844 Y42.3546
