(G-CODE GENERATED BY FLATCAM v8.991 - www.flatcam.org - Version Date: 2019/12/27)

(Name: Corte placa)
(Type: G-code from Geometry)
(Units: MM)

(Created on Monday, 30 March 2026 at 16:40)

(TOOL DIAMETER: 2.0 mm)
(Feedrate: 70.0 mm/min)
(Feedrate_Z: 60.0 mm/min)
(Feedrate rapids 1500.0 mm/min)

(Z_Cut: -3.0 mm)
(DepthPerCut: 0.6 mm <=>5 passes)
(Z_Move: 2.0 mm)
(Z Toolchange: 15.0 mm)
(X,Y Toolchange: 0.0000, 0.0000 mm)
(Z Start: None mm)
(Z End: 18.0 mm)
(Steps per circle: 64)
(Preprocessor Geometry: default)

(X range:   -1.7968 ...   56.8787  mm)
(Y range:   -3.6583 ...   61.7303  mm)

(Spindle Speed: None RPM)
G21
G90
G94




G01 F70.00
G00 Z2.0000

M03
G00 X52.8787 Y-3.6583
G01 F60.00
G01 Z-0.6000
G01 F70.00
G01 X2.2032 Y-3.6583
G01 X1.8112 Y-3.6390
G01 X1.4229 Y-3.5814
G01 X1.0421 Y-3.4860
G01 X0.6725 Y-3.3538
G01 X0.3177 Y-3.1859
G01 X-0.0190 Y-2.9841
G01 X-0.3343 Y-2.7503
G01 X-0.6252 Y-2.4867
G01 X-0.8888 Y-2.1958
G01 X-1.1226 Y-1.8805
G01 X-1.3244 Y-1.5438
G01 X-1.4923 Y-1.1890
G01 X-1.6245 Y-0.8194
G01 X-1.7199 Y-0.4386
G01 X-1.7775 Y-0.0503
G01 X-1.7968 Y0.3417
G01 X-1.7968 Y57.7303
G01 X-1.7775 Y58.1223
G01 X-1.7199 Y58.5106
G01 X-1.6245 Y58.8914
G01 X-1.4923 Y59.2610
G01 X-1.3244 Y59.6158
G01 X-1.1226 Y59.9525
G01 X-0.8888 Y60.2678
G01 X-0.6252 Y60.5587
G01 X-0.3343 Y60.8223
G01 X-0.0190 Y61.0561
G01 X0.3177 Y61.2579
G01 X0.6725 Y61.4258
G01 X1.0421 Y61.5580
G01 X1.4229 Y61.6534
G01 X1.8112 Y61.7110
G01 X2.2032 Y61.7303
G01 X52.8787 Y61.7303
G01 X53.2707 Y61.7110
G01 X53.6590 Y61.6534
G01 X54.0398 Y61.5580
G01 X54.4094 Y61.4258
G01 X54.7642 Y61.2579
G01 X55.1009 Y61.0561
G01 X55.4162 Y60.8223
G01 X55.7071 Y60.5587
G01 X55.9707 Y60.2678
G01 X56.2045 Y59.9525
G01 X56.4063 Y59.6158
G01 X56.5742 Y59.2610
G01 X56.7064 Y58.8914
G01 X56.8018 Y58.5106
G01 X56.8594 Y58.1223
G01 X56.8787 Y57.7303
G01 X56.8787 Y0.3417
G01 X56.8594 Y-0.0503
G01 X56.8018 Y-0.4386
G01 X56.7064 Y-0.8194
G01 X56.5742 Y-1.1890
G01 X56.4063 Y-1.5438
G01 X56.2045 Y-1.8805
G01 X55.9707 Y-2.1958
G01 X55.7071 Y-2.4867
G01 X55.4162 Y-2.7503
G01 X55.1009 Y-2.9841
G01 X54.7642 Y-3.1859
G01 X54.4094 Y-3.3538
G01 X54.0398 Y-3.4860
G01 X53.6590 Y-3.5814
G01 X53.2707 Y-3.6390
G01 X52.8787 Y-3.6583
G00 X52.8787 Y-3.6583
G01 F60.00
G01 Z-1.2000
G01 F70.00
G01 X2.2032 Y-3.6583
G01 X1.8112 Y-3.6390
G01 X1.4229 Y-3.5814
G01 X1.0421 Y-3.4860
G01 X0.6725 Y-3.3538
G01 X0.3177 Y-3.1859
G01 X-0.0190 Y-2.9841
G01 X-0.3343 Y-2.7503
G01 X-0.6252 Y-2.4867
G01 X-0.8888 Y-2.1958
G01 X-1.1226 Y-1.8805
G01 X-1.3244 Y-1.5438
G01 X-1.4923 Y-1.1890
G01 X-1.6245 Y-0.8194
G01 X-1.7199 Y-0.4386
G01 X-1.7775 Y-0.0503
G01 X-1.7968 Y0.3417
G01 X-1.7968 Y57.7303
G01 X-1.7775 Y58.1223
G01 X-1.7199 Y58.5106
G01 X-1.6245 Y58.8914
G01 X-1.4923 Y59.2610
G01 X-1.3244 Y59.6158
G01 X-1.1226 Y59.9525
G01 X-0.8888 Y60.2678
G01 X-0.6252 Y60.5587
G01 X-0.3343 Y60.8223
G01 X-0.0190 Y61.0561
G01 X0.3177 Y61.2579
G01 X0.6725 Y61.4258
G01 X1.0421 Y61.5580
G01 X1.4229 Y61.6534
G01 X1.8112 Y61.7110
G01 X2.2032 Y61.7303
G01 X52.8787 Y61.7303
G01 X53.2707 Y61.7110
G01 X53.6590 Y61.6534
G01 X54.0398 Y61.5580
G01 X54.4094 Y61.4258
G01 X54.7642 Y61.2579
G01 X55.1009 Y61.0561
G01 X55.4162 Y60.8223
G01 X55.7071 Y60.5587
G01 X55.9707 Y60.2678
G01 X56.2045 Y59.9525
G01 X56.4063 Y59.6158
G01 X56.5742 Y59.2610
G01 X56.7064 Y58.8914
G01 X56.8018 Y58.5106
G01 X56.8594 Y58.1223
G01 X56.8787 Y57.7303
G01 X56.8787 Y0.3417
G01 X56.8594 Y-0.0503
G01 X56.8018 Y-0.4386
G01 X56.7064 Y-0.8194
G01 X56.5742 Y-1.1890
G01 X56.4063 Y-1.5438
G01 X56.2045 Y-1.8805
G01 X55.9707 Y-2.1958
G01 X55.7071 Y-2.4867
G01 X55.4162 Y-2.7503
G01 X55.1009 Y-2.9841
G01 X54.7642 Y-3.1859
G01 X54.4094 Y-3.3538
G01 X54.0398 Y-3.4860
G01 X53.6590 Y-3.5814
G01 X53.2707 Y-3.6390
G01 X52.8787 Y-3.6583
G00 X52.8787 Y-3.6583
G01 F60.00
G01 Z-1.8000
G01 F70.00
G01 X2.2032 Y-3.6583
G01 X1.8112 Y-3.6390
G01 X1.4229 Y-3.5814
G01 X1.0421 Y-3.4860
G01 X0.6725 Y-3.3538
G01 X0.3177 Y-3.1859
G01 X-0.0190 Y-2.9841
G01 X-0.3343 Y-2.7503
G01 X-0.6252 Y-2.4867
G01 X-0.8888 Y-2.1958
G01 X-1.1226 Y-1.8805
G01 X-1.3244 Y-1.5438
G01 X-1.4923 Y-1.1890
G01 X-1.6245 Y-0.8194
G01 X-1.7199 Y-0.4386
G01 X-1.7775 Y-0.0503
G01 X-1.7968 Y0.3417
G01 X-1.7968 Y57.7303
G01 X-1.7775 Y58.1223
G01 X-1.7199 Y58.5106
G01 X-1.6245 Y58.8914
G01 X-1.4923 Y59.2610
G01 X-1.3244 Y59.6158
G01 X-1.1226 Y59.9525
G01 X-0.8888 Y60.2678
G01 X-0.6252 Y60.5587
G01 X-0.3343 Y60.8223
G01 X-0.0190 Y61.0561
G01 X0.3177 Y61.2579
G01 X0.6725 Y61.4258
G01 X1.0421 Y61.5580
G01 X1.4229 Y61.6534
G01 X1.8112 Y61.7110
G01 X2.2032 Y61.7303
G01 X52.8787 Y61.7303
G01 X53.2707 Y61.7110
G01 X53.6590 Y61.6534
G01 X54.0398 Y61.5580
G01 X54.4094 Y61.4258
G01 X54.7642 Y61.2579
G01 X55.1009 Y61.0561
G01 X55.4162 Y60.8223
G01 X55.7071 Y60.5587
G01 X55.9707 Y60.2678
G01 X56.2045 Y59.9525
G01 X56.4063 Y59.6158
G01 X56.5742 Y59.2610
G01 X56.7064 Y58.8914
G01 X56.8018 Y58.5106
G01 X56.8594 Y58.1223
G01 X56.8787 Y57.7303
G01 X56.8787 Y0.3417
G01 X56.8594 Y-0.0503
G01 X56.8018 Y-0.4386
G01 X56.7064 Y-0.8194
G01 X56.5742 Y-1.1890
G01 X56.4063 Y-1.5438
G01 X56.2045 Y-1.8805
G01 X55.9707 Y-2.1958
G01 X55.7071 Y-2.4867
G01 X55.4162 Y-2.7503
G01 X55.1009 Y-2.9841
G01 X54.7642 Y-3.1859
G01 X54.4094 Y-3.3538
G01 X54.0398 Y-3.4860
G01 X53.6590 Y-3.5814
G01 X53.2707 Y-3.6390
G01 X52.8787 Y-3.6583
G00 X52.8787 Y-3.6583
G01 F60.00
G01 Z-2.4000
G01 F70.00
G01 X2.2032 Y-3.6583
G01 X1.8112 Y-3.6390
G01 X1.4229 Y-3.5814
G01 X1.0421 Y-3.4860
G01 X0.6725 Y-3.3538
G01 X0.3177 Y-3.1859
G01 X-0.0190 Y-2.9841
G01 X-0.3343 Y-2.7503
G01 X-0.6252 Y-2.4867
G01 X-0.8888 Y-2.1958
G01 X-1.1226 Y-1.8805
G01 X-1.3244 Y-1.5438
G01 X-1.4923 Y-1.1890
G01 X-1.6245 Y-0.8194
G01 X-1.7199 Y-0.4386
G01 X-1.7775 Y-0.0503
G01 X-1.7968 Y0.3417
G01 X-1.7968 Y57.7303
G01 X-1.7775 Y58.1223
G01 X-1.7199 Y58.5106
G01 X-1.6245 Y58.8914
G01 X-1.4923 Y59.2610
G01 X-1.3244 Y59.6158
G01 X-1.1226 Y59.9525
G01 X-0.8888 Y60.2678
G01 X-0.6252 Y60.5587
G01 X-0.3343 Y60.8223
G01 X-0.0190 Y61.0561
G01 X0.3177 Y61.2579
G01 X0.6725 Y61.4258
G01 X1.0421 Y61.5580
G01 X1.4229 Y61.6534
G01 X1.8112 Y61.7110
G01 X2.2032 Y61.7303
G01 X52.8787 Y61.7303
G01 X53.2707 Y61.7110
G01 X53.6590 Y61.6534
G01 X54.0398 Y61.5580
G01 X54.4094 Y61.4258
G01 X54.7642 Y61.2579
G01 X55.1009 Y61.0561
G01 X55.4162 Y60.8223
G01 X55.7071 Y60.5587
G01 X55.9707 Y60.2678
G01 X56.2045 Y59.9525
G01 X56.4063 Y59.6158
G01 X56.5742 Y59.2610
G01 X56.7064 Y58.8914
G01 X56.8018 Y58.5106
G01 X56.8594 Y58.1223
G01 X56.8787 Y57.7303
G01 X56.8787 Y0.3417
G01 X56.8594 Y-0.0503
G01 X56.8018 Y-0.4386
G01 X56.7064 Y-0.8194
G01 X56.5742 Y-1.1890
G01 X56.4063 Y-1.5438
G01 X56.2045 Y-1.8805
G01 X55.9707 Y-2.1958
G01 X55.7071 Y-2.4867
G01 X55.4162 Y-2.7503
G01 X55.1009 Y-2.9841
G01 X54.7642 Y-3.1859
G01 X54.4094 Y-3.3538
G01 X54.0398 Y-3.4860
G01 X53.6590 Y-3.5814
G01 X53.2707 Y-3.6390
G01 X52.8787 Y-3.6583
G00 X52.8787 Y-3.6583
G01 F60.00
G01 Z-3.0000
G01 F70.00
G01 X2.2032 Y-3.6583
G01 X1.8112 Y-3.6390
G01 X1.4229 Y-3.5814
G01 X1.0421 Y-3.4860
G01 X0.6725 Y-3.3538
G01 X0.3177 Y-3.1859
G01 X-0.0190 Y-2.9841
G01 X-0.3343 Y-2.7503
G01 X-0.6252 Y-2.4867
G01 X-0.8888 Y-2.1958
G01 X-1.1226 Y-1.8805
G01 X-1.3244 Y-1.5438
G01 X-1.4923 Y-1.1890
G01 X-1.6245 Y-0.8194
G01 X-1.7199 Y-0.4386
G01 X-1.7775 Y-0.0503
G01 X-1.7968 Y0.3417
G01 X-1.7968 Y57.7303
G01 X-1.7775 Y58.1223
G01 X-1.7199 Y58.5106
G01 X-1.6245 Y58.8914
G01 X-1.4923 Y59.2610
G01 X-1.3244 Y59.6158
G01 X-1.1226 Y59.9525
G01 X-0.8888 Y60.2678
G01 X-0.6252 Y60.5587
G01 X-0.3343 Y60.8223
G01 X-0.0190 Y61.0561
G01 X0.3177 Y61.2579
G01 X0.6725 Y61.4258
G01 X1.0421 Y61.5580
G01 X1.4229 Y61.6534
G01 X1.8112 Y61.7110
G01 X2.2032 Y61.7303
G01 X52.8787 Y61.7303
G01 X53.2707 Y61.7110
G01 X53.6590 Y61.6534
G01 X54.0398 Y61.5580
G01 X54.4094 Y61.4258
G01 X54.7642 Y61.2579
G01 X55.1009 Y61.0561
G01 X55.4162 Y60.8223
G01 X55.7071 Y60.5587
G01 X55.9707 Y60.2678
G01 X56.2045 Y59.9525
G01 X56.4063 Y59.6158
G01 X56.5742 Y59.2610
G01 X56.7064 Y58.8914
G01 X56.8018 Y58.5106
G01 X56.8594 Y58.1223
G01 X56.8787 Y57.7303
G01 X56.8787 Y0.3417
G01 X56.8594 Y-0.0503
G01 X56.8018 Y-0.4386
G01 X56.7064 Y-0.8194
G01 X56.5742 Y-1.1890
G01 X56.4063 Y-1.5438
G01 X56.2045 Y-1.8805
G01 X55.9707 Y-2.1958
G01 X55.7071 Y-2.4867
G01 X55.4162 Y-2.7503
G01 X55.1009 Y-2.9841
G01 X54.7642 Y-3.1859
G01 X54.4094 Y-3.3538
G01 X54.0398 Y-3.4860
G01 X53.6590 Y-3.5814
G01 X53.2707 Y-3.6390
G01 X52.8787 Y-3.6583
G00 Z2.0000
M05
G00 Z2.0000
G00 Z18.00
G00 X0.0 Y0.0

