(G-CODE GENERATED BY FLATCAM v8.991 - www.flatcam.org - Version Date: 2019/12/27)

(Name: Huecos pistas)
(Type: G-code from Excellon)
(Units: MM)

(Created on Monday, 30 March 2026 at 15:33)

(Feedrate: 60.0 mm/min)
(Feedrate rapids 1500.0 mm/min)

(Z_Cut: -3.0 mm)
(Z_Move: 3.0 mm)
(Z Toolchange: 15.0 mm)
(X,Y Toolchange: 0.0000, 0.0000 mm)
(Z Start: None mm)
(Z End: 18.0 mm)
(Steps per circle: 64)
(Preprocessor Excellon: default)

(X range:    4.4050 ...   50.3205  mm)
(Y range:    9.0275 ...   55.2675  mm)

(Spindle Speed: 800.0 RPM)
G21
G90
G94




G01 F60.00
G00 Z3.0000

M03 S800.0
G00 X35.5965 Y54.8170
G01 Z-3.0000
G01 Z0
G00 Z3.0000
G00 X35.5965 Y52.2770
G01 Z-3.0000
G01 Z0
G00 Z3.0000
G00 X35.5965 Y49.7370
G01 Z-3.0000
G01 Z0
G00 Z3.0000
G00 X31.4965 Y47.5780
G01 Z-3.0000
G01 Z0
G00 Z3.0000
G00 X31.4965 Y45.0380
G01 Z-3.0000
G01 Z0
G00 Z3.0000
G00 X31.4965 Y42.4980
G01 Z-3.0000
G01 Z0
G00 Z3.0000
G00 X31.4965 Y39.9580
G01 Z-3.0000
G01 Z0
G00 Z3.0000
G00 X31.4965 Y37.4190
G01 Z-3.0000
G01 Z0
G00 Z3.0000
G00 X31.4965 Y34.8780
G01 Z-3.0000
G01 Z0
G00 Z3.0000
G00 X31.4965 Y32.3390
G01 Z-3.0000
G01 Z0
G00 Z3.0000
G00 X31.4965 Y29.7980
G01 Z-3.0000
G01 Z0
G00 Z3.0000
G00 X31.4965 Y27.2590
G01 Z-3.0000
G01 Z0
G00 Z3.0000
G00 X35.4695 Y27.2580
G01 Z-3.0000
G01 Z0
G00 Z3.0000
G00 X35.4695 Y29.7980
G01 Z-3.0000
G01 Z0
G00 Z3.0000
G00 X35.4695 Y32.3380
G01 Z-3.0000
G01 Z0
G00 Z3.0000
G00 X35.4695 Y34.8780
G01 Z-3.0000
G01 Z0
G00 Z3.0000
G00 X35.4695 Y37.4180
G01 Z-3.0000
G01 Z0
G00 Z3.0000
G00 X35.4695 Y39.9580
G01 Z-3.0000
G01 Z0
G00 Z3.0000
G00 X43.0895 Y39.9580
G01 Z-3.0000
G01 Z0
G00 Z3.0000
G00 X43.0895 Y37.4180
G01 Z-3.0000
G01 Z0
G00 Z3.0000
G00 X43.0895 Y34.8780
G01 Z-3.0000
G01 Z0
G00 Z3.0000
G00 X43.0895 Y32.3380
G01 Z-3.0000
G01 Z0
G00 Z3.0000
G00 X43.0895 Y29.7980
G01 Z-3.0000
G01 Z0
G00 Z3.0000
G00 X43.0895 Y27.2580
G01 Z-3.0000
G01 Z0
G00 Z3.0000
G00 X43.0895 Y24.7180
G01 Z-3.0000
G01 Z0
G00 Z3.0000
G00 X43.0895 Y22.1780
G01 Z-3.0000
G01 Z0
G00 Z3.0000
G00 X43.0895 Y19.6380
G01 Z-3.0000
G01 Z0
G00 Z3.0000
G00 X35.4695 Y19.6380
G01 Z-3.0000
G01 Z0
G00 Z3.0000
G00 X35.4695 Y22.1780
G01 Z-3.0000
G01 Z0
G00 Z3.0000
G00 X35.4695 Y24.7180
G01 Z-3.0000
G01 Z0
G00 Z3.0000
G00 X31.4965 Y24.7180
G01 Z-3.0000
G01 Z0
G00 Z3.0000
G00 X31.4965 Y22.1790
G01 Z-3.0000
G01 Z0
G00 Z3.0000
G00 X31.4965 Y19.6380
G01 Z-3.0000
G01 Z0
G00 Z3.0000
G00 X31.4965 Y17.0990
G01 Z-3.0000
G01 Z0
G00 Z3.0000
G00 X31.4965 Y14.5580
G01 Z-3.0000
G01 Z0
G00 Z3.0000
G00 X31.4965 Y12.0180
G01 Z-3.0000
G01 Z0
G00 Z3.0000
G00 X16.2565 Y12.0180
G01 Z-3.0000
G01 Z0
G00 Z3.0000
G00 X5.6245 Y9.4780
G01 Z-3.0000
G01 Z0
G00 Z3.0000
G00 X5.6245 Y12.0180
G01 Z-3.0000
G01 Z0
G00 Z3.0000
G00 X5.6245 Y14.5580
G01 Z-3.0000
G01 Z0
G00 Z3.0000
G00 X5.6245 Y17.0980
G01 Z-3.0000
G01 Z0
G00 Z3.0000
G00 X16.2565 Y14.5570
G01 Z-3.0000
G01 Z0
G00 Z3.0000
G00 X16.2565 Y17.0980
G01 Z-3.0000
G01 Z0
G00 Z3.0000
G00 X16.2565 Y19.6370
G01 Z-3.0000
G01 Z0
G00 Z3.0000
G00 X16.2565 Y22.1780
G01 Z-3.0000
G01 Z0
G00 Z3.0000
G00 X16.2565 Y24.7170
G01 Z-3.0000
G01 Z0
G00 Z3.0000
G00 X16.2565 Y27.2580
G01 Z-3.0000
G01 Z0
G00 Z3.0000
G00 X16.2565 Y29.7970
G01 Z-3.0000
G01 Z0
G00 Z3.0000
G00 X16.2565 Y32.3380
G01 Z-3.0000
G01 Z0
G00 Z3.0000
G00 X4.9895 Y32.9730
G01 Z-3.0000
G01 Z0
G00 Z3.0000
G00 X4.9895 Y38.3070
G01 Z-3.0000
G01 Z0
G00 Z3.0000
G00 X16.2565 Y34.8770
G01 Z-3.0000
G01 Z0
G00 Z3.0000
G00 X16.2565 Y37.4180
G01 Z-3.0000
G01 Z0
G00 Z3.0000
G00 X16.2565 Y39.9570
G01 Z-3.0000
G01 Z0
G00 Z3.0000
G00 X16.2565 Y42.4980
G01 Z-3.0000
G01 Z0
G00 Z3.0000
G00 X16.2565 Y45.0380
G01 Z-3.0000
G01 Z0
G00 Z3.0000
G00 X16.2565 Y47.5780
G01 Z-3.0000
G01 Z0
G00 Z3.0000
M03 S800.0
G00 X9.8155 Y49.6100
G01 Z-3.0000
G01 Z0
G00 Z3.0000
G00 X4.8625 Y49.6100
G01 Z-3.0000
G01 Z0
G00 Z3.0000
M03 S800.0
G00 X49.8205 Y14.5110
G01 Z-3.0000
G01 Z0
G00 Z3.0000
G00 X49.8205 Y17.0110
G01 Z-3.0000
G01 Z0
G00 Z3.0000
G00 X49.8205 Y19.5110
G01 Z-3.0000
G01 Z0
G00 Z3.0000
G00 X49.8205 Y22.0110
G01 Z-3.0000
G01 Z0
G00 Z3.0000
G00 X49.8205 Y24.5110
G01 Z-3.0000
G01 Z0
G00 Z3.0000
G00 X49.8205 Y29.8780
G01 Z-3.0000
G01 Z0
G00 Z3.0000
G00 X49.8205 Y32.3780
G01 Z-3.0000
G01 Z0
G00 Z3.0000
G00 X49.8205 Y34.8780
G01 Z-3.0000
G01 Z0
G00 Z3.0000
G00 X49.8205 Y37.3780
G01 Z-3.0000
G01 Z0
G00 Z3.0000
G00 X49.8205 Y39.8780
G01 Z-3.0000
G01 Z0
G00 Z3.0000
M05
G00 Z18.00
G00 X0.0 Y0.0

