(G-CODE GENERATED BY FLATCAM v8.991 - www.flatcam.org - Version Date: 2019/12/27)

(Name: Huecos esquinas)
(Type: G-code from Excellon)
(Units: MM)

(Created on Monday, 30 March 2026 at 16:57)

(Feedrate: 60.0 mm/min)
(Feedrate rapids 1500.0 mm/min)

(Z_Cut: -3.5 mm)
(Z_Move: 3.0 mm)
(Z Toolchange: 15.0 mm)
(X,Y Toolchange: 0.0000, 0.0000 mm)
(Z Start: None mm)
(Z End: 18.0 mm)
(Steps per circle: 64)
(Preprocessor Excellon: default)

(X range:    0.1635 ...   54.7380  mm)
(Y range:    0.3340 ...   57.2300  mm)

(Spindle Speed: 800.0 RPM)
G21
G90
G94




G01 F60.00
G00 Z3.0000

M03 S800.0
G00 X1.8145 Y1.6040
G01 Z-3.5000
G01 Z0
G00 Z3.0000
G00 X50.5825 Y1.3500
G01 Z-3.5000
G01 Z0
G00 Z3.0000
G00 X1.1795 Y56.2140
G01 Z-3.5000
G01 Z0
G00 Z3.0000
M03 S800.0
G00 X52.4875 Y52.2770
G01 Z-3.5000
G01 Z0
G00 Z3.0000
M05
G00 Z18.00
G00 X0.0 Y0.0

