(G-CODE GENERATED BY FLATCAM v8.991 - www.flatcam.org - Version Date: 2019/12/27)

(Name: Pistas)
(Type: G-code from Geometry)
(Units: MM)

(Created on Monday, 30 March 2026 at 15:30)

(TOOL DIAMETER: 0.2322 mm)
(Feedrate: 70.0 mm/min)
(Feedrate_Z: 60.0 mm/min)
(Feedrate rapids 1500.0 mm/min)

(Z_Cut: -0.06 mm)
(Z_Move: 2.0 mm)
(Z Toolchange: 15.0 mm)
(X,Y Toolchange: 0.0000, 0.0000 mm)
(Z Start: None mm)
(Z End: 18.0 mm)
(Steps per circle: 64)
(Preprocessor Geometry: default)

(X range:    1.8782 ...   53.2037  mm)
(Y range:    0.0167 ...   58.0549  mm)

(Spindle Speed: None RPM)
G21
G90
G94




G01 F70.00
G00 Z2.0000

M03
G00 X6.5284 Y8.6527
G01 F60.00
G01 Z-0.0600
G01 F70.00
G01 X7.9742 Y8.6527
G01 X7.9742 Y3.7630
G01 X7.9746 Y3.7470
G01 X7.9770 Y3.6980
G01 X7.9801 Y3.6663
G01 X7.9873 Y3.6177
G01 X7.9935 Y3.5864
G01 X8.0055 Y3.5388
G01 X8.0147 Y3.5083
G01 X8.0313 Y3.4620
G01 X8.0435 Y3.4326
G01 X8.0645 Y3.3882
G01 X8.0795 Y3.3601
G01 X8.1047 Y3.3180
G01 X8.1225 Y3.2914
G01 X8.1517 Y3.2520
G01 X8.1719 Y3.2273
G01 X8.2049 Y3.1910
G01 X8.2275 Y3.1684
G01 X8.2638 Y3.1354
G01 X8.2885 Y3.1152
G01 X8.3279 Y3.0860
G01 X8.3545 Y3.0682
G01 X8.3966 Y3.0430
G01 X8.4247 Y3.0280
G01 X8.4691 Y3.0070
G01 X8.4985 Y2.9948
G01 X8.5448 Y2.9782
G01 X8.5753 Y2.9690
G01 X8.6229 Y2.9570
G01 X8.6542 Y2.9508
G01 X8.7028 Y2.9436
G01 X8.7345 Y2.9405
G01 X8.7835 Y2.9381
G01 X8.7995 Y2.9377
G01 X24.5475 Y2.9377
G01 X24.5635 Y2.9381
G01 X24.6125 Y2.9405
G01 X24.6442 Y2.9436
G01 X24.6928 Y2.9508
G01 X24.7241 Y2.9570
G01 X24.7717 Y2.9690
G01 X24.8022 Y2.9782
G01 X24.8485 Y2.9948
G01 X24.8779 Y3.0070
G01 X24.9223 Y3.0280
G01 X24.9504 Y3.0430
G01 X24.9925 Y3.0682
G01 X25.0191 Y3.0860
G01 X25.0585 Y3.1152
G01 X25.0832 Y3.1354
G01 X25.1195 Y3.1684
G01 X25.1421 Y3.1910
G01 X25.1751 Y3.2273
G01 X25.1953 Y3.2520
G01 X25.2245 Y3.2914
G01 X25.2423 Y3.3180
G01 X25.2675 Y3.3601
G01 X25.2825 Y3.3882
G01 X25.3035 Y3.4326
G01 X25.3157 Y3.4620
G01 X25.3323 Y3.5083
G01 X25.3415 Y3.5388
G01 X25.3535 Y3.5864
G01 X25.3597 Y3.6177
G01 X25.3669 Y3.6663
G01 X25.3700 Y3.6980
G01 X25.3724 Y3.7470
G01 X25.3728 Y3.7630
G01 X25.3728 Y46.7527
G01 X30.5928 Y46.7527
G01 X30.6194 Y46.7233
G01 X30.6420 Y46.7007
G01 X30.7074 Y46.6414
G01 X30.7321 Y46.6212
G01 X30.8030 Y46.5686
G01 X30.8296 Y46.5508
G01 X30.9053 Y46.5054
G01 X30.9334 Y46.4904
G01 X31.0133 Y46.4526
G01 X31.0428 Y46.4404
G01 X31.1259 Y46.4107
G01 X31.1564 Y46.4014
G01 X31.2421 Y46.3800
G01 X31.2734 Y46.3737
G01 X31.3608 Y46.3608
G01 X31.3925 Y46.3576
G01 X31.4807 Y46.3533
G01 X31.5126 Y46.3533
G01 X31.6009 Y46.3576
G01 X31.6326 Y46.3608
G01 X31.7200 Y46.3737
G01 X31.7513 Y46.3800
G01 X31.8369 Y46.4014
G01 X31.8675 Y46.4107
G01 X31.9506 Y46.4404
G01 X31.9801 Y46.4526
G01 X32.0599 Y46.4904
G01 X32.0881 Y46.5054
G01 X32.1638 Y46.5508
G01 X32.1904 Y46.5686
G01 X32.2613 Y46.6212
G01 X32.2860 Y46.6414
G01 X32.3514 Y46.7007
G01 X32.3740 Y46.7233
G01 X32.4333 Y46.7887
G01 X32.4535 Y46.8134
G01 X32.5061 Y46.8843
G01 X32.5238 Y46.9109
G01 X32.5692 Y46.9866
G01 X32.5843 Y47.0148
G01 X32.6221 Y47.0946
G01 X32.6343 Y47.1241
G01 X32.6640 Y47.2072
G01 X32.6733 Y47.2378
G01 X32.6947 Y47.3234
G01 X32.7010 Y47.3547
G01 X32.7139 Y47.4421
G01 X32.7170 Y47.4738
G01 X32.7214 Y47.5620
G01 X32.7214 Y47.5940
G01 X32.7170 Y47.6822
G01 X32.7139 Y47.7139
G01 X32.7010 Y47.8013
G01 X32.6947 Y47.8326
G01 X32.6733 Y47.9182
G01 X32.6640 Y47.9488
G01 X32.6343 Y48.0319
G01 X32.6221 Y48.0614
G01 X32.5843 Y48.1412
G01 X32.5692 Y48.1694
G01 X32.5238 Y48.2451
G01 X32.5061 Y48.2717
G01 X32.4535 Y48.3426
G01 X32.4333 Y48.3673
G01 X32.3740 Y48.4327
G01 X32.3514 Y48.4553
G01 X32.2860 Y48.5146
G01 X32.2613 Y48.5348
G01 X32.1904 Y48.5874
G01 X32.1638 Y48.6052
G01 X32.0881 Y48.6506
G01 X32.0599 Y48.6656
G01 X31.9801 Y48.7034
G01 X31.9506 Y48.7156
G01 X31.8675 Y48.7453
G01 X31.8369 Y48.7546
G01 X31.7513 Y48.7760
G01 X31.7200 Y48.7823
G01 X31.6326 Y48.7952
G01 X31.6009 Y48.7984
G01 X31.5126 Y48.8027
G01 X31.4807 Y48.8027
G01 X31.3925 Y48.7984
G01 X31.3608 Y48.7952
G01 X31.2734 Y48.7823
G01 X31.2421 Y48.7760
G01 X31.1564 Y48.7546
G01 X31.1259 Y48.7453
G01 X31.0428 Y48.7156
G01 X31.0133 Y48.7034
G01 X30.9334 Y48.6656
G01 X30.9053 Y48.6506
G01 X30.8296 Y48.6052
G01 X30.8030 Y48.5874
G01 X30.7321 Y48.5348
G01 X30.7074 Y48.5146
G01 X30.6420 Y48.4553
G01 X30.6194 Y48.4327
G01 X30.5928 Y48.4033
G01 X24.5475 Y48.4033
G01 X24.5315 Y48.4029
G01 X24.4825 Y48.4005
G01 X24.4508 Y48.3974
G01 X24.4022 Y48.3902
G01 X24.3709 Y48.3840
G01 X24.3233 Y48.3720
G01 X24.2928 Y48.3628
G01 X24.2465 Y48.3462
G01 X24.2171 Y48.3340
G01 X24.1727 Y48.3130
G01 X24.1446 Y48.2980
G01 X24.1025 Y48.2728
G01 X24.0759 Y48.2550
G01 X24.0365 Y48.2258
G01 X24.0118 Y48.2056
G01 X23.9755 Y48.1726
G01 X23.9529 Y48.1500
G01 X23.9199 Y48.1137
G01 X23.8997 Y48.0890
G01 X23.8705 Y48.0496
G01 X23.8527 Y48.0230
G01 X23.8275 Y47.9809
G01 X23.8125 Y47.9528
G01 X23.7915 Y47.9084
G01 X23.7793 Y47.8790
G01 X23.7627 Y47.8327
G01 X23.7535 Y47.8022
G01 X23.7415 Y47.7546
G01 X23.7353 Y47.7233
G01 X23.7281 Y47.6747
G01 X23.7250 Y47.6430
G01 X23.7226 Y47.5940
G01 X23.7222 Y47.5780
G01 X23.7222 Y4.5883
G01 X9.6248 Y4.5883
G01 X9.6248 Y9.4780
G01 X9.6244 Y9.4940
G01 X9.6220 Y9.5430
G01 X9.6189 Y9.5747
G01 X9.6117 Y9.6233
G01 X9.6055 Y9.6546
G01 X9.5935 Y9.7022
G01 X9.5843 Y9.7327
G01 X9.5677 Y9.7790
G01 X9.5555 Y9.8084
G01 X9.5345 Y9.8528
G01 X9.5195 Y9.8809
G01 X9.4943 Y9.9230
G01 X9.4765 Y9.9496
G01 X9.4473 Y9.9890
G01 X9.4271 Y10.0137
G01 X9.3941 Y10.0500
G01 X9.3715 Y10.0726
G01 X9.3352 Y10.1056
G01 X9.3105 Y10.1258
G01 X9.2711 Y10.1550
G01 X9.2445 Y10.1728
G01 X9.2024 Y10.1980
G01 X9.1743 Y10.2130
G01 X9.1299 Y10.2340
G01 X9.1005 Y10.2462
G01 X9.0542 Y10.2628
G01 X9.0237 Y10.2720
G01 X8.9761 Y10.2840
G01 X8.9448 Y10.2902
G01 X8.8962 Y10.2974
G01 X8.8645 Y10.3005
G01 X8.8155 Y10.3029
G01 X8.7995 Y10.3033
G01 X6.5284 Y10.3033
G01 X6.5018 Y10.3327
G01 X6.4792 Y10.3553
G01 X6.4138 Y10.4146
G01 X6.3891 Y10.4348
G01 X6.3182 Y10.4874
G01 X6.2916 Y10.5052
G01 X6.2159 Y10.5506
G01 X6.1877 Y10.5656
G01 X6.1079 Y10.6034
G01 X6.0784 Y10.6156
G01 X5.9953 Y10.6453
G01 X5.9647 Y10.6546
G01 X5.8791 Y10.6760
G01 X5.8478 Y10.6823
G01 X5.7604 Y10.6952
G01 X5.7287 Y10.6984
G01 X5.6405 Y10.7027
G01 X5.6085 Y10.7027
G01 X5.5203 Y10.6984
G01 X5.4886 Y10.6952
G01 X5.4012 Y10.6823
G01 X5.3699 Y10.6760
G01 X5.2843 Y10.6546
G01 X5.2537 Y10.6453
G01 X5.1706 Y10.6156
G01 X5.1411 Y10.6034
G01 X5.0613 Y10.5656
G01 X5.0331 Y10.5506
G01 X4.9574 Y10.5052
G01 X4.9308 Y10.4874
G01 X4.8599 Y10.4348
G01 X4.8352 Y10.4146
G01 X4.7698 Y10.3553
G01 X4.7472 Y10.3327
G01 X4.6879 Y10.2673
G01 X4.6677 Y10.2426
G01 X4.6151 Y10.1717
G01 X4.5973 Y10.1451
G01 X4.5519 Y10.0694
G01 X4.5369 Y10.0412
G01 X4.4991 Y9.9614
G01 X4.4869 Y9.9319
G01 X4.4572 Y9.8488
G01 X4.4479 Y9.8182
G01 X4.4265 Y9.7326
G01 X4.4202 Y9.7013
G01 X4.4073 Y9.6139
G01 X4.4041 Y9.5822
G01 X4.3998 Y9.4940
G01 X4.3998 Y9.4620
G01 X4.4041 Y9.3738
G01 X4.4073 Y9.3421
G01 X4.4202 Y9.2547
G01 X4.4265 Y9.2234
G01 X4.4479 Y9.1378
G01 X4.4572 Y9.1072
G01 X4.4869 Y9.0241
G01 X4.4991 Y8.9946
G01 X4.5369 Y8.9148
G01 X4.5519 Y8.8866
G01 X4.5973 Y8.8109
G01 X4.6151 Y8.7843
G01 X4.6677 Y8.7134
G01 X4.6879 Y8.6887
G01 X4.7472 Y8.6233
G01 X4.7698 Y8.6007
G01 X4.8352 Y8.5414
G01 X4.8599 Y8.5212
G01 X4.9308 Y8.4686
G01 X4.9574 Y8.4508
G01 X5.0331 Y8.4054
G01 X5.0613 Y8.3904
G01 X5.1411 Y8.3526
G01 X5.1706 Y8.3404
G01 X5.2537 Y8.3107
G01 X5.2843 Y8.3014
G01 X5.3699 Y8.2800
G01 X5.4012 Y8.2737
G01 X5.4886 Y8.2608
G01 X5.5203 Y8.2576
G01 X5.6085 Y8.2533
G01 X5.6405 Y8.2533
G01 X5.7287 Y8.2576
G01 X5.7604 Y8.2608
G01 X5.8478 Y8.2737
G01 X5.8791 Y8.2800
G01 X5.9647 Y8.3014
G01 X5.9953 Y8.3107
G01 X6.0784 Y8.3404
G01 X6.1079 Y8.3526
G01 X6.1877 Y8.3904
G01 X6.2159 Y8.4054
G01 X6.2916 Y8.4508
G01 X6.3182 Y8.4686
G01 X6.3891 Y8.5212
G01 X6.4138 Y8.5414
G01 X6.4792 Y8.6007
G01 X6.5018 Y8.6233
G01 X6.5284 Y8.6527
G00 Z2.0000
G00 X4.7206 Y11.1927
G01 F60.00
G01 Z-0.0600
G01 F70.00
G01 X4.7472 Y11.1633
G01 X4.7698 Y11.1407
G01 X4.8352 Y11.0814
G01 X4.8599 Y11.0612
G01 X4.9308 Y11.0086
G01 X4.9574 Y10.9908
G01 X5.0331 Y10.9454
G01 X5.0613 Y10.9304
G01 X5.1411 Y10.8926
G01 X5.1706 Y10.8804
G01 X5.2537 Y10.8507
G01 X5.2843 Y10.8414
G01 X5.3699 Y10.8200
G01 X5.4012 Y10.8137
G01 X5.4886 Y10.8008
G01 X5.5203 Y10.7976
G01 X5.6085 Y10.7933
G01 X5.6405 Y10.7933
G01 X5.7287 Y10.7976
G01 X5.7604 Y10.8008
G01 X5.8478 Y10.8137
G01 X5.8791 Y10.8200
G01 X5.9647 Y10.8414
G01 X5.9953 Y10.8507
G01 X6.0784 Y10.8804
G01 X6.1079 Y10.8926
G01 X6.1877 Y10.9304
G01 X6.2159 Y10.9454
G01 X6.2916 Y10.9908
G01 X6.3182 Y11.0086
G01 X6.3891 Y11.0612
G01 X6.4138 Y11.0814
G01 X6.4792 Y11.1407
G01 X6.5018 Y11.1633
G01 X6.5611 Y11.2287
G01 X6.5813 Y11.2534
G01 X6.6339 Y11.3243
G01 X6.6517 Y11.3509
G01 X6.6971 Y11.4266
G01 X6.7121 Y11.4548
G01 X6.7499 Y11.5346
G01 X6.7621 Y11.5641
G01 X6.7918 Y11.6472
G01 X6.8011 Y11.6778
G01 X6.8225 Y11.7634
G01 X6.8288 Y11.7947
G01 X6.8417 Y11.8821
G01 X6.8449 Y11.9138
G01 X6.8492 Y12.0020
G01 X6.8492 Y12.0340
G01 X6.8449 Y12.1222
G01 X6.8417 Y12.1539
G01 X6.8288 Y12.2413
G01 X6.8225 Y12.2726
G01 X6.8011 Y12.3582
G01 X6.7918 Y12.3888
G01 X6.7621 Y12.4719
G01 X6.7499 Y12.5014
G01 X6.7121 Y12.5812
G01 X6.6971 Y12.6094
G01 X6.6517 Y12.6851
G01 X6.6339 Y12.7117
G01 X6.5813 Y12.7826
G01 X6.5611 Y12.8073
G01 X6.5018 Y12.8727
G01 X6.4792 Y12.8953
G01 X6.4138 Y12.9546
G01 X6.3891 Y12.9748
G01 X6.3182 Y13.0274
G01 X6.2916 Y13.0452
G01 X6.2159 Y13.0906
G01 X6.1877 Y13.1056
G01 X6.1079 Y13.1434
G01 X6.0784 Y13.1556
G01 X5.9953 Y13.1853
G01 X5.9647 Y13.1946
G01 X5.8791 Y13.2160
G01 X5.8478 Y13.2223
G01 X5.7604 Y13.2352
G01 X5.7287 Y13.2384
G01 X5.6405 Y13.2427
G01 X5.6085 Y13.2427
G01 X5.5203 Y13.2384
G01 X5.4886 Y13.2352
G01 X5.4012 Y13.2223
G01 X5.3699 Y13.2160
G01 X5.2843 Y13.1946
G01 X5.2537 Y13.1853
G01 X5.1706 Y13.1556
G01 X5.1411 Y13.1434
G01 X5.0613 Y13.1056
G01 X5.0331 Y13.0906
G01 X4.9574 Y13.0452
G01 X4.9308 Y13.0274
G01 X4.8599 Y12.9748
G01 X4.8352 Y12.9546
G01 X4.7698 Y12.8953
G01 X4.7472 Y12.8727
G01 X4.7206 Y12.8433
G01 X2.7035 Y12.8433
G01 X2.6875 Y12.8429
G01 X2.6385 Y12.8405
G01 X2.6068 Y12.8374
G01 X2.5582 Y12.8302
G01 X2.5269 Y12.8240
G01 X2.4793 Y12.8120
G01 X2.4488 Y12.8028
G01 X2.4025 Y12.7862
G01 X2.3731 Y12.7740
G01 X2.3287 Y12.7530
G01 X2.3006 Y12.7380
G01 X2.2585 Y12.7128
G01 X2.2319 Y12.6950
G01 X2.1925 Y12.6658
G01 X2.1678 Y12.6456
G01 X2.1315 Y12.6126
G01 X2.1089 Y12.5900
G01 X2.0759 Y12.5537
G01 X2.0557 Y12.5290
G01 X2.0265 Y12.4896
G01 X2.0087 Y12.4630
G01 X1.9835 Y12.4209
G01 X1.9685 Y12.3928
G01 X1.9475 Y12.3484
G01 X1.9353 Y12.3190
G01 X1.9187 Y12.2727
G01 X1.9095 Y12.2422
G01 X1.8975 Y12.1946
G01 X1.8913 Y12.1633
G01 X1.8841 Y12.1147
G01 X1.8810 Y12.0830
G01 X1.8786 Y12.0340
G01 X1.8782 Y12.0180
G01 X1.8782 Y5.5410
G01 X1.8786 Y5.5250
G01 X1.8810 Y5.4760
G01 X1.8841 Y5.4443
G01 X1.8913 Y5.3957
G01 X1.8975 Y5.3644
G01 X1.9095 Y5.3168
G01 X1.9187 Y5.2863
G01 X1.9353 Y5.2400
G01 X1.9475 Y5.2106
G01 X1.9685 Y5.1662
G01 X1.9835 Y5.1381
G01 X2.0087 Y5.0960
G01 X2.0265 Y5.0694
G01 X2.0557 Y5.0300
G01 X2.0759 Y5.0053
G01 X2.1089 Y4.9690
G01 X2.1315 Y4.9464
G01 X2.1678 Y4.9134
G01 X2.1925 Y4.8932
G01 X2.2319 Y4.8640
G01 X2.2585 Y4.8462
G01 X2.3006 Y4.8210
G01 X2.3287 Y4.8060
G01 X2.3731 Y4.7850
G01 X2.4025 Y4.7728
G01 X2.4488 Y4.7562
G01 X2.4793 Y4.7470
G01 X2.5269 Y4.7350
G01 X2.5582 Y4.7288
G01 X2.6068 Y4.7216
G01 X2.6385 Y4.7185
G01 X2.6875 Y4.7161
G01 X2.7035 Y4.7157
G01 X4.7992 Y4.7157
G01 X4.7992 Y0.8420
G01 X4.7996 Y0.8260
G01 X4.8020 Y0.7770
G01 X4.8051 Y0.7453
G01 X4.8123 Y0.6967
G01 X4.8185 Y0.6654
G01 X4.8305 Y0.6178
G01 X4.8397 Y0.5873
G01 X4.8563 Y0.5410
G01 X4.8685 Y0.5116
G01 X4.8895 Y0.4672
G01 X4.9045 Y0.4391
G01 X4.9297 Y0.3970
G01 X4.9475 Y0.3704
G01 X4.9767 Y0.3310
G01 X4.9969 Y0.3063
G01 X5.0299 Y0.2700
G01 X5.0525 Y0.2474
G01 X5.0888 Y0.2144
G01 X5.1135 Y0.1942
G01 X5.1529 Y0.1650
G01 X5.1795 Y0.1472
G01 X5.2216 Y0.1220
G01 X5.2497 Y0.1070
G01 X5.2941 Y0.0860
G01 X5.3235 Y0.0738
G01 X5.3698 Y0.0572
G01 X5.4003 Y0.0480
G01 X5.4479 Y0.0360
G01 X5.4792 Y0.0298
G01 X5.5278 Y0.0226
G01 X5.5595 Y0.0195
G01 X5.6085 Y0.0171
G01 X5.6245 Y0.0167
G01 X27.4685 Y0.0167
G01 X27.4845 Y0.0171
G01 X27.5335 Y0.0195
G01 X27.5652 Y0.0226
G01 X27.6138 Y0.0298
G01 X27.6451 Y0.0360
G01 X27.6927 Y0.0480
G01 X27.7232 Y0.0572
G01 X27.7695 Y0.0738
G01 X27.7989 Y0.0860
G01 X27.8433 Y0.1070
G01 X27.8714 Y0.1220
G01 X27.9135 Y0.1472
G01 X27.9401 Y0.1650
G01 X27.9795 Y0.1942
G01 X28.0042 Y0.2144
G01 X28.0405 Y0.2474
G01 X28.0631 Y0.2700
G01 X28.0961 Y0.3063
G01 X28.1163 Y0.3310
G01 X28.1455 Y0.3704
G01 X28.1633 Y0.3970
G01 X28.1885 Y0.4391
G01 X28.2035 Y0.4672
G01 X28.2245 Y0.5116
G01 X28.2367 Y0.5410
G01 X28.2533 Y0.5873
G01 X28.2625 Y0.6178
G01 X28.2745 Y0.6654
G01 X28.2807 Y0.6967
G01 X28.2879 Y0.7453
G01 X28.2910 Y0.7770
G01 X28.2934 Y0.8260
G01 X28.2938 Y0.8420
G01 X28.2938 Y44.2127
G01 X30.5928 Y44.2127
G01 X30.6194 Y44.1833
G01 X30.6420 Y44.1607
G01 X30.7074 Y44.1014
G01 X30.7321 Y44.0812
G01 X30.8030 Y44.0286
G01 X30.8296 Y44.0108
G01 X30.9053 Y43.9654
G01 X30.9334 Y43.9504
G01 X31.0133 Y43.9126
G01 X31.0428 Y43.9004
G01 X31.1259 Y43.8707
G01 X31.1564 Y43.8614
G01 X31.2421 Y43.8400
G01 X31.2734 Y43.8337
G01 X31.3608 Y43.8208
G01 X31.3925 Y43.8176
G01 X31.4807 Y43.8133
G01 X31.5126 Y43.8133
G01 X31.6009 Y43.8176
G01 X31.6326 Y43.8208
G01 X31.7200 Y43.8337
G01 X31.7513 Y43.8400
G01 X31.8369 Y43.8614
G01 X31.8675 Y43.8707
G01 X31.9506 Y43.9004
G01 X31.9801 Y43.9126
G01 X32.0599 Y43.9504
G01 X32.0881 Y43.9654
G01 X32.1638 Y44.0108
G01 X32.1904 Y44.0286
G01 X32.2613 Y44.0812
G01 X32.2860 Y44.1014
G01 X32.3514 Y44.1607
G01 X32.3740 Y44.1833
G01 X32.4333 Y44.2487
G01 X32.4535 Y44.2734
G01 X32.5061 Y44.3443
G01 X32.5238 Y44.3709
G01 X32.5692 Y44.4466
G01 X32.5843 Y44.4748
G01 X32.6221 Y44.5546
G01 X32.6343 Y44.5841
G01 X32.6640 Y44.6672
G01 X32.6733 Y44.6978
G01 X32.6947 Y44.7834
G01 X32.7010 Y44.8147
G01 X32.7139 Y44.9021
G01 X32.7170 Y44.9338
G01 X32.7214 Y45.0220
G01 X32.7214 Y45.0540
G01 X32.7170 Y45.1422
G01 X32.7139 Y45.1739
G01 X32.7010 Y45.2613
G01 X32.6947 Y45.2926
G01 X32.6733 Y45.3782
G01 X32.6640 Y45.4088
G01 X32.6343 Y45.4919
G01 X32.6221 Y45.5214
G01 X32.5843 Y45.6012
G01 X32.5692 Y45.6294
G01 X32.5238 Y45.7051
G01 X32.5061 Y45.7317
G01 X32.4535 Y45.8026
G01 X32.4333 Y45.8273
G01 X32.3740 Y45.8927
G01 X32.3514 Y45.9153
G01 X32.2860 Y45.9746
G01 X32.2613 Y45.9948
G01 X32.1904 Y46.0474
G01 X32.1638 Y46.0652
G01 X32.0881 Y46.1106
G01 X32.0599 Y46.1256
G01 X31.9801 Y46.1634
G01 X31.9506 Y46.1756
G01 X31.8675 Y46.2053
G01 X31.8369 Y46.2146
G01 X31.7513 Y46.2360
G01 X31.7200 Y46.2423
G01 X31.6326 Y46.2552
G01 X31.6009 Y46.2584
G01 X31.5126 Y46.2627
G01 X31.4807 Y46.2627
G01 X31.3925 Y46.2584
G01 X31.3608 Y46.2552
G01 X31.2734 Y46.2423
G01 X31.2421 Y46.2360
G01 X31.1564 Y46.2146
G01 X31.1259 Y46.2053
G01 X31.0428 Y46.1756
G01 X31.0133 Y46.1634
G01 X30.9334 Y46.1256
G01 X30.9053 Y46.1106
G01 X30.8296 Y46.0652
G01 X30.8030 Y46.0474
G01 X30.7321 Y45.9948
G01 X30.7074 Y45.9746
G01 X30.6420 Y45.9153
G01 X30.6194 Y45.8927
G01 X30.5928 Y45.8633
G01 X27.4685 Y45.8633
G01 X27.4525 Y45.8629
G01 X27.4035 Y45.8605
G01 X27.3718 Y45.8574
G01 X27.3232 Y45.8502
G01 X27.2919 Y45.8440
G01 X27.2443 Y45.8320
G01 X27.2138 Y45.8228
G01 X27.1675 Y45.8062
G01 X27.1381 Y45.7940
G01 X27.0937 Y45.7730
G01 X27.0656 Y45.7580
G01 X27.0235 Y45.7328
G01 X26.9969 Y45.7150
G01 X26.9575 Y45.6858
G01 X26.9328 Y45.6656
G01 X26.8965 Y45.6326
G01 X26.8739 Y45.6100
G01 X26.8409 Y45.5737
G01 X26.8207 Y45.5490
G01 X26.7915 Y45.5096
G01 X26.7737 Y45.4830
G01 X26.7485 Y45.4409
G01 X26.7335 Y45.4128
G01 X26.7125 Y45.3684
G01 X26.7003 Y45.3390
G01 X26.6837 Y45.2927
G01 X26.6745 Y45.2622
G01 X26.6625 Y45.2146
G01 X26.6563 Y45.1833
G01 X26.6491 Y45.1347
G01 X26.6460 Y45.1030
G01 X26.6436 Y45.0540
G01 X26.6432 Y45.0380
G01 X26.6432 Y1.6673
G01 X6.4498 Y1.6673
G01 X6.4498 Y5.5410
G01 X6.4494 Y5.5570
G01 X6.4470 Y5.6060
G01 X6.4439 Y5.6377
G01 X6.4367 Y5.6863
G01 X6.4305 Y5.7176
G01 X6.4185 Y5.7652
G01 X6.4093 Y5.7957
G01 X6.3927 Y5.8420
G01 X6.3805 Y5.8714
G01 X6.3595 Y5.9158
G01 X6.3445 Y5.9439
G01 X6.3193 Y5.9860
G01 X6.3015 Y6.0126
G01 X6.2723 Y6.0520
G01 X6.2521 Y6.0767
G01 X6.2191 Y6.1130
G01 X6.1965 Y6.1356
G01 X6.1602 Y6.1686
G01 X6.1355 Y6.1888
G01 X6.0961 Y6.2180
G01 X6.0695 Y6.2358
G01 X6.0274 Y6.2610
G01 X5.9993 Y6.2760
G01 X5.9549 Y6.2970
G01 X5.9255 Y6.3092
G01 X5.8792 Y6.3258
G01 X5.8487 Y6.3350
G01 X5.8011 Y6.3470
G01 X5.7698 Y6.3532
G01 X5.7212 Y6.3604
G01 X5.6895 Y6.3635
G01 X5.6405 Y6.3659
G01 X5.6245 Y6.3663
G01 X3.5288 Y6.3663
G01 X3.5288 Y11.1927
G01 X4.7206 Y11.1927
G00 Z2.0000
G00 X6.5284 Y16.2727
G01 F60.00
G01 Z-0.0600
G01 F70.00
G01 X13.0542 Y16.2727
G01 X13.0542 Y9.2240
G01 X13.0546 Y9.2080
G01 X13.0570 Y9.1590
G01 X13.0601 Y9.1273
G01 X13.0673 Y9.0787
G01 X13.0735 Y9.0474
G01 X13.0855 Y8.9998
G01 X13.0947 Y8.9693
G01 X13.1113 Y8.9230
G01 X13.1235 Y8.8936
G01 X13.1445 Y8.8492
G01 X13.1595 Y8.8211
G01 X13.1847 Y8.7790
G01 X13.2025 Y8.7524
G01 X13.2317 Y8.7130
G01 X13.2519 Y8.6883
G01 X13.2849 Y8.6520
G01 X13.3075 Y8.6294
G01 X13.3438 Y8.5964
G01 X13.3685 Y8.5762
G01 X13.4079 Y8.5470
G01 X13.4345 Y8.5292
G01 X13.4766 Y8.5040
G01 X13.5047 Y8.4890
G01 X13.5491 Y8.4680
G01 X13.5785 Y8.4558
G01 X13.6248 Y8.4392
G01 X13.6553 Y8.4300
G01 X13.7029 Y8.4180
G01 X13.7342 Y8.4118
G01 X13.7828 Y8.4046
G01 X13.8145 Y8.4015
G01 X13.8635 Y8.3991
G01 X13.8795 Y8.3987
G01 X18.9595 Y8.3987
G01 X18.9755 Y8.3991
G01 X19.0245 Y8.4015
G01 X19.0562 Y8.4046
G01 X19.1048 Y8.4118
G01 X19.1361 Y8.4180
G01 X19.1837 Y8.4300
G01 X19.2142 Y8.4392
G01 X19.2605 Y8.4558
G01 X19.2899 Y8.4680
G01 X19.3343 Y8.4890
G01 X19.3624 Y8.5040
G01 X19.4045 Y8.5292
G01 X19.4311 Y8.5470
G01 X19.4705 Y8.5762
G01 X19.4952 Y8.5964
G01 X19.5315 Y8.6294
G01 X19.5541 Y8.6520
G01 X19.5871 Y8.6883
G01 X19.6073 Y8.7130
G01 X19.6365 Y8.7524
G01 X19.6543 Y8.7790
G01 X19.6795 Y8.8211
G01 X19.6945 Y8.8492
G01 X19.7155 Y8.8936
G01 X19.7277 Y8.9230
G01 X19.7443 Y8.9693
G01 X19.7535 Y8.9998
G01 X19.7655 Y9.0474
G01 X19.7717 Y9.0787
G01 X19.7789 Y9.1273
G01 X19.7820 Y9.1590
G01 X19.7844 Y9.2080
G01 X19.7848 Y9.2240
G01 X19.7848 Y39.9580
G01 X19.7844 Y39.9740
G01 X19.7820 Y40.0230
G01 X19.7789 Y40.0547
G01 X19.7717 Y40.1033
G01 X19.7655 Y40.1346
G01 X19.7535 Y40.1822
G01 X19.7443 Y40.2127
G01 X19.7277 Y40.2590
G01 X19.7155 Y40.2884
G01 X19.6945 Y40.3328
G01 X19.6795 Y40.3609
G01 X19.6543 Y40.4030
G01 X19.6365 Y40.4296
G01 X19.6073 Y40.4690
G01 X19.5871 Y40.4937
G01 X19.5541 Y40.5300
G01 X19.5315 Y40.5526
G01 X19.4952 Y40.5856
G01 X19.4705 Y40.6058
G01 X19.4311 Y40.6350
G01 X19.4045 Y40.6528
G01 X19.3624 Y40.6780
G01 X19.3343 Y40.6930
G01 X19.2899 Y40.7140
G01 X19.2605 Y40.7262
G01 X19.2142 Y40.7428
G01 X19.1837 Y40.7520
G01 X19.1361 Y40.7640
G01 X19.1048 Y40.7702
G01 X19.0562 Y40.7774
G01 X19.0245 Y40.7805
G01 X18.9755 Y40.7829
G01 X18.9595 Y40.7833
G01 X17.1603 Y40.7833
G01 X17.1337 Y40.8127
G01 X17.1111 Y40.8353
G01 X17.0457 Y40.8946
G01 X17.0210 Y40.9148
G01 X16.9501 Y40.9674
G01 X16.9236 Y40.9852
G01 X16.8478 Y41.0306
G01 X16.8197 Y41.0456
G01 X16.7398 Y41.0834
G01 X16.7104 Y41.0956
G01 X16.6272 Y41.1253
G01 X16.5967 Y41.1346
G01 X16.5110 Y41.1560
G01 X16.4797 Y41.1623
G01 X16.3924 Y41.1752
G01 X16.3606 Y41.1784
G01 X16.2724 Y41.1827
G01 X16.2405 Y41.1827
G01 X16.1523 Y41.1784
G01 X16.1205 Y41.1752
G01 X16.0332 Y41.1623
G01 X16.0019 Y41.1560
G01 X15.9162 Y41.1346
G01 X15.8857 Y41.1253
G01 X15.8025 Y41.0956
G01 X15.7730 Y41.0834
G01 X15.6932 Y41.0456
G01 X15.6651 Y41.0306
G01 X15.5893 Y40.9852
G01 X15.5628 Y40.9674
G01 X15.4918 Y40.9148
G01 X15.4672 Y40.8946
G01 X15.4017 Y40.8353
G01 X15.3792 Y40.8127
G01 X15.3199 Y40.7473
G01 X15.2996 Y40.7226
G01 X15.2470 Y40.6517
G01 X15.2293 Y40.6251
G01 X15.1839 Y40.5494
G01 X15.1688 Y40.5212
G01 X15.1311 Y40.4414
G01 X15.1189 Y40.4119
G01 X15.0891 Y40.3288
G01 X15.0799 Y40.2982
G01 X15.0584 Y40.2126
G01 X15.0522 Y40.1813
G01 X15.0392 Y40.0939
G01 X15.0361 Y40.0622
G01 X15.0318 Y39.9740
G01 X15.0318 Y39.9420
G01 X15.0361 Y39.8538
G01 X15.0392 Y39.8221
G01 X15.0522 Y39.7347
G01 X15.0584 Y39.7034
G01 X15.0799 Y39.6178
G01 X15.0891 Y39.5872
G01 X15.1189 Y39.5041
G01 X15.1311 Y39.4746
G01 X15.1688 Y39.3948
G01 X15.1839 Y39.3666
G01 X15.2293 Y39.2909
G01 X15.2470 Y39.2643
G01 X15.2996 Y39.1934
G01 X15.3199 Y39.1687
G01 X15.3792 Y39.1033
G01 X15.4017 Y39.0807
G01 X15.4672 Y39.0214
G01 X15.4918 Y39.0012
G01 X15.5628 Y38.9486
G01 X15.5893 Y38.9308
G01 X15.6651 Y38.8854
G01 X15.6932 Y38.8704
G01 X15.7730 Y38.8326
G01 X15.8025 Y38.8204
G01 X15.8857 Y38.7907
G01 X15.9162 Y38.7814
G01 X16.0019 Y38.7600
G01 X16.0332 Y38.7537
G01 X16.1205 Y38.7408
G01 X16.1523 Y38.7376
G01 X16.2405 Y38.7333
G01 X16.2724 Y38.7333
G01 X16.3606 Y38.7376
G01 X16.3924 Y38.7408
G01 X16.4797 Y38.7537
G01 X16.5110 Y38.7600
G01 X16.5967 Y38.7814
G01 X16.6272 Y38.7907
G01 X16.7104 Y38.8204
G01 X16.7398 Y38.8326
G01 X16.8197 Y38.8704
G01 X16.8478 Y38.8854
G01 X16.9236 Y38.9308
G01 X16.9501 Y38.9486
G01 X17.0210 Y39.0012
G01 X17.0457 Y39.0214
G01 X17.1111 Y39.0807
G01 X17.1337 Y39.1033
G01 X17.1603 Y39.1327
G01 X18.1342 Y39.1327
G01 X18.1342 Y10.0493
G01 X14.7048 Y10.0493
G01 X14.7048 Y17.0980
G01 X14.7044 Y17.1140
G01 X14.7020 Y17.1630
G01 X14.6989 Y17.1947
G01 X14.6917 Y17.2433
G01 X14.6855 Y17.2746
G01 X14.6735 Y17.3222
G01 X14.6643 Y17.3527
G01 X14.6477 Y17.3990
G01 X14.6355 Y17.4284
G01 X14.6145 Y17.4728
G01 X14.5995 Y17.5009
G01 X14.5743 Y17.5430
G01 X14.5565 Y17.5696
G01 X14.5273 Y17.6090
G01 X14.5071 Y17.6337
G01 X14.4741 Y17.6700
G01 X14.4515 Y17.6926
G01 X14.4152 Y17.7256
G01 X14.3905 Y17.7458
G01 X14.3511 Y17.7750
G01 X14.3245 Y17.7928
G01 X14.2824 Y17.8180
G01 X14.2543 Y17.8330
G01 X14.2099 Y17.8540
G01 X14.1805 Y17.8662
G01 X14.1342 Y17.8828
G01 X14.1037 Y17.8920
G01 X14.0561 Y17.9040
G01 X14.0248 Y17.9102
G01 X13.9762 Y17.9174
G01 X13.9445 Y17.9205
G01 X13.8955 Y17.9229
G01 X13.8795 Y17.9233
G01 X6.5284 Y17.9233
G01 X6.5018 Y17.9527
G01 X6.4792 Y17.9753
G01 X6.4138 Y18.0346
G01 X6.3891 Y18.0548
G01 X6.3182 Y18.1074
G01 X6.2916 Y18.1252
G01 X6.2159 Y18.1706
G01 X6.1877 Y18.1856
G01 X6.1079 Y18.2234
G01 X6.0784 Y18.2356
G01 X5.9953 Y18.2653
G01 X5.9647 Y18.2746
G01 X5.8791 Y18.2960
G01 X5.8478 Y18.3023
G01 X5.7604 Y18.3152
G01 X5.7287 Y18.3184
G01 X5.6405 Y18.3227
G01 X5.6085 Y18.3227
G01 X5.5203 Y18.3184
G01 X5.4886 Y18.3152
G01 X5.4012 Y18.3023
G01 X5.3699 Y18.2960
G01 X5.2843 Y18.2746
G01 X5.2537 Y18.2653
G01 X5.1706 Y18.2356
G01 X5.1411 Y18.2234
G01 X5.0613 Y18.1856
G01 X5.0331 Y18.1706
G01 X4.9574 Y18.1252
G01 X4.9308 Y18.1074
G01 X4.8599 Y18.0548
G01 X4.8352 Y18.0346
G01 X4.7698 Y17.9753
G01 X4.7472 Y17.9527
G01 X4.6879 Y17.8873
G01 X4.6677 Y17.8626
G01 X4.6151 Y17.7917
G01 X4.5973 Y17.7651
G01 X4.5519 Y17.6894
G01 X4.5369 Y17.6612
G01 X4.4991 Y17.5814
G01 X4.4869 Y17.5519
G01 X4.4572 Y17.4688
G01 X4.4479 Y17.4382
G01 X4.4265 Y17.3526
G01 X4.4202 Y17.3213
G01 X4.4073 Y17.2339
G01 X4.4041 Y17.2022
G01 X4.3998 Y17.1140
G01 X4.3998 Y17.0820
G01 X4.4041 Y16.9938
G01 X4.4073 Y16.9621
G01 X4.4202 Y16.8747
G01 X4.4265 Y16.8434
G01 X4.4479 Y16.7578
G01 X4.4572 Y16.7272
G01 X4.4869 Y16.6441
G01 X4.4991 Y16.6146
G01 X4.5369 Y16.5348
G01 X4.5519 Y16.5066
G01 X4.5973 Y16.4309
G01 X4.6151 Y16.4043
G01 X4.6677 Y16.3334
G01 X4.6879 Y16.3087
G01 X4.7472 Y16.2433
G01 X4.7698 Y16.2207
G01 X4.8352 Y16.1614
G01 X4.8599 Y16.1412
G01 X4.9308 Y16.0886
G01 X4.9574 Y16.0708
G01 X5.0331 Y16.0254
G01 X5.0613 Y16.0104
G01 X5.1411 Y15.9726
G01 X5.1706 Y15.9604
G01 X5.2537 Y15.9307
G01 X5.2843 Y15.9214
G01 X5.3699 Y15.9000
G01 X5.4012 Y15.8937
G01 X5.4886 Y15.8808
G01 X5.5203 Y15.8776
G01 X5.6085 Y15.8733
G01 X5.6405 Y15.8733
G01 X5.7287 Y15.8776
G01 X5.7604 Y15.8808
G01 X5.8478 Y15.8937
G01 X5.8791 Y15.9000
G01 X5.9647 Y15.9214
G01 X5.9953 Y15.9307
G01 X6.0784 Y15.9604
G01 X6.1079 Y15.9726
G01 X6.1877 Y16.0104
G01 X6.2159 Y16.0254
G01 X6.2916 Y16.0708
G01 X6.3182 Y16.0886
G01 X6.3891 Y16.1412
G01 X6.4138 Y16.1614
G01 X6.4792 Y16.2207
G01 X6.5018 Y16.2433
G01 X6.5284 Y16.2727
G00 Z2.0000
G00 X15.0318 Y17.1140
G01 F60.00
G01 Z-0.0600
G01 F70.00
G01 X15.0318 Y17.0820
G01 X15.0361 Y16.9938
G01 X15.0392 Y16.9621
G01 X15.0522 Y16.8747
G01 X15.0584 Y16.8434
G01 X15.0799 Y16.7578
G01 X15.0891 Y16.7272
G01 X15.1189 Y16.6441
G01 X15.1311 Y16.6146
G01 X15.1688 Y16.5348
G01 X15.1839 Y16.5066
G01 X15.2293 Y16.4309
G01 X15.2470 Y16.4043
G01 X15.2996 Y16.3334
G01 X15.3199 Y16.3087
G01 X15.3792 Y16.2433
G01 X15.4017 Y16.2207
G01 X15.4672 Y16.1614
G01 X15.4918 Y16.1412
G01 X15.5628 Y16.0886
G01 X15.5893 Y16.0708
G01 X15.6651 Y16.0254
G01 X15.6932 Y16.0104
G01 X15.7730 Y15.9726
G01 X15.8025 Y15.9604
G01 X15.8857 Y15.9307
G01 X15.9162 Y15.9214
G01 X16.0019 Y15.9000
G01 X16.0332 Y15.8937
G01 X16.1205 Y15.8808
G01 X16.1523 Y15.8776
G01 X16.2405 Y15.8733
G01 X16.2724 Y15.8733
G01 X16.3606 Y15.8776
G01 X16.3924 Y15.8808
G01 X16.4797 Y15.8937
G01 X16.5110 Y15.9000
G01 X16.5967 Y15.9214
G01 X16.6272 Y15.9307
G01 X16.7104 Y15.9604
G01 X16.7398 Y15.9726
G01 X16.8197 Y16.0104
G01 X16.8478 Y16.0254
G01 X16.9236 Y16.0708
G01 X16.9501 Y16.0886
G01 X17.0210 Y16.1412
G01 X17.0457 Y16.1614
G01 X17.1111 Y16.2207
G01 X17.1337 Y16.2433
G01 X17.1930 Y16.3087
G01 X17.2133 Y16.3334
G01 X17.2659 Y16.4043
G01 X17.2836 Y16.4309
G01 X17.3290 Y16.5066
G01 X17.3440 Y16.5348
G01 X17.3818 Y16.6146
G01 X17.3940 Y16.6441
G01 X17.4238 Y16.7272
G01 X17.4330 Y16.7578
G01 X17.4545 Y16.8434
G01 X17.4607 Y16.8747
G01 X17.4737 Y16.9621
G01 X17.4768 Y16.9938
G01 X17.4811 Y17.0820
G01 X17.4811 Y17.1140
G01 X17.4768 Y17.2022
G01 X17.4737 Y17.2339
G01 X17.4607 Y17.3213
G01 X17.4545 Y17.3526
G01 X17.4330 Y17.4382
G01 X17.4238 Y17.4688
G01 X17.3940 Y17.5519
G01 X17.3818 Y17.5814
G01 X17.3440 Y17.6612
G01 X17.3290 Y17.6894
G01 X17.2836 Y17.7651
G01 X17.2659 Y17.7917
G01 X17.2133 Y17.8626
G01 X17.1930 Y17.8873
G01 X17.1337 Y17.9527
G01 X17.1111 Y17.9753
G01 X17.0457 Y18.0346
G01 X17.0210 Y18.0548
G01 X16.9501 Y18.1074
G01 X16.9236 Y18.1252
G01 X16.8478 Y18.1706
G01 X16.8197 Y18.1856
G01 X16.7398 Y18.2234
G01 X16.7104 Y18.2356
G01 X16.6272 Y18.2653
G01 X16.5967 Y18.2746
G01 X16.5110 Y18.2960
G01 X16.4797 Y18.3023
G01 X16.3924 Y18.3152
G01 X16.3606 Y18.3184
G01 X16.2724 Y18.3227
G01 X16.2405 Y18.3227
G01 X16.1523 Y18.3184
G01 X16.1205 Y18.3152
G01 X16.0332 Y18.3023
G01 X16.0019 Y18.2960
G01 X15.9162 Y18.2746
G01 X15.8857 Y18.2653
G01 X15.8025 Y18.2356
G01 X15.7730 Y18.2234
G01 X15.6932 Y18.1856
G01 X15.6651 Y18.1706
G01 X15.5893 Y18.1252
G01 X15.5628 Y18.1074
G01 X15.4918 Y18.0548
G01 X15.4672 Y18.0346
G01 X15.4017 Y17.9753
G01 X15.3792 Y17.9527
G01 X15.3199 Y17.8873
G01 X15.2996 Y17.8626
G01 X15.2470 Y17.7917
G01 X15.2293 Y17.7651
G01 X15.1839 Y17.6894
G01 X15.1688 Y17.6612
G01 X15.1311 Y17.5814
G01 X15.1189 Y17.5519
G01 X15.0891 Y17.4688
G01 X15.0799 Y17.4382
G01 X15.0584 Y17.3526
G01 X15.0522 Y17.3213
G01 X15.0392 Y17.2339
G01 X15.0361 Y17.2022
G01 X15.0318 Y17.1140
G00 Z2.0000
G00 X15.0318 Y19.6540
G01 F60.00
G01 Z-0.0600
G01 F70.00
G01 X15.0318 Y19.6220
G01 X15.0361 Y19.5338
G01 X15.0392 Y19.5021
G01 X15.0522 Y19.4147
G01 X15.0584 Y19.3834
G01 X15.0799 Y19.2978
G01 X15.0891 Y19.2672
G01 X15.1189 Y19.1841
G01 X15.1311 Y19.1546
G01 X15.1688 Y19.0748
G01 X15.1839 Y19.0466
G01 X15.2293 Y18.9709
G01 X15.2470 Y18.9443
G01 X15.2996 Y18.8734
G01 X15.3199 Y18.8487
G01 X15.3792 Y18.7833
G01 X15.4017 Y18.7607
G01 X15.4672 Y18.7014
G01 X15.4918 Y18.6812
G01 X15.5628 Y18.6286
G01 X15.5893 Y18.6108
G01 X15.6651 Y18.5654
G01 X15.6932 Y18.5504
G01 X15.7730 Y18.5126
G01 X15.8025 Y18.5004
G01 X15.8857 Y18.4707
G01 X15.9162 Y18.4614
G01 X16.0019 Y18.4400
G01 X16.0332 Y18.4337
G01 X16.1205 Y18.4208
G01 X16.1523 Y18.4176
G01 X16.2405 Y18.4133
G01 X16.2724 Y18.4133
G01 X16.3606 Y18.4176
G01 X16.3924 Y18.4208
G01 X16.4797 Y18.4337
G01 X16.5110 Y18.4400
G01 X16.5967 Y18.4614
G01 X16.6272 Y18.4707
G01 X16.7104 Y18.5004
G01 X16.7398 Y18.5126
G01 X16.8197 Y18.5504
G01 X16.8478 Y18.5654
G01 X16.9236 Y18.6108
G01 X16.9501 Y18.6286
G01 X17.0210 Y18.6812
G01 X17.0457 Y18.7014
G01 X17.1111 Y18.7607
G01 X17.1337 Y18.7833
G01 X17.1930 Y18.8487
G01 X17.2133 Y18.8734
G01 X17.2659 Y18.9443
G01 X17.2836 Y18.9709
G01 X17.3290 Y19.0466
G01 X17.3440 Y19.0748
G01 X17.3818 Y19.1546
G01 X17.3940 Y19.1841
G01 X17.4238 Y19.2672
G01 X17.4330 Y19.2978
G01 X17.4545 Y19.3834
G01 X17.4607 Y19.4147
G01 X17.4737 Y19.5021
G01 X17.4768 Y19.5338
G01 X17.4811 Y19.6220
G01 X17.4811 Y19.6540
G01 X17.4768 Y19.7422
G01 X17.4737 Y19.7739
G01 X17.4607 Y19.8613
G01 X17.4545 Y19.8926
G01 X17.4330 Y19.9782
G01 X17.4238 Y20.0088
G01 X17.3940 Y20.0919
G01 X17.3818 Y20.1214
G01 X17.3440 Y20.2012
G01 X17.3290 Y20.2294
G01 X17.2836 Y20.3051
G01 X17.2659 Y20.3317
G01 X17.2133 Y20.4026
G01 X17.1930 Y20.4273
G01 X17.1337 Y20.4927
G01 X17.1111 Y20.5153
G01 X17.0457 Y20.5746
G01 X17.0210 Y20.5948
G01 X16.9501 Y20.6474
G01 X16.9236 Y20.6652
G01 X16.8478 Y20.7106
G01 X16.8197 Y20.7256
G01 X16.7398 Y20.7634
G01 X16.7104 Y20.7756
G01 X16.6272 Y20.8053
G01 X16.5967 Y20.8146
G01 X16.5110 Y20.8360
G01 X16.4797 Y20.8423
G01 X16.3924 Y20.8552
G01 X16.3606 Y20.8584
G01 X16.2724 Y20.8627
G01 X16.2405 Y20.8627
G01 X16.1523 Y20.8584
G01 X16.1205 Y20.8552
G01 X16.0332 Y20.8423
G01 X16.0019 Y20.8360
G01 X15.9162 Y20.8146
G01 X15.8857 Y20.8053
G01 X15.8025 Y20.7756
G01 X15.7730 Y20.7634
G01 X15.6932 Y20.7256
G01 X15.6651 Y20.7106
G01 X15.5893 Y20.6652
G01 X15.5628 Y20.6474
G01 X15.4918 Y20.5948
G01 X15.4672 Y20.5746
G01 X15.4017 Y20.5153
G01 X15.3792 Y20.4927
G01 X15.3199 Y20.4273
G01 X15.2996 Y20.4026
G01 X15.2470 Y20.3317
G01 X15.2293 Y20.3051
G01 X15.1839 Y20.2294
G01 X15.1688 Y20.2012
G01 X15.1311 Y20.1214
G01 X15.1189 Y20.0919
G01 X15.0891 Y20.0088
G01 X15.0799 Y19.9782
G01 X15.0584 Y19.8926
G01 X15.0522 Y19.8613
G01 X15.0392 Y19.7739
G01 X15.0361 Y19.7422
G01 X15.0318 Y19.6540
G00 Z2.0000
G00 X15.0318 Y14.5740
G01 F60.00
G01 Z-0.0600
G01 F70.00
G01 X15.0318 Y14.5420
G01 X15.0361 Y14.4538
G01 X15.0392 Y14.4221
G01 X15.0522 Y14.3347
G01 X15.0584 Y14.3034
G01 X15.0799 Y14.2178
G01 X15.0891 Y14.1872
G01 X15.1189 Y14.1041
G01 X15.1311 Y14.0746
G01 X15.1688 Y13.9948
G01 X15.1839 Y13.9666
G01 X15.2293 Y13.8909
G01 X15.2470 Y13.8643
G01 X15.2996 Y13.7934
G01 X15.3199 Y13.7687
G01 X15.3792 Y13.7033
G01 X15.4017 Y13.6807
G01 X15.4672 Y13.6214
G01 X15.4918 Y13.6012
G01 X15.5628 Y13.5486
G01 X15.5893 Y13.5308
G01 X15.6651 Y13.4854
G01 X15.6932 Y13.4704
G01 X15.7730 Y13.4326
G01 X15.8025 Y13.4204
G01 X15.8857 Y13.3907
G01 X15.9162 Y13.3814
G01 X16.0019 Y13.3600
G01 X16.0332 Y13.3537
G01 X16.1205 Y13.3408
G01 X16.1523 Y13.3376
G01 X16.2405 Y13.3333
G01 X16.2724 Y13.3333
G01 X16.3606 Y13.3376
G01 X16.3924 Y13.3408
G01 X16.4797 Y13.3537
G01 X16.5110 Y13.3600
G01 X16.5967 Y13.3814
G01 X16.6272 Y13.3907
G01 X16.7104 Y13.4204
G01 X16.7398 Y13.4326
G01 X16.8197 Y13.4704
G01 X16.8478 Y13.4854
G01 X16.9236 Y13.5308
G01 X16.9501 Y13.5486
G01 X17.0210 Y13.6012
G01 X17.0457 Y13.6214
G01 X17.1111 Y13.6807
G01 X17.1337 Y13.7033
G01 X17.1930 Y13.7687
G01 X17.2133 Y13.7934
G01 X17.2659 Y13.8643
G01 X17.2836 Y13.8909
G01 X17.3290 Y13.9666
G01 X17.3440 Y13.9948
G01 X17.3818 Y14.0746
G01 X17.3940 Y14.1041
G01 X17.4238 Y14.1872
G01 X17.4330 Y14.2178
G01 X17.4545 Y14.3034
G01 X17.4607 Y14.3347
G01 X17.4737 Y14.4221
G01 X17.4768 Y14.4538
G01 X17.4811 Y14.5420
G01 X17.4811 Y14.5740
G01 X17.4768 Y14.6622
G01 X17.4737 Y14.6939
G01 X17.4607 Y14.7813
G01 X17.4545 Y14.8126
G01 X17.4330 Y14.8982
G01 X17.4238 Y14.9288
G01 X17.3940 Y15.0119
G01 X17.3818 Y15.0414
G01 X17.3440 Y15.1212
G01 X17.3290 Y15.1494
G01 X17.2836 Y15.2251
G01 X17.2659 Y15.2517
G01 X17.2133 Y15.3226
G01 X17.1930 Y15.3473
G01 X17.1337 Y15.4127
G01 X17.1111 Y15.4353
G01 X17.0457 Y15.4946
G01 X17.0210 Y15.5148
G01 X16.9501 Y15.5674
G01 X16.9236 Y15.5852
G01 X16.8478 Y15.6306
G01 X16.8197 Y15.6456
G01 X16.7398 Y15.6834
G01 X16.7104 Y15.6956
G01 X16.6272 Y15.7253
G01 X16.5967 Y15.7346
G01 X16.5110 Y15.7560
G01 X16.4797 Y15.7623
G01 X16.3924 Y15.7752
G01 X16.3606 Y15.7784
G01 X16.2724 Y15.7827
G01 X16.2405 Y15.7827
G01 X16.1523 Y15.7784
G01 X16.1205 Y15.7752
G01 X16.0332 Y15.7623
G01 X16.0019 Y15.7560
G01 X15.9162 Y15.7346
G01 X15.8857 Y15.7253
G01 X15.8025 Y15.6956
G01 X15.7730 Y15.6834
G01 X15.6932 Y15.6456
G01 X15.6651 Y15.6306
G01 X15.5893 Y15.5852
G01 X15.5628 Y15.5674
G01 X15.4918 Y15.5148
G01 X15.4672 Y15.4946
G01 X15.4017 Y15.4353
G01 X15.3792 Y15.4127
G01 X15.3199 Y15.3473
G01 X15.2996 Y15.3226
G01 X15.2470 Y15.2517
G01 X15.2293 Y15.2251
G01 X15.1839 Y15.1494
G01 X15.1688 Y15.1212
G01 X15.1311 Y15.0414
G01 X15.1189 Y15.0119
G01 X15.0891 Y14.9288
G01 X15.0799 Y14.8982
G01 X15.0584 Y14.8126
G01 X15.0522 Y14.7813
G01 X15.0392 Y14.6939
G01 X15.0361 Y14.6622
G01 X15.0318 Y14.5740
G00 Z2.0000
G00 X15.0318 Y12.0340
G01 F60.00
G01 Z-0.0600
G01 F70.00
G01 X15.0318 Y12.0020
G01 X15.0361 Y11.9138
G01 X15.0392 Y11.8821
G01 X15.0522 Y11.7947
G01 X15.0584 Y11.7634
G01 X15.0799 Y11.6778
G01 X15.0891 Y11.6472
G01 X15.1189 Y11.5641
G01 X15.1311 Y11.5346
G01 X15.1688 Y11.4548
G01 X15.1839 Y11.4266
G01 X15.2293 Y11.3509
G01 X15.2470 Y11.3243
G01 X15.2996 Y11.2534
G01 X15.3199 Y11.2287
G01 X15.3792 Y11.1633
G01 X15.4017 Y11.1407
G01 X15.4672 Y11.0814
G01 X15.4918 Y11.0612
G01 X15.5628 Y11.0086
G01 X15.5893 Y10.9908
G01 X15.6651 Y10.9454
G01 X15.6932 Y10.9304
G01 X15.7730 Y10.8926
G01 X15.8025 Y10.8804
G01 X15.8857 Y10.8507
G01 X15.9162 Y10.8414
G01 X16.0019 Y10.8200
G01 X16.0332 Y10.8137
G01 X16.1205 Y10.8008
G01 X16.1523 Y10.7976
G01 X16.2405 Y10.7933
G01 X16.2724 Y10.7933
G01 X16.3606 Y10.7976
G01 X16.3924 Y10.8008
G01 X16.4797 Y10.8137
G01 X16.5110 Y10.8200
G01 X16.5967 Y10.8414
G01 X16.6272 Y10.8507
G01 X16.7104 Y10.8804
G01 X16.7398 Y10.8926
G01 X16.8197 Y10.9304
G01 X16.8478 Y10.9454
G01 X16.9236 Y10.9908
G01 X16.9501 Y11.0086
G01 X17.0210 Y11.0612
G01 X17.0457 Y11.0814
G01 X17.1111 Y11.1407
G01 X17.1337 Y11.1633
G01 X17.1930 Y11.2287
G01 X17.2133 Y11.2534
G01 X17.2659 Y11.3243
G01 X17.2836 Y11.3509
G01 X17.3290 Y11.4266
G01 X17.3440 Y11.4548
G01 X17.3818 Y11.5346
G01 X17.3940 Y11.5641
G01 X17.4238 Y11.6472
G01 X17.4330 Y11.6778
G01 X17.4545 Y11.7634
G01 X17.4607 Y11.7947
G01 X17.4737 Y11.8821
G01 X17.4768 Y11.9138
G01 X17.4811 Y12.0020
G01 X17.4811 Y12.0340
G01 X17.4768 Y12.1222
G01 X17.4737 Y12.1539
G01 X17.4607 Y12.2413
G01 X17.4545 Y12.2726
G01 X17.4330 Y12.3582
G01 X17.4238 Y12.3888
G01 X17.3940 Y12.4719
G01 X17.3818 Y12.5014
G01 X17.3440 Y12.5812
G01 X17.3290 Y12.6094
G01 X17.2836 Y12.6851
G01 X17.2659 Y12.7117
G01 X17.2133 Y12.7826
G01 X17.1930 Y12.8073
G01 X17.1337 Y12.8727
G01 X17.1111 Y12.8953
G01 X17.0457 Y12.9546
G01 X17.0210 Y12.9748
G01 X16.9501 Y13.0274
G01 X16.9236 Y13.0452
G01 X16.8478 Y13.0906
G01 X16.8197 Y13.1056
G01 X16.7398 Y13.1434
G01 X16.7104 Y13.1556
G01 X16.6272 Y13.1853
G01 X16.5967 Y13.1946
G01 X16.5110 Y13.2160
G01 X16.4797 Y13.2223
G01 X16.3924 Y13.2352
G01 X16.3606 Y13.2384
G01 X16.2724 Y13.2427
G01 X16.2405 Y13.2427
G01 X16.1523 Y13.2384
G01 X16.1205 Y13.2352
G01 X16.0332 Y13.2223
G01 X16.0019 Y13.2160
G01 X15.9162 Y13.1946
G01 X15.8857 Y13.1853
G01 X15.8025 Y13.1556
G01 X15.7730 Y13.1434
G01 X15.6932 Y13.1056
G01 X15.6651 Y13.0906
G01 X15.5893 Y13.0452
G01 X15.5628 Y13.0274
G01 X15.4918 Y12.9748
G01 X15.4672 Y12.9546
G01 X15.4017 Y12.8953
G01 X15.3792 Y12.8727
G01 X15.3199 Y12.8073
G01 X15.2996 Y12.7826
G01 X15.2470 Y12.7117
G01 X15.2293 Y12.6851
G01 X15.1839 Y12.6094
G01 X15.1688 Y12.5812
G01 X15.1311 Y12.5014
G01 X15.1189 Y12.4719
G01 X15.0891 Y12.3888
G01 X15.0799 Y12.3582
G01 X15.0584 Y12.2726
G01 X15.0522 Y12.2413
G01 X15.0392 Y12.1539
G01 X15.0361 Y12.1222
G01 X15.0318 Y12.0340
G00 Z2.0000
G00 X15.0318 Y24.7340
G01 F60.00
G01 Z-0.0600
G01 F70.00
G01 X15.0318 Y24.7020
G01 X15.0361 Y24.6138
G01 X15.0392 Y24.5821
G01 X15.0522 Y24.4947
G01 X15.0584 Y24.4634
G01 X15.0799 Y24.3778
G01 X15.0891 Y24.3472
G01 X15.1189 Y24.2641
G01 X15.1311 Y24.2346
G01 X15.1688 Y24.1548
G01 X15.1839 Y24.1266
G01 X15.2293 Y24.0509
G01 X15.2470 Y24.0243
G01 X15.2996 Y23.9534
G01 X15.3199 Y23.9287
G01 X15.3792 Y23.8633
G01 X15.4017 Y23.8407
G01 X15.4672 Y23.7814
G01 X15.4918 Y23.7612
G01 X15.5628 Y23.7086
G01 X15.5893 Y23.6908
G01 X15.6651 Y23.6454
G01 X15.6932 Y23.6304
G01 X15.7730 Y23.5926
G01 X15.8025 Y23.5804
G01 X15.8857 Y23.5507
G01 X15.9162 Y23.5414
G01 X16.0019 Y23.5200
G01 X16.0332 Y23.5137
G01 X16.1205 Y23.5008
G01 X16.1523 Y23.4976
G01 X16.2405 Y23.4933
G01 X16.2724 Y23.4933
G01 X16.3606 Y23.4976
G01 X16.3924 Y23.5008
G01 X16.4797 Y23.5137
G01 X16.5110 Y23.5200
G01 X16.5967 Y23.5414
G01 X16.6272 Y23.5507
G01 X16.7104 Y23.5804
G01 X16.7398 Y23.5926
G01 X16.8197 Y23.6304
G01 X16.8478 Y23.6454
G01 X16.9236 Y23.6908
G01 X16.9501 Y23.7086
G01 X17.0210 Y23.7612
G01 X17.0457 Y23.7814
G01 X17.1111 Y23.8407
G01 X17.1337 Y23.8633
G01 X17.1930 Y23.9287
G01 X17.2133 Y23.9534
G01 X17.2659 Y24.0243
G01 X17.2836 Y24.0509
G01 X17.3290 Y24.1266
G01 X17.3440 Y24.1548
G01 X17.3818 Y24.2346
G01 X17.3940 Y24.2641
G01 X17.4238 Y24.3472
G01 X17.4330 Y24.3778
G01 X17.4545 Y24.4634
G01 X17.4607 Y24.4947
G01 X17.4737 Y24.5821
G01 X17.4768 Y24.6138
G01 X17.4811 Y24.7020
G01 X17.4811 Y24.7340
G01 X17.4768 Y24.8222
G01 X17.4737 Y24.8539
G01 X17.4607 Y24.9413
G01 X17.4545 Y24.9726
G01 X17.4330 Y25.0582
G01 X17.4238 Y25.0888
G01 X17.3940 Y25.1719
G01 X17.3818 Y25.2014
G01 X17.3440 Y25.2812
G01 X17.3290 Y25.3094
G01 X17.2836 Y25.3851
G01 X17.2659 Y25.4117
G01 X17.2133 Y25.4826
G01 X17.1930 Y25.5073
G01 X17.1337 Y25.5727
G01 X17.1111 Y25.5953
G01 X17.0457 Y25.6546
G01 X17.0210 Y25.6748
G01 X16.9501 Y25.7274
G01 X16.9236 Y25.7452
G01 X16.8478 Y25.7906
G01 X16.8197 Y25.8056
G01 X16.7398 Y25.8434
G01 X16.7104 Y25.8556
G01 X16.6272 Y25.8853
G01 X16.5967 Y25.8946
G01 X16.5110 Y25.9160
G01 X16.4797 Y25.9223
G01 X16.3924 Y25.9352
G01 X16.3606 Y25.9384
G01 X16.2724 Y25.9427
G01 X16.2405 Y25.9427
G01 X16.1523 Y25.9384
G01 X16.1205 Y25.9352
G01 X16.0332 Y25.9223
G01 X16.0019 Y25.9160
G01 X15.9162 Y25.8946
G01 X15.8857 Y25.8853
G01 X15.8025 Y25.8556
G01 X15.7730 Y25.8434
G01 X15.6932 Y25.8056
G01 X15.6651 Y25.7906
G01 X15.5893 Y25.7452
G01 X15.5628 Y25.7274
G01 X15.4918 Y25.6748
G01 X15.4672 Y25.6546
G01 X15.4017 Y25.5953
G01 X15.3792 Y25.5727
G01 X15.3199 Y25.5073
G01 X15.2996 Y25.4826
G01 X15.2470 Y25.4117
G01 X15.2293 Y25.3851
G01 X15.1839 Y25.3094
G01 X15.1688 Y25.2812
G01 X15.1311 Y25.2014
G01 X15.1189 Y25.1719
G01 X15.0891 Y25.0888
G01 X15.0799 Y25.0582
G01 X15.0584 Y24.9726
G01 X15.0522 Y24.9413
G01 X15.0392 Y24.8539
G01 X15.0361 Y24.8222
G01 X15.0318 Y24.7340
G00 Z2.0000
G00 X15.1318 Y27.2740
G01 F60.00
G01 Z-0.0600
G01 F70.00
G01 X15.1318 Y27.2420
G01 X15.1356 Y27.1636
G01 X15.1387 Y27.1319
G01 X15.1503 Y27.0542
G01 X15.1565 Y27.0229
G01 X15.1756 Y26.9468
G01 X15.1848 Y26.9163
G01 X15.2113 Y26.8423
G01 X15.2235 Y26.8129
G01 X15.2570 Y26.7419
G01 X15.2721 Y26.7138
G01 X15.3124 Y26.6464
G01 X15.3302 Y26.6199
G01 X15.3769 Y26.5568
G01 X15.3972 Y26.5322
G01 X15.4499 Y26.4740
G01 X15.4724 Y26.4514
G01 X15.5306 Y26.3987
G01 X15.5553 Y26.3785
G01 X15.6183 Y26.3317
G01 X15.6449 Y26.3140
G01 X15.7122 Y26.2736
G01 X15.7403 Y26.2586
G01 X15.8113 Y26.2250
G01 X15.8408 Y26.2128
G01 X15.9147 Y26.1864
G01 X15.9452 Y26.1771
G01 X16.0214 Y26.1580
G01 X16.0527 Y26.1518
G01 X16.1303 Y26.1403
G01 X16.1621 Y26.1372
G01 X16.2405 Y26.1333
G01 X16.2724 Y26.1333
G01 X16.3508 Y26.1372
G01 X16.3826 Y26.1403
G01 X16.4602 Y26.1518
G01 X16.4915 Y26.1580
G01 X16.5677 Y26.1771
G01 X16.5982 Y26.1864
G01 X16.6721 Y26.2128
G01 X16.7016 Y26.2250
G01 X16.7725 Y26.2586
G01 X16.8007 Y26.2736
G01 X16.8680 Y26.3140
G01 X16.8945 Y26.3317
G01 X16.9576 Y26.3785
G01 X16.9823 Y26.3987
G01 X17.0404 Y26.4514
G01 X17.0630 Y26.4740
G01 X17.1157 Y26.5322
G01 X17.1360 Y26.5568
G01 X17.1827 Y26.6199
G01 X17.2004 Y26.6464
G01 X17.2408 Y26.7138
G01 X17.2558 Y26.7419
G01 X17.2894 Y26.8129
G01 X17.3016 Y26.8423
G01 X17.3281 Y26.9163
G01 X17.3373 Y26.9468
G01 X17.3564 Y27.0229
G01 X17.3626 Y27.0542
G01 X17.3741 Y27.1319
G01 X17.3773 Y27.1636
G01 X17.3811 Y27.2420
G01 X17.3811 Y27.2740
G01 X17.3773 Y27.3524
G01 X17.3741 Y27.3841
G01 X17.3626 Y27.4618
G01 X17.3564 Y27.4931
G01 X17.3373 Y27.5692
G01 X17.3281 Y27.5997
G01 X17.3016 Y27.6737
G01 X17.2894 Y27.7031
G01 X17.2558 Y27.7741
G01 X17.2408 Y27.8022
G01 X17.2004 Y27.8696
G01 X17.1827 Y27.8961
G01 X17.1360 Y27.9592
G01 X17.1157 Y27.9838
G01 X17.0630 Y28.0420
G01 X17.0404 Y28.0646
G01 X16.9823 Y28.1173
G01 X16.9576 Y28.1375
G01 X16.8945 Y28.1843
G01 X16.8680 Y28.2020
G01 X16.8007 Y28.2424
G01 X16.7725 Y28.2574
G01 X16.7016 Y28.2910
G01 X16.6721 Y28.3032
G01 X16.5982 Y28.3296
G01 X16.5677 Y28.3389
G01 X16.4915 Y28.3580
G01 X16.4602 Y28.3642
G01 X16.3826 Y28.3757
G01 X16.3508 Y28.3788
G01 X16.2724 Y28.3827
G01 X16.2405 Y28.3827
G01 X16.1621 Y28.3788
G01 X16.1303 Y28.3757
G01 X16.0527 Y28.3642
G01 X16.0214 Y28.3580
G01 X15.9452 Y28.3389
G01 X15.9147 Y28.3296
G01 X15.8408 Y28.3032
G01 X15.8113 Y28.2910
G01 X15.7403 Y28.2574
G01 X15.7122 Y28.2424
G01 X15.6449 Y28.2020
G01 X15.6183 Y28.1843
G01 X15.5553 Y28.1375
G01 X15.5306 Y28.1173
G01 X15.4724 Y28.0646
G01 X15.4499 Y28.0420
G01 X15.3972 Y27.9838
G01 X15.3769 Y27.9592
G01 X15.3302 Y27.8961
G01 X15.3124 Y27.8696
G01 X15.2721 Y27.8022
G01 X15.2570 Y27.7741
G01 X15.2235 Y27.7031
G01 X15.2113 Y27.6737
G01 X15.1848 Y27.5997
G01 X15.1756 Y27.5692
G01 X15.1565 Y27.4931
G01 X15.1503 Y27.4618
G01 X15.1387 Y27.3841
G01 X15.1356 Y27.3524
G01 X15.1318 Y27.2740
G00 Z2.0000
G00 X15.0318 Y29.8140
G01 F60.00
G01 Z-0.0600
G01 F70.00
G01 X15.0318 Y29.7820
G01 X15.0361 Y29.6938
G01 X15.0392 Y29.6621
G01 X15.0522 Y29.5747
G01 X15.0584 Y29.5434
G01 X15.0799 Y29.4578
G01 X15.0891 Y29.4272
G01 X15.1189 Y29.3441
G01 X15.1311 Y29.3146
G01 X15.1688 Y29.2348
G01 X15.1839 Y29.2066
G01 X15.2293 Y29.1309
G01 X15.2470 Y29.1043
G01 X15.2996 Y29.0334
G01 X15.3199 Y29.0087
G01 X15.3792 Y28.9433
G01 X15.4017 Y28.9207
G01 X15.4672 Y28.8614
G01 X15.4918 Y28.8412
G01 X15.5628 Y28.7886
G01 X15.5893 Y28.7708
G01 X15.6651 Y28.7254
G01 X15.6932 Y28.7104
G01 X15.7730 Y28.6726
G01 X15.8025 Y28.6604
G01 X15.8857 Y28.6307
G01 X15.9162 Y28.6214
G01 X16.0019 Y28.6000
G01 X16.0332 Y28.5937
G01 X16.1205 Y28.5808
G01 X16.1523 Y28.5776
G01 X16.2405 Y28.5733
G01 X16.2724 Y28.5733
G01 X16.3606 Y28.5776
G01 X16.3924 Y28.5808
G01 X16.4797 Y28.5937
G01 X16.5110 Y28.6000
G01 X16.5967 Y28.6214
G01 X16.6272 Y28.6307
G01 X16.7104 Y28.6604
G01 X16.7398 Y28.6726
G01 X16.8197 Y28.7104
G01 X16.8478 Y28.7254
G01 X16.9236 Y28.7708
G01 X16.9501 Y28.7886
G01 X17.0210 Y28.8412
G01 X17.0457 Y28.8614
G01 X17.1111 Y28.9207
G01 X17.1337 Y28.9433
G01 X17.1930 Y29.0087
G01 X17.2133 Y29.0334
G01 X17.2659 Y29.1043
G01 X17.2836 Y29.1309
G01 X17.3290 Y29.2066
G01 X17.3440 Y29.2348
G01 X17.3818 Y29.3146
G01 X17.3940 Y29.3441
G01 X17.4238 Y29.4272
G01 X17.4330 Y29.4578
G01 X17.4545 Y29.5434
G01 X17.4607 Y29.5747
G01 X17.4737 Y29.6621
G01 X17.4768 Y29.6938
G01 X17.4811 Y29.7820
G01 X17.4811 Y29.8140
G01 X17.4768 Y29.9022
G01 X17.4737 Y29.9339
G01 X17.4607 Y30.0213
G01 X17.4545 Y30.0526
G01 X17.4330 Y30.1382
G01 X17.4238 Y30.1688
G01 X17.3940 Y30.2519
G01 X17.3818 Y30.2814
G01 X17.3440 Y30.3612
G01 X17.3290 Y30.3894
G01 X17.2836 Y30.4651
G01 X17.2659 Y30.4917
G01 X17.2133 Y30.5626
G01 X17.1930 Y30.5873
G01 X17.1337 Y30.6527
G01 X17.1111 Y30.6753
G01 X17.0457 Y30.7346
G01 X17.0210 Y30.7548
G01 X16.9501 Y30.8074
G01 X16.9236 Y30.8252
G01 X16.8478 Y30.8706
G01 X16.8197 Y30.8856
G01 X16.7398 Y30.9234
G01 X16.7104 Y30.9356
G01 X16.6272 Y30.9653
G01 X16.5967 Y30.9746
G01 X16.5110 Y30.9960
G01 X16.4797 Y31.0023
G01 X16.3924 Y31.0152
G01 X16.3606 Y31.0184
G01 X16.2724 Y31.0227
G01 X16.2405 Y31.0227
G01 X16.1523 Y31.0184
G01 X16.1205 Y31.0152
G01 X16.0332 Y31.0023
G01 X16.0019 Y30.9960
G01 X15.9162 Y30.9746
G01 X15.8857 Y30.9653
G01 X15.8025 Y30.9356
G01 X15.7730 Y30.9234
G01 X15.6932 Y30.8856
G01 X15.6651 Y30.8706
G01 X15.5893 Y30.8252
G01 X15.5628 Y30.8074
G01 X15.4918 Y30.7548
G01 X15.4672 Y30.7346
G01 X15.4017 Y30.6753
G01 X15.3792 Y30.6527
G01 X15.3199 Y30.5873
G01 X15.2996 Y30.5626
G01 X15.2470 Y30.4917
G01 X15.2293 Y30.4651
G01 X15.1839 Y30.3894
G01 X15.1688 Y30.3612
G01 X15.1311 Y30.2814
G01 X15.1189 Y30.2519
G01 X15.0891 Y30.1688
G01 X15.0799 Y30.1382
G01 X15.0584 Y30.0526
G01 X15.0522 Y30.0213
G01 X15.0392 Y29.9339
G01 X15.0361 Y29.9022
G01 X15.0318 Y29.8140
G00 Z2.0000
G00 X15.0318 Y32.3540
G01 F60.00
G01 Z-0.0600
G01 F70.00
G01 X15.0318 Y32.3220
G01 X15.0361 Y32.2338
G01 X15.0392 Y32.2021
G01 X15.0522 Y32.1147
G01 X15.0584 Y32.0834
G01 X15.0799 Y31.9978
G01 X15.0891 Y31.9672
G01 X15.1189 Y31.8841
G01 X15.1311 Y31.8546
G01 X15.1688 Y31.7748
G01 X15.1839 Y31.7466
G01 X15.2293 Y31.6709
G01 X15.2470 Y31.6443
G01 X15.2996 Y31.5734
G01 X15.3199 Y31.5487
G01 X15.3792 Y31.4833
G01 X15.4017 Y31.4607
G01 X15.4672 Y31.4014
G01 X15.4918 Y31.3812
G01 X15.5628 Y31.3286
G01 X15.5893 Y31.3108
G01 X15.6651 Y31.2654
G01 X15.6932 Y31.2504
G01 X15.7730 Y31.2126
G01 X15.8025 Y31.2004
G01 X15.8857 Y31.1707
G01 X15.9162 Y31.1614
G01 X16.0019 Y31.1400
G01 X16.0332 Y31.1337
G01 X16.1205 Y31.1208
G01 X16.1523 Y31.1176
G01 X16.2405 Y31.1133
G01 X16.2724 Y31.1133
G01 X16.3606 Y31.1176
G01 X16.3924 Y31.1208
G01 X16.4797 Y31.1337
G01 X16.5110 Y31.1400
G01 X16.5967 Y31.1614
G01 X16.6272 Y31.1707
G01 X16.7104 Y31.2004
G01 X16.7398 Y31.2126
G01 X16.8197 Y31.2504
G01 X16.8478 Y31.2654
G01 X16.9236 Y31.3108
G01 X16.9501 Y31.3286
G01 X17.0210 Y31.3812
G01 X17.0457 Y31.4014
G01 X17.1111 Y31.4607
G01 X17.1337 Y31.4833
G01 X17.1930 Y31.5487
G01 X17.2133 Y31.5734
G01 X17.2659 Y31.6443
G01 X17.2836 Y31.6709
G01 X17.3290 Y31.7466
G01 X17.3440 Y31.7748
G01 X17.3818 Y31.8546
G01 X17.3940 Y31.8841
G01 X17.4238 Y31.9672
G01 X17.4330 Y31.9978
G01 X17.4545 Y32.0834
G01 X17.4607 Y32.1147
G01 X17.4737 Y32.2021
G01 X17.4768 Y32.2338
G01 X17.4811 Y32.3220
G01 X17.4811 Y32.3540
G01 X17.4768 Y32.4422
G01 X17.4737 Y32.4739
G01 X17.4607 Y32.5613
G01 X17.4545 Y32.5926
G01 X17.4330 Y32.6782
G01 X17.4238 Y32.7088
G01 X17.3940 Y32.7919
G01 X17.3818 Y32.8214
G01 X17.3440 Y32.9012
G01 X17.3290 Y32.9294
G01 X17.2836 Y33.0051
G01 X17.2659 Y33.0317
G01 X17.2133 Y33.1026
G01 X17.1930 Y33.1273
G01 X17.1337 Y33.1927
G01 X17.1111 Y33.2153
G01 X17.0457 Y33.2746
G01 X17.0210 Y33.2948
G01 X16.9501 Y33.3474
G01 X16.9236 Y33.3652
G01 X16.8478 Y33.4106
G01 X16.8197 Y33.4256
G01 X16.7398 Y33.4634
G01 X16.7104 Y33.4756
G01 X16.6272 Y33.5053
G01 X16.5967 Y33.5146
G01 X16.5110 Y33.5360
G01 X16.4797 Y33.5423
G01 X16.3924 Y33.5552
G01 X16.3606 Y33.5584
G01 X16.2724 Y33.5627
G01 X16.2405 Y33.5627
G01 X16.1523 Y33.5584
G01 X16.1205 Y33.5552
G01 X16.0332 Y33.5423
G01 X16.0019 Y33.5360
G01 X15.9162 Y33.5146
G01 X15.8857 Y33.5053
G01 X15.8025 Y33.4756
G01 X15.7730 Y33.4634
G01 X15.6932 Y33.4256
G01 X15.6651 Y33.4106
G01 X15.5893 Y33.3652
G01 X15.5628 Y33.3474
G01 X15.4918 Y33.2948
G01 X15.4672 Y33.2746
G01 X15.4017 Y33.2153
G01 X15.3792 Y33.1927
G01 X15.3199 Y33.1273
G01 X15.2996 Y33.1026
G01 X15.2470 Y33.0317
G01 X15.2293 Y33.0051
G01 X15.1839 Y32.9294
G01 X15.1688 Y32.9012
G01 X15.1311 Y32.8214
G01 X15.1189 Y32.7919
G01 X15.0891 Y32.7088
G01 X15.0799 Y32.6782
G01 X15.0584 Y32.5926
G01 X15.0522 Y32.5613
G01 X15.0392 Y32.4739
G01 X15.0361 Y32.4422
G01 X15.0318 Y32.3540
G00 Z2.0000
G00 X15.0318 Y34.8940
G01 F60.00
G01 Z-0.0600
G01 F70.00
G01 X15.0318 Y34.8620
G01 X15.0361 Y34.7738
G01 X15.0392 Y34.7421
G01 X15.0522 Y34.6547
G01 X15.0584 Y34.6234
G01 X15.0799 Y34.5378
G01 X15.0891 Y34.5072
G01 X15.1189 Y34.4241
G01 X15.1311 Y34.3946
G01 X15.1688 Y34.3148
G01 X15.1839 Y34.2866
G01 X15.2293 Y34.2109
G01 X15.2470 Y34.1843
G01 X15.2996 Y34.1134
G01 X15.3199 Y34.0887
G01 X15.3792 Y34.0233
G01 X15.4017 Y34.0007
G01 X15.4672 Y33.9414
G01 X15.4918 Y33.9212
G01 X15.5628 Y33.8686
G01 X15.5893 Y33.8508
G01 X15.6651 Y33.8054
G01 X15.6932 Y33.7904
G01 X15.7730 Y33.7526
G01 X15.8025 Y33.7404
G01 X15.8857 Y33.7107
G01 X15.9162 Y33.7014
G01 X16.0019 Y33.6800
G01 X16.0332 Y33.6737
G01 X16.1205 Y33.6608
G01 X16.1523 Y33.6576
G01 X16.2405 Y33.6533
G01 X16.2724 Y33.6533
G01 X16.3606 Y33.6576
G01 X16.3924 Y33.6608
G01 X16.4797 Y33.6737
G01 X16.5110 Y33.6800
G01 X16.5967 Y33.7014
G01 X16.6272 Y33.7107
G01 X16.7104 Y33.7404
G01 X16.7398 Y33.7526
G01 X16.8197 Y33.7904
G01 X16.8478 Y33.8054
G01 X16.9236 Y33.8508
G01 X16.9501 Y33.8686
G01 X17.0210 Y33.9212
G01 X17.0457 Y33.9414
G01 X17.1111 Y34.0007
G01 X17.1337 Y34.0233
G01 X17.1930 Y34.0887
G01 X17.2133 Y34.1134
G01 X17.2659 Y34.1843
G01 X17.2836 Y34.2109
G01 X17.3290 Y34.2866
G01 X17.3440 Y34.3148
G01 X17.3818 Y34.3946
G01 X17.3940 Y34.4241
G01 X17.4238 Y34.5072
G01 X17.4330 Y34.5378
G01 X17.4545 Y34.6234
G01 X17.4607 Y34.6547
G01 X17.4737 Y34.7421
G01 X17.4768 Y34.7738
G01 X17.4811 Y34.8620
G01 X17.4811 Y34.8940
G01 X17.4768 Y34.9822
G01 X17.4737 Y35.0139
G01 X17.4607 Y35.1013
G01 X17.4545 Y35.1326
G01 X17.4330 Y35.2182
G01 X17.4238 Y35.2488
G01 X17.3940 Y35.3319
G01 X17.3818 Y35.3614
G01 X17.3440 Y35.4412
G01 X17.3290 Y35.4694
G01 X17.2836 Y35.5451
G01 X17.2659 Y35.5717
G01 X17.2133 Y35.6426
G01 X17.1930 Y35.6673
G01 X17.1337 Y35.7327
G01 X17.1111 Y35.7553
G01 X17.0457 Y35.8146
G01 X17.0210 Y35.8348
G01 X16.9501 Y35.8874
G01 X16.9236 Y35.9052
G01 X16.8478 Y35.9506
G01 X16.8197 Y35.9656
G01 X16.7398 Y36.0034
G01 X16.7104 Y36.0156
G01 X16.6272 Y36.0453
G01 X16.5967 Y36.0546
G01 X16.5110 Y36.0760
G01 X16.4797 Y36.0823
G01 X16.3924 Y36.0952
G01 X16.3606 Y36.0984
G01 X16.2724 Y36.1027
G01 X16.2405 Y36.1027
G01 X16.1523 Y36.0984
G01 X16.1205 Y36.0952
G01 X16.0332 Y36.0823
G01 X16.0019 Y36.0760
G01 X15.9162 Y36.0546
G01 X15.8857 Y36.0453
G01 X15.8025 Y36.0156
G01 X15.7730 Y36.0034
G01 X15.6932 Y35.9656
G01 X15.6651 Y35.9506
G01 X15.5893 Y35.9052
G01 X15.5628 Y35.8874
G01 X15.4918 Y35.8348
G01 X15.4672 Y35.8146
G01 X15.4017 Y35.7553
G01 X15.3792 Y35.7327
G01 X15.3199 Y35.6673
G01 X15.2996 Y35.6426
G01 X15.2470 Y35.5717
G01 X15.2293 Y35.5451
G01 X15.1839 Y35.4694
G01 X15.1688 Y35.4412
G01 X15.1311 Y35.3614
G01 X15.1189 Y35.3319
G01 X15.0891 Y35.2488
G01 X15.0799 Y35.2182
G01 X15.0584 Y35.1326
G01 X15.0522 Y35.1013
G01 X15.0392 Y35.0139
G01 X15.0361 Y34.9822
G01 X15.0318 Y34.8940
G00 Z2.0000
G00 X15.0318 Y37.4340
G01 F60.00
G01 Z-0.0600
G01 F70.00
G01 X15.0318 Y37.4020
G01 X15.0361 Y37.3138
G01 X15.0392 Y37.2821
G01 X15.0522 Y37.1947
G01 X15.0584 Y37.1634
G01 X15.0799 Y37.0778
G01 X15.0891 Y37.0472
G01 X15.1189 Y36.9641
G01 X15.1311 Y36.9346
G01 X15.1688 Y36.8548
G01 X15.1839 Y36.8266
G01 X15.2293 Y36.7509
G01 X15.2470 Y36.7243
G01 X15.2996 Y36.6534
G01 X15.3199 Y36.6287
G01 X15.3792 Y36.5633
G01 X15.4017 Y36.5407
G01 X15.4672 Y36.4814
G01 X15.4918 Y36.4612
G01 X15.5628 Y36.4086
G01 X15.5893 Y36.3908
G01 X15.6651 Y36.3454
G01 X15.6932 Y36.3304
G01 X15.7730 Y36.2926
G01 X15.8025 Y36.2804
G01 X15.8857 Y36.2507
G01 X15.9162 Y36.2414
G01 X16.0019 Y36.2200
G01 X16.0332 Y36.2137
G01 X16.1205 Y36.2008
G01 X16.1523 Y36.1976
G01 X16.2405 Y36.1933
G01 X16.2724 Y36.1933
G01 X16.3606 Y36.1976
G01 X16.3924 Y36.2008
G01 X16.4797 Y36.2137
G01 X16.5110 Y36.2200
G01 X16.5967 Y36.2414
G01 X16.6272 Y36.2507
G01 X16.7104 Y36.2804
G01 X16.7398 Y36.2926
G01 X16.8197 Y36.3304
G01 X16.8478 Y36.3454
G01 X16.9236 Y36.3908
G01 X16.9501 Y36.4086
G01 X17.0210 Y36.4612
G01 X17.0457 Y36.4814
G01 X17.1111 Y36.5407
G01 X17.1337 Y36.5633
G01 X17.1930 Y36.6287
G01 X17.2133 Y36.6534
G01 X17.2659 Y36.7243
G01 X17.2836 Y36.7509
G01 X17.3290 Y36.8266
G01 X17.3440 Y36.8548
G01 X17.3818 Y36.9346
G01 X17.3940 Y36.9641
G01 X17.4238 Y37.0472
G01 X17.4330 Y37.0778
G01 X17.4545 Y37.1634
G01 X17.4607 Y37.1947
G01 X17.4737 Y37.2821
G01 X17.4768 Y37.3138
G01 X17.4811 Y37.4020
G01 X17.4811 Y37.4340
G01 X17.4768 Y37.5222
G01 X17.4737 Y37.5539
G01 X17.4607 Y37.6413
G01 X17.4545 Y37.6726
G01 X17.4330 Y37.7582
G01 X17.4238 Y37.7888
G01 X17.3940 Y37.8719
G01 X17.3818 Y37.9014
G01 X17.3440 Y37.9812
G01 X17.3290 Y38.0094
G01 X17.2836 Y38.0851
G01 X17.2659 Y38.1117
G01 X17.2133 Y38.1826
G01 X17.1930 Y38.2073
G01 X17.1337 Y38.2727
G01 X17.1111 Y38.2953
G01 X17.0457 Y38.3546
G01 X17.0210 Y38.3748
G01 X16.9501 Y38.4274
G01 X16.9236 Y38.4452
G01 X16.8478 Y38.4906
G01 X16.8197 Y38.5056
G01 X16.7398 Y38.5434
G01 X16.7104 Y38.5556
G01 X16.6272 Y38.5853
G01 X16.5967 Y38.5946
G01 X16.5110 Y38.6160
G01 X16.4797 Y38.6223
G01 X16.3924 Y38.6352
G01 X16.3606 Y38.6384
G01 X16.2724 Y38.6427
G01 X16.2405 Y38.6427
G01 X16.1523 Y38.6384
G01 X16.1205 Y38.6352
G01 X16.0332 Y38.6223
G01 X16.0019 Y38.6160
G01 X15.9162 Y38.5946
G01 X15.8857 Y38.5853
G01 X15.8025 Y38.5556
G01 X15.7730 Y38.5434
G01 X15.6932 Y38.5056
G01 X15.6651 Y38.4906
G01 X15.5893 Y38.4452
G01 X15.5628 Y38.4274
G01 X15.4918 Y38.3748
G01 X15.4672 Y38.3546
G01 X15.4017 Y38.2953
G01 X15.3792 Y38.2727
G01 X15.3199 Y38.2073
G01 X15.2996 Y38.1826
G01 X15.2470 Y38.1117
G01 X15.2293 Y38.0851
G01 X15.1839 Y38.0094
G01 X15.1688 Y37.9812
G01 X15.1311 Y37.9014
G01 X15.1189 Y37.8719
G01 X15.0891 Y37.7888
G01 X15.0799 Y37.7582
G01 X15.0584 Y37.6726
G01 X15.0522 Y37.6413
G01 X15.0392 Y37.5539
G01 X15.0361 Y37.5222
G01 X15.0318 Y37.4340
G00 Z2.0000
G00 X11.8526 Y38.7261
G01 F60.00
G01 Z-0.0600
G01 F70.00
G01 X11.8844 Y38.7277
G01 X11.9160 Y38.7324
G01 X11.9469 Y38.7401
G01 X11.9770 Y38.7509
G01 X12.0058 Y38.7645
G01 X12.0332 Y38.7809
G01 X12.0588 Y38.7999
G01 X12.0824 Y38.8214
G01 X12.1039 Y38.8450
G01 X12.1229 Y38.8706
G01 X12.1393 Y38.8980
G01 X12.1529 Y38.9268
G01 X12.1637 Y38.9569
G01 X12.1714 Y38.9878
G01 X12.1761 Y39.0194
G01 X12.1777 Y39.0512
G01 X12.1777 Y39.3128
G01 X12.1761 Y39.3447
G01 X12.1714 Y39.3763
G01 X12.1637 Y39.4072
G01 X12.1529 Y39.4372
G01 X12.1393 Y39.4661
G01 X12.1229 Y39.4934
G01 X12.1039 Y39.5191
G01 X12.0824 Y39.5427
G01 X12.0588 Y39.5641
G01 X12.0332 Y39.5831
G01 X12.0058 Y39.5995
G01 X11.9770 Y39.6132
G01 X11.9469 Y39.6239
G01 X11.9160 Y39.6317
G01 X11.8844 Y39.6364
G01 X11.8526 Y39.6379
G01 X10.4162 Y39.6379
G01 X10.3412 Y39.6397
G01 X10.2785 Y39.6441
G01 X10.2232 Y39.6512
G01 X10.1744 Y39.6606
G01 X10.1330 Y39.6713
G01 X10.0986 Y39.6830
G01 X10.0699 Y39.6954
G01 X10.0472 Y39.7075
G01 X10.0303 Y39.7186
G01 X10.0169 Y39.7295
G01 X10.0054 Y39.7408
G01 X9.9961 Y39.7520
G01 X9.9884 Y39.7634
G01 X9.9814 Y39.7762
G01 X9.9754 Y39.7904
G01 X9.9697 Y39.8079
G01 X9.9648 Y39.8284
G01 X9.9610 Y39.8513
G01 X9.9588 Y39.8775
G01 X9.9579 Y39.9071
G01 X9.9588 Y39.9355
G01 X9.9609 Y39.9599
G01 X9.9645 Y39.9811
G01 X9.9693 Y40.0009
G01 X9.9745 Y40.0165
G01 X9.9800 Y40.0291
G01 X9.9869 Y40.0415
G01 X9.9941 Y40.0521
G01 X10.0029 Y40.0624
G01 X10.0150 Y40.0740
G01 X10.0271 Y40.0837
G01 X10.0448 Y40.0950
G01 X10.0687 Y40.1077
G01 X10.0961 Y40.1193
G01 X10.1306 Y40.1307
G01 X10.1732 Y40.1413
G01 X10.2222 Y40.1508
G01 X10.2774 Y40.1575
G01 X10.3412 Y40.1620
G01 X10.4162 Y40.1638
G01 X11.8526 Y40.1638
G01 X11.8844 Y40.1653
G01 X11.9160 Y40.1700
G01 X11.9469 Y40.1778
G01 X11.9770 Y40.1885
G01 X12.0058 Y40.2022
G01 X12.0332 Y40.2186
G01 X12.0588 Y40.2376
G01 X12.0824 Y40.2590
G01 X12.1039 Y40.2826
G01 X12.1229 Y40.3083
G01 X12.1393 Y40.3356
G01 X12.1529 Y40.3645
G01 X12.1637 Y40.3945
G01 X12.1714 Y40.4254
G01 X12.1761 Y40.4570
G01 X12.1777 Y40.4889
G01 X12.1777 Y40.7632
G01 X12.1761 Y40.7950
G01 X12.1714 Y40.8266
G01 X12.1637 Y40.8575
G01 X12.1529 Y40.8876
G01 X12.1393 Y40.9164
G01 X12.1229 Y40.9438
G01 X12.1039 Y40.9694
G01 X12.0824 Y40.9930
G01 X12.0588 Y41.0145
G01 X12.0332 Y41.0335
G01 X12.0058 Y41.0499
G01 X11.9770 Y41.0635
G01 X11.9469 Y41.0743
G01 X11.9187 Y41.0813
G01 X11.9294 Y41.0937
G01 X11.9644 Y41.1373
G01 X11.9750 Y41.1513
G01 X12.0085 Y41.1980
G01 X12.0199 Y41.2149
G01 X12.0514 Y41.2652
G01 X12.0627 Y41.2849
G01 X12.0912 Y41.3382
G01 X12.1012 Y41.3586
G01 X12.1266 Y41.4155
G01 X12.1351 Y41.4367
G01 X12.1570 Y41.4966
G01 X12.1651 Y41.5220
G01 X12.1824 Y41.5850
G01 X12.1876 Y41.6072
G01 X12.2008 Y41.6732
G01 X12.2049 Y41.6990
G01 X12.2130 Y41.7681
G01 X12.2150 Y41.7924
G01 X12.2180 Y41.8646
G01 X12.2182 Y41.8869
G01 X12.2167 Y41.9438
G01 X12.2159 Y41.9587
G01 X12.2119 Y42.0146
G01 X12.2104 Y42.0299
G01 X12.2038 Y42.0848
G01 X12.2010 Y42.1032
G01 X12.1914 Y42.1571
G01 X12.1880 Y42.1735
G01 X12.1758 Y42.2258
G01 X12.1716 Y42.2418
G01 X12.1569 Y42.2931
G01 X12.1482 Y42.3192
G01 X12.1106 Y42.4178
G01 X12.1007 Y42.4409
G01 X12.0784 Y42.4882
G01 X12.0707 Y42.5033
G01 X12.0459 Y42.5495
G01 X12.0358 Y42.5668
G01 X12.0084 Y42.6110
G01 X11.9982 Y42.6264
G01 X11.9682 Y42.6691
G01 X11.9523 Y42.6899
G01 X11.8853 Y42.7707
G01 X11.8681 Y42.7897
G01 X11.8310 Y42.8278
G01 X11.8184 Y42.8401
G01 X11.7793 Y42.8762
G01 X11.7664 Y42.8874
G01 X11.7248 Y42.9220
G01 X11.7114 Y42.9325
G01 X11.6677 Y42.9650
G01 X11.6546 Y42.9743
G01 X11.6084 Y43.0053
G01 X11.5938 Y43.0145
G01 X11.5460 Y43.0429
G01 X11.5319 Y43.0509
G01 X11.4811 Y43.0778
G01 X11.4605 Y43.0878
G01 X11.3538 Y43.1351
G01 X11.3324 Y43.1437
G01 X11.2760 Y43.1640
G01 X11.2549 Y43.1708
G01 X11.1355 Y43.2048
G01 X11.1161 Y43.2097
G01 X11.0398 Y43.2262
G01 X10.9758 Y43.2373
G01 X10.9565 Y43.2401
G01 X10.8218 Y43.2554
G01 X10.7969 Y43.2572
G01 X10.6552 Y43.2623
G01 X10.6320 Y43.2623
G01 X10.4892 Y43.2572
G01 X10.4722 Y43.2562
G01 X10.4031 Y43.2501
G01 X10.3875 Y43.2483
G01 X10.3209 Y43.2392
G01 X10.3041 Y43.2364
G01 X10.1766 Y43.2120
G01 X10.1501 Y43.2058
G01 X10.0302 Y43.1722
G01 X10.0084 Y43.1653
G01 X9.9515 Y43.1450
G01 X9.9322 Y43.1374
G01 X9.8250 Y43.0912
G01 X9.8025 Y43.0804
G01 X9.7522 Y43.0540
G01 X9.7383 Y43.0463
G01 X9.6900 Y43.0178
G01 X9.6769 Y43.0096
G01 X9.6312 Y42.9797
G01 X9.6173 Y42.9701
G01 X9.5736 Y42.9381
G01 X9.5600 Y42.9275
G01 X9.5184 Y42.8935
G01 X9.4998 Y42.8771
G01 X9.4236 Y42.8044
G01 X9.4042 Y42.7843
G01 X9.3696 Y42.7452
G01 X9.3536 Y42.7256
G01 X9.2917 Y42.6433
G01 X9.2705 Y42.6114
G01 X9.2187 Y42.5225
G01 X9.2069 Y42.5003
G01 X9.1845 Y42.4541
G01 X9.1769 Y42.4372
G01 X9.1571 Y42.3894
G01 X9.1509 Y42.3734
G01 X9.1337 Y42.3246
G01 X9.1281 Y42.3074
G01 X9.1134 Y42.2571
G01 X9.1091 Y42.2409
G01 X9.0969 Y42.1896
G01 X9.0935 Y42.1734
G01 X9.0838 Y42.1211
G01 X9.0809 Y42.1021
G01 X9.0743 Y42.0488
G01 X9.0727 Y42.0328
G01 X9.0687 Y41.9779
G01 X9.0679 Y41.9629
G01 X9.0664 Y41.9075
G01 X9.0664 Y41.8879
G01 X9.0690 Y41.8107
G01 X9.0705 Y41.7879
G01 X9.0781 Y41.7142
G01 X9.0815 Y41.6901
G01 X9.0942 Y41.6195
G01 X9.0998 Y41.5943
G01 X9.1176 Y41.5268
G01 X9.1245 Y41.5038
G01 X9.1469 Y41.4388
G01 X9.1562 Y41.4150
G01 X9.1831 Y41.3530
G01 X9.1950 Y41.3284
G01 X9.2270 Y41.2690
G01 X9.2405 Y41.2462
G01 X9.2771 Y41.1898
G01 X9.2886 Y41.1732
G01 X9.3292 Y41.1183
G01 X9.3455 Y41.0981
G01 X9.3907 Y41.0463
G01 X9.4047 Y41.0313
G01 X9.4544 Y40.9810
G01 X9.4698 Y40.9665
G01 X9.5236 Y40.9188
G01 X9.5482 Y40.8990
G01 X9.5683 Y40.8858
G01 X9.5473 Y40.8726
G01 X9.5057 Y40.8442
G01 X9.4897 Y40.8325
G01 X9.4511 Y40.8025
G01 X9.4327 Y40.7872
G01 X9.3967 Y40.7547
G01 X9.3793 Y40.7378
G01 X9.3468 Y40.7038
G01 X9.3332 Y40.6887
G01 X9.3033 Y40.6531
G01 X9.2876 Y40.6329
G01 X9.2606 Y40.5953
G01 X9.2491 Y40.5781
G01 X9.2247 Y40.5390
G01 X9.2150 Y40.5223
G01 X9.1932 Y40.4822
G01 X9.1831 Y40.4621
G01 X9.1638 Y40.4200
G01 X9.1523 Y40.3912
G01 X9.1218 Y40.3033
G01 X9.1122 Y40.2699
G01 X9.0908 Y40.1774
G01 X9.0850 Y40.1448
G01 X9.0728 Y40.0478
G01 X9.0706 Y40.0205
G01 X9.0665 Y39.9204
G01 X9.0665 Y39.8940
G01 X9.0706 Y39.7939
G01 X9.0728 Y39.7666
G01 X9.0850 Y39.6696
G01 X9.0908 Y39.6370
G01 X9.1122 Y39.5445
G01 X9.1218 Y39.5111
G01 X9.1523 Y39.4232
G01 X9.1638 Y39.3944
G01 X9.1831 Y39.3523
G01 X9.1932 Y39.3322
G01 X9.2150 Y39.2921
G01 X9.2247 Y39.2755
G01 X9.2491 Y39.2364
G01 X9.2606 Y39.2191
G01 X9.2876 Y39.1815
G01 X9.3033 Y39.1613
G01 X9.3332 Y39.1257
G01 X9.3468 Y39.1106
G01 X9.3793 Y39.0766
G01 X9.3967 Y39.0597
G01 X9.4327 Y39.0272
G01 X9.4511 Y39.0118
G01 X9.4897 Y38.9819
G01 X9.5057 Y38.9702
G01 X9.5473 Y38.9418
G01 X9.5667 Y38.9296
G01 X9.6119 Y38.9031
G01 X9.6318 Y38.8924
G01 X9.6800 Y38.8685
G01 X9.6943 Y38.8619
G01 X9.7456 Y38.8395
G01 X9.7675 Y38.8309
G01 X9.8224 Y38.8116
G01 X9.8382 Y38.8065
G01 X9.8966 Y38.7893
G01 X9.9136 Y38.7847
G01 X9.9755 Y38.7700
G01 X10.0534 Y38.7545
G01 X10.0708 Y38.7516
G01 X10.1399 Y38.7420
G01 X10.2265 Y38.7332
G01 X10.2408 Y38.7322
G01 X10.3285 Y38.7277
G01 X10.4149 Y38.7261
G01 X11.8526 Y38.7261
G00 Z2.0000
G00 X11.1919 Y37.4636
G01 F60.00
G01 Z-0.0600
G01 F70.00
G01 X11.1949 Y37.4623
G01 X11.1995 Y37.4611
G01 X11.2103 Y37.4597
G01 X11.2271 Y37.4589
G01 X11.2517 Y37.4601
G01 X11.2662 Y37.4620
G01 X11.2710 Y37.4634
G01 X11.2736 Y37.4678
G01 X11.2790 Y37.4805
G01 X11.2863 Y37.5032
G01 X11.2935 Y37.5332
G01 X11.2999 Y37.5718
G01 X11.3047 Y37.6136
G01 X11.3091 Y37.7338
G01 X11.3091 Y37.7889
G01 X11.1388 Y37.7889
G01 X11.1388 Y37.7474
G01 X11.1405 Y37.6816
G01 X11.1448 Y37.6256
G01 X11.1508 Y37.5798
G01 X11.1585 Y37.5425
G01 X11.1670 Y37.5128
G01 X11.1753 Y37.4913
G01 X11.1831 Y37.4757
G01 X11.1881 Y37.4680
G01 X11.1919 Y37.4636
G00 Z2.0000
G00 X10.2778 Y37.7889
G01 F60.00
G01 Z-0.0600
G01 F70.00
G01 X9.9780 Y37.7889
G01 X9.9780 Y37.6813
G01 X9.9798 Y37.6141
G01 X9.9836 Y37.5574
G01 X9.9905 Y37.5072
G01 X9.9992 Y37.4623
G01 X10.0090 Y37.4263
G01 X10.0196 Y37.3977
G01 X10.0309 Y37.3741
G01 X10.0417 Y37.3564
G01 X10.0505 Y37.3450
G01 X10.0571 Y37.3385
G01 X10.0646 Y37.3327
G01 X10.0724 Y37.3282
G01 X10.0832 Y37.3237
G01 X10.0998 Y37.3192
G01 X10.1222 Y37.3156
G01 X10.1500 Y37.3142
G01 X10.1716 Y37.3154
G01 X10.1865 Y37.3179
G01 X10.1952 Y37.3204
G01 X10.1994 Y37.3223
G01 X10.2051 Y37.3264
G01 X10.2112 Y37.3330
G01 X10.2186 Y37.3432
G01 X10.2272 Y37.3589
G01 X10.2376 Y37.3827
G01 X10.2482 Y37.4143
G01 X10.2580 Y37.4525
G01 X10.2660 Y37.4984
G01 X10.2725 Y37.5518
G01 X10.2765 Y37.6108
G01 X10.2778 Y37.6802
G01 X10.2778 Y37.7889
G00 Z2.0000
G00 X11.3292 Y35.3580
G01 F60.00
G01 Z-0.0600
G01 F70.00
G01 X11.3280 Y35.3883
G01 X11.3247 Y35.4173
G01 X11.3196 Y35.4445
G01 X11.3129 Y35.4688
G01 X11.3045 Y35.4922
G01 X11.2942 Y35.5147
G01 X11.2829 Y35.5353
G01 X11.2691 Y35.5557
G01 X11.2533 Y35.5757
G01 X11.2346 Y35.5958
G01 X11.2134 Y35.6159
G01 X11.1917 Y35.6334
G01 X11.1642 Y35.6522
G01 X11.1350 Y35.6700
G01 X11.1022 Y35.6865
G01 X11.0650 Y35.7030
G01 X11.0249 Y35.7179
G01 X10.9818 Y35.7314
G01 X10.9359 Y35.7430
G01 X10.8863 Y35.7530
G01 X10.8324 Y35.7610
G01 X10.7755 Y35.7671
G01 X10.7160 Y35.7708
G01 X10.6537 Y35.7721
G01 X10.5902 Y35.7708
G01 X10.5300 Y35.7671
G01 X10.4721 Y35.7609
G01 X10.4174 Y35.7529
G01 X10.3661 Y35.7427
G01 X10.3184 Y35.7309
G01 X10.2743 Y35.7174
G01 X10.2329 Y35.7022
G01 X10.1944 Y35.6855
G01 X10.1597 Y35.6683
G01 X10.1294 Y35.6505
G01 X10.1011 Y35.6313
G01 X10.0771 Y35.6127
G01 X10.0554 Y35.5927
G01 X10.0356 Y35.5721
G01 X10.0198 Y35.5525
G01 X10.0055 Y35.5317
G01 X9.9928 Y35.5096
G01 X9.9825 Y35.4881
G01 X9.9742 Y35.4658
G01 X9.9673 Y35.4415
G01 X9.9622 Y35.4158
G01 X9.9590 Y35.3882
G01 X9.9579 Y35.3580
G01 X9.9591 Y35.3270
G01 X9.9623 Y35.2985
G01 X9.9673 Y35.2727
G01 X9.9745 Y35.2473
G01 X9.9830 Y35.2243
G01 X9.9935 Y35.2022
G01 X10.0060 Y35.1802
G01 X10.0198 Y35.1600
G01 X10.0370 Y35.1388
G01 X10.0562 Y35.1182
G01 X10.0762 Y35.1001
G01 X10.1020 Y35.0800
G01 X10.1305 Y35.0604
G01 X10.1607 Y35.0426
G01 X10.1955 Y35.0251
G01 X10.2329 Y35.0088
G01 X10.2743 Y34.9937
G01 X10.3184 Y34.9801
G01 X10.3661 Y34.9683
G01 X10.4174 Y34.9581
G01 X10.4721 Y34.9501
G01 X10.5300 Y34.9440
G01 X10.5902 Y34.9402
G01 X10.6537 Y34.9390
G01 X10.7161 Y34.9402
G01 X10.7755 Y34.9439
G01 X10.8324 Y34.9501
G01 X10.8863 Y34.9580
G01 X10.9359 Y34.9680
G01 X10.9818 Y34.9796
G01 X11.0249 Y34.9931
G01 X11.0650 Y35.0080
G01 X11.1011 Y35.0240
G01 X11.1339 Y35.0409
G01 X11.1632 Y35.0587
G01 X11.1907 Y35.0778
G01 X11.2143 Y35.0968
G01 X11.2338 Y35.1151
G01 X11.2520 Y35.1351
G01 X11.2691 Y35.1569
G01 X11.2824 Y35.1766
G01 X11.2936 Y35.1971
G01 X11.3040 Y35.2202
G01 X11.3127 Y35.2444
G01 X11.3195 Y35.2697
G01 X11.3246 Y35.2970
G01 X11.3280 Y35.3269
G01 X11.3292 Y35.3580
G00 Z2.0000
G00 X12.2182 Y35.3492
G01 F60.00
G01 Z-0.0600
G01 F70.00
G01 X12.2182 Y35.3670
G01 X12.2167 Y35.4224
G01 X12.2159 Y35.4376
G01 X12.2118 Y35.4920
G01 X12.2103 Y35.5078
G01 X12.2036 Y35.5611
G01 X12.1994 Y35.5870
G01 X12.1780 Y35.6901
G01 X12.1711 Y35.7174
G01 X12.1564 Y35.7667
G01 X12.1510 Y35.7830
G01 X12.1338 Y35.8313
G01 X12.1275 Y35.8475
G01 X12.1077 Y35.8947
G01 X12.0999 Y35.9118
G01 X12.0776 Y35.9575
G01 X12.0647 Y35.9813
G01 X12.0129 Y36.0682
G01 X11.9916 Y36.0995
G01 X11.9297 Y36.1803
G01 X11.9127 Y36.2006
G01 X11.8787 Y36.2382
G01 X11.8676 Y36.2498
G01 X11.8310 Y36.2864
G01 X11.8105 Y36.3053
G01 X11.7302 Y36.3728
G01 X11.7104 Y36.3882
G01 X11.6672 Y36.4192
G01 X11.6538 Y36.4284
G01 X11.6080 Y36.4578
G01 X11.5917 Y36.4677
G01 X11.5439 Y36.4947
G01 X11.5255 Y36.5043
G01 X11.4295 Y36.5506
G01 X11.4509 Y36.5543
G01 X11.5048 Y36.5665
G01 X11.5358 Y36.5752
G01 X11.5861 Y36.5919
G01 X11.6183 Y36.6046
G01 X11.6650 Y36.6260
G01 X11.6973 Y36.6429
G01 X11.7404 Y36.6688
G01 X11.7655 Y36.6855
G01 X11.8057 Y36.7150
G01 X11.8348 Y36.7391
G01 X11.8714 Y36.7731
G01 X11.8939 Y36.7963
G01 X11.9275 Y36.8344
G01 X11.9458 Y36.8572
G01 X11.9762 Y36.8989
G01 X11.9932 Y36.9246
G01 X12.0201 Y36.9698
G01 X12.0316 Y36.9906
G01 X12.0559 Y37.0394
G01 X12.0672 Y37.0646
G01 X12.0881 Y37.1169
G01 X12.0956 Y37.1378
G01 X12.1133 Y37.1931
G01 X12.1185 Y37.2111
G01 X12.1338 Y37.2701
G01 X12.1379 Y37.2882
G01 X12.1501 Y37.3497
G01 X12.1528 Y37.3652
G01 X12.1625 Y37.4302
G01 X12.1644 Y37.4461
G01 X12.1710 Y37.5132
G01 X12.1724 Y37.5334
G01 X12.1777 Y37.6872
G01 X12.1777 Y38.3883
G01 X12.1761 Y38.4201
G01 X12.1714 Y38.4517
G01 X12.1637 Y38.4826
G01 X12.1529 Y38.5127
G01 X12.1393 Y38.5415
G01 X12.1229 Y38.5689
G01 X12.1039 Y38.5945
G01 X12.0824 Y38.6181
G01 X12.0588 Y38.6396
G01 X12.0332 Y38.6586
G01 X12.0058 Y38.6750
G01 X11.9770 Y38.6886
G01 X11.9469 Y38.6994
G01 X11.9160 Y38.7071
G01 X11.8844 Y38.7118
G01 X11.8526 Y38.7134
G01 X9.4345 Y38.7134
G01 X9.4026 Y38.7118
G01 X9.3710 Y38.7071
G01 X9.3401 Y38.6993
G01 X9.3100 Y38.6886
G01 X9.2811 Y38.6749
G01 X9.2538 Y38.6585
G01 X9.2281 Y38.6395
G01 X9.2045 Y38.6180
G01 X9.1831 Y38.5943
G01 X9.1641 Y38.5687
G01 X9.1477 Y38.5413
G01 X9.1340 Y38.5124
G01 X9.1233 Y38.4823
G01 X9.1156 Y38.4514
G01 X9.1109 Y38.4198
G01 X9.1094 Y38.3879
G01 X9.1104 Y37.5669
G01 X9.1111 Y37.5471
G01 X9.1151 Y37.4821
G01 X9.1166 Y37.4652
G01 X9.1309 Y37.3413
G01 X9.1357 Y37.3114
G01 X9.1601 Y37.1956
G01 X9.1667 Y37.1694
G01 X9.1830 Y37.1150
G01 X9.1879 Y37.1000
G01 X9.2062 Y37.0482
G01 X9.2128 Y37.0310
G01 X9.2336 Y36.9812
G01 X9.2415 Y36.9637
G01 X9.2644 Y36.9170
G01 X9.2760 Y36.8955
G01 X9.3019 Y36.8513
G01 X9.3123 Y36.8346
G01 X9.3403 Y36.7929
G01 X9.3539 Y36.7742
G01 X9.3843 Y36.7351
G01 X9.4042 Y36.7119
G01 X9.4378 Y36.6763
G01 X9.4531 Y36.6611
G01 X9.4886 Y36.6281
G01 X9.5072 Y36.6121
G01 X9.5448 Y36.5822
G01 X9.5702 Y36.5638
G01 X9.6109 Y36.5374
G01 X9.6293 Y36.5262
G01 X9.6720 Y36.5024
G01 X9.7015 Y36.4878
G01 X9.7250 Y36.4776
G01 X9.7151 Y36.4723
G01 X9.6929 Y36.4596
G01 X9.6462 Y36.4301
G01 X9.6329 Y36.4213
G01 X9.5887 Y36.3903
G01 X9.5691 Y36.3754
G01 X9.4868 Y36.3078
G01 X9.4616 Y36.2848
G01 X9.3885 Y36.2107
G01 X9.3702 Y36.1905
G01 X9.3372 Y36.1509
G01 X9.3257 Y36.1363
G01 X9.2952 Y36.0951
G01 X9.2844 Y36.0797
G01 X9.2565 Y36.0370
G01 X9.2466 Y36.0209
G01 X9.2212 Y35.9767
G01 X9.2089 Y35.9530
G01 X9.1652 Y35.8600
G01 X9.1544 Y35.8342
G01 X9.1366 Y35.7859
G01 X9.1311 Y35.7696
G01 X9.1158 Y35.7203
G01 X9.1110 Y35.7031
G01 X9.0983 Y35.6523
G01 X9.0940 Y35.6325
G01 X9.0843 Y35.5801
G01 X9.0818 Y35.5641
G01 X9.0747 Y35.5107
G01 X9.0727 Y35.4920
G01 X9.0687 Y35.4376
G01 X9.0679 Y35.4224
G01 X9.0664 Y35.3670
G01 X9.0664 Y35.3492
G01 X9.0679 Y35.2933
G01 X9.0687 Y35.2782
G01 X9.0727 Y35.2233
G01 X9.0746 Y35.2048
G01 X9.0817 Y35.1509
G01 X9.0843 Y35.1344
G01 X9.0940 Y35.0821
G01 X9.0981 Y35.0630
G01 X9.1108 Y35.0117
G01 X9.1155 Y34.9947
G01 X9.1308 Y34.9449
G01 X9.1362 Y34.9287
G01 X9.1540 Y34.8799
G01 X9.1614 Y34.8614
G01 X9.1822 Y34.8136
G01 X9.1895 Y34.7981
G01 X9.2123 Y34.7524
G01 X9.2204 Y34.7372
G01 X9.2458 Y34.6925
G01 X9.2565 Y34.6750
G01 X9.2845 Y34.6323
G01 X9.2941 Y34.6184
G01 X9.3246 Y34.5768
G01 X9.3372 Y34.5607
G01 X9.3702 Y34.5211
G01 X9.3808 Y34.5089
G01 X9.4164 Y34.4703
G01 X9.4288 Y34.4575
G01 X9.4664 Y34.4209
G01 X9.4859 Y34.4035
G01 X9.5682 Y34.3354
G01 X9.5887 Y34.3197
G01 X9.6329 Y34.2887
G01 X9.6462 Y34.2799
G01 X9.6929 Y34.2505
G01 X9.7128 Y34.2389
G01 X9.8124 Y34.1855
G01 X9.8400 Y34.1724
G01 X9.9477 Y34.1271
G01 X9.9691 Y34.1190
G01 X10.0260 Y34.0997
G01 X10.0980 Y34.0784
G01 X10.1167 Y34.0735
G01 X10.2406 Y34.0450
G01 X10.2603 Y34.0411
G01 X10.3248 Y34.0305
G01 X10.4042 Y34.0204
G01 X10.4201 Y34.0189
G01 X10.5582 Y34.0087
G01 X10.5821 Y34.0078
G01 X10.7248 Y34.0078
G01 X10.7438 Y34.0084
G01 X10.8134 Y34.0125
G01 X10.8288 Y34.0137
G01 X10.9624 Y34.0279
G01 X10.9815 Y34.0305
G01 X11.0455 Y34.0412
G01 X11.0659 Y34.0453
G01 X11.1878 Y34.0737
G01 X11.2130 Y34.0807
G01 X11.3273 Y34.1173
G01 X11.3556 Y34.1278
G01 X11.4618 Y34.1730
G01 X11.4904 Y34.1869
G01 X11.5879 Y34.2402
G01 X11.6081 Y34.2522
G01 X11.6538 Y34.2817
G01 X11.6672 Y34.2908
G01 X11.7104 Y34.3218
G01 X11.7311 Y34.3380
G01 X11.8114 Y34.4060
G01 X11.8310 Y34.4241
G01 X11.8675 Y34.4606
G01 X11.8861 Y34.4809
G01 X11.9522 Y34.5591
G01 X11.9676 Y34.5789
G01 X11.9976 Y34.6206
G01 X12.0086 Y34.6369
G01 X12.0355 Y34.6796
G01 X12.0447 Y34.6950
G01 X12.0696 Y34.7397
G01 X12.0776 Y34.7550
G01 X12.0999 Y34.8008
G01 X12.1081 Y34.8190
G01 X12.1280 Y34.8667
G01 X12.1341 Y34.8828
G01 X12.1514 Y34.9315
G01 X12.1567 Y34.9478
G01 X12.1714 Y34.9975
G01 X12.1781 Y35.0243
G01 X12.1994 Y35.1279
G01 X12.2037 Y35.1539
G01 X12.2103 Y35.2077
G01 X12.2118 Y35.2233
G01 X12.2159 Y35.2782
G01 X12.2167 Y35.2933
G01 X12.2182 Y35.3492
G00 Z2.0000
G00 X10.9797 Y29.6170
G01 F60.00
G01 Z-0.0600
G01 F70.00
G01 X11.1104 Y29.5909
G01 X11.1284 Y29.5868
G01 X11.1888 Y29.5710
G01 X11.2032 Y29.5669
G01 X11.2621 Y29.5487
G01 X11.2760 Y29.5440
G01 X11.3324 Y29.5237
G01 X11.3482 Y29.5175
G01 X11.3883 Y29.5007
G01 X11.3701 Y29.5206
G01 X11.3511 Y29.5463
G01 X11.3347 Y29.5736
G01 X11.3211 Y29.6025
G01 X11.3104 Y29.6325
G01 X11.3026 Y29.6635
G01 X11.2979 Y29.6950
G01 X11.2964 Y29.7269
G01 X11.2964 Y30.5042
G01 X11.1490 Y30.5042
G01 X11.1490 Y29.9021
G01 X11.1474 Y29.8703
G01 X11.1427 Y29.8387
G01 X11.1350 Y29.8078
G01 X11.1242 Y29.7777
G01 X11.1106 Y29.7489
G01 X11.0942 Y29.7215
G01 X11.0752 Y29.6959
G01 X11.0537 Y29.6723
G01 X11.0301 Y29.6508
G01 X11.0045 Y29.6318
G01 X10.9797 Y29.6170
G00 Z2.0000
G00 X9.9427 Y29.5220
G01 F60.00
G01 Z-0.0600
G01 F70.00
G01 X9.9515 Y29.5255
G01 X10.0084 Y29.5458
G01 X10.0302 Y29.5528
G01 X10.1501 Y29.5863
G01 X10.1766 Y29.5925
G01 X10.3041 Y29.6169
G01 X10.3209 Y29.6197
G01 X10.3875 Y29.6288
G01 X10.4128 Y29.6314
G01 X10.3865 Y29.6508
G01 X10.3629 Y29.6723
G01 X10.3414 Y29.6959
G01 X10.3224 Y29.7215
G01 X10.3060 Y29.7489
G01 X10.2924 Y29.7777
G01 X10.2817 Y29.8078
G01 X10.2739 Y29.8387
G01 X10.2692 Y29.8703
G01 X10.2677 Y29.9021
G01 X10.2677 Y30.5042
G01 X9.9907 Y30.5042
G01 X9.9907 Y29.6913
G01 X9.9892 Y29.6595
G01 X9.9845 Y29.6279
G01 X9.9767 Y29.5970
G01 X9.9660 Y29.5669
G01 X9.9523 Y29.5381
G01 X9.9427 Y29.5220
G00 Z2.0000
G00 X10.0791 Y27.4078
G01 F60.00
G01 Z-0.0600
G01 F70.00
G01 X11.3269 Y27.4078
G01 X11.2118 Y27.5065
G01 X11.1888 Y27.5282
G01 X11.1681 Y27.5520
G01 X11.1497 Y27.5777
G01 X11.1340 Y27.6051
G01 X11.1210 Y27.6339
G01 X11.1108 Y27.6638
G01 X11.1036 Y27.6946
G01 X11.0994 Y27.7259
G01 X11.0983 Y27.7575
G01 X11.1002 Y27.7890
G01 X11.1052 Y27.8202
G01 X11.1132 Y27.8507
G01 X11.1241 Y27.8804
G01 X11.1379 Y27.9088
G01 X11.1543 Y27.9358
G01 X11.1733 Y27.9611
G01 X11.1947 Y27.9843
G01 X11.2343 Y28.0235
G01 X11.2602 Y28.0539
G01 X11.2810 Y28.0836
G01 X11.2974 Y28.1131
G01 X11.3108 Y28.1451
G01 X11.3207 Y28.1784
G01 X11.3268 Y28.2135
G01 X11.3291 Y28.2566
G01 X11.3280 Y28.2890
G01 X11.3243 Y28.3225
G01 X11.3188 Y28.3535
G01 X11.3113 Y28.3824
G01 X11.3019 Y28.4101
G01 X11.2914 Y28.4347
G01 X11.2783 Y28.4592
G01 X11.2635 Y28.4829
G01 X11.2482 Y28.5034
G01 X11.2289 Y28.5252
G01 X11.2076 Y28.5463
G01 X11.1841 Y28.5661
G01 X11.1574 Y28.5855
G01 X11.1271 Y28.6047
G01 X11.0949 Y28.6222
G01 X11.0582 Y28.6390
G01 X11.0190 Y28.6546
G01 X10.9769 Y28.6680
G01 X10.9292 Y28.6807
G01 X10.8799 Y28.6913
G01 X10.8284 Y28.6993
G01 X10.7706 Y28.7055
G01 X10.7109 Y28.7096
G01 X10.6486 Y28.7109
G01 X10.5852 Y28.7096
G01 X10.5250 Y28.7059
G01 X10.4683 Y28.6999
G01 X10.4142 Y28.6914
G01 X10.3630 Y28.6813
G01 X10.3157 Y28.6692
G01 X10.2719 Y28.6557
G01 X10.2321 Y28.6407
G01 X10.1960 Y28.6246
G01 X10.1622 Y28.6067
G01 X10.1306 Y28.5876
G01 X10.1041 Y28.5691
G01 X10.0800 Y28.5493
G01 X10.0581 Y28.5285
G01 X10.0389 Y28.5073
G01 X10.0229 Y28.4869
G01 X10.0086 Y28.4647
G01 X9.9954 Y28.4406
G01 X9.9850 Y28.4170
G01 X9.9758 Y28.3908
G01 X9.9684 Y28.3626
G01 X9.9626 Y28.3315
G01 X9.9591 Y28.2991
G01 X9.9579 Y28.2639
G01 X9.9591 Y28.2302
G01 X9.9625 Y28.2000
G01 X9.9677 Y28.1726
G01 X9.9750 Y28.1466
G01 X9.9846 Y28.1198
G01 X9.9956 Y28.0952
G01 X10.0089 Y28.0710
G01 X10.0252 Y28.0458
G01 X10.0447 Y28.0199
G01 X10.0657 Y27.9954
G01 X10.1386 Y27.9229
G01 X10.1596 Y27.8999
G01 X10.1784 Y27.8751
G01 X10.1946 Y27.8485
G01 X10.2082 Y27.8205
G01 X10.2191 Y27.7913
G01 X10.2272 Y27.7612
G01 X10.2323 Y27.7305
G01 X10.2345 Y27.6995
G01 X10.2337 Y27.6683
G01 X10.2299 Y27.6374
G01 X10.2232 Y27.6070
G01 X10.2136 Y27.5774
G01 X10.2012 Y27.5488
G01 X10.1861 Y27.5216
G01 X10.1685 Y27.4959
G01 X10.1485 Y27.4720
G01 X10.1263 Y27.4502
G01 X10.0791 Y27.4078
G00 Z2.0000
G00 X12.1777 Y27.0827
G01 F60.00
G01 Z-0.0600
G01 F70.00
G01 X12.1761 Y27.1146
G01 X12.1714 Y27.1462
G01 X12.1637 Y27.1771
G01 X12.1529 Y27.2071
G01 X12.1393 Y27.2360
G01 X12.1229 Y27.2633
G01 X12.1039 Y27.2890
G01 X12.0824 Y27.3126
G01 X12.0588 Y27.3340
G01 X12.0332 Y27.3530
G01 X12.0058 Y27.3694
G01 X11.9770 Y27.3831
G01 X11.9469 Y27.3938
G01 X11.9160 Y27.4016
G01 X11.8844 Y27.4063
G01 X11.8684 Y27.4070
G01 X11.9132 Y27.4545
G01 X11.9294 Y27.4732
G01 X11.9644 Y27.5169
G01 X11.9750 Y27.5308
G01 X12.0085 Y27.5775
G01 X12.0199 Y27.5944
G01 X12.0514 Y27.6447
G01 X12.0627 Y27.6644
G01 X12.0912 Y27.7177
G01 X12.1012 Y27.7381
G01 X12.1266 Y27.7950
G01 X12.1351 Y27.8162
G01 X12.1570 Y27.8761
G01 X12.1653 Y27.9022
G01 X12.1825 Y27.9657
G01 X12.1876 Y27.9872
G01 X12.2008 Y28.0533
G01 X12.2049 Y28.0793
G01 X12.2131 Y28.1489
G01 X12.2150 Y28.1729
G01 X12.2180 Y28.2451
G01 X12.2182 Y28.2674
G01 X12.2167 Y28.3243
G01 X12.2159 Y28.3394
G01 X12.2118 Y28.3948
G01 X12.2104 Y28.4099
G01 X12.2038 Y28.4648
G01 X12.2009 Y28.4838
G01 X12.1913 Y28.5371
G01 X12.1880 Y28.5530
G01 X12.1758 Y28.6053
G01 X12.1716 Y28.6213
G01 X12.1569 Y28.6726
G01 X12.1482 Y28.6987
G01 X12.1106 Y28.7973
G01 X12.1007 Y28.8204
G01 X12.0784 Y28.8677
G01 X12.0700 Y28.8841
G01 X12.0451 Y28.9298
G01 X12.0367 Y28.9444
G01 X12.0093 Y28.9891
G01 X11.9982 Y29.0059
G01 X11.9682 Y29.0486
G01 X11.9523 Y29.0694
G01 X11.8853 Y29.1502
G01 X11.8627 Y29.1747
G01 X11.7865 Y29.2494
G01 X11.7598 Y29.2728
G01 X11.6745 Y29.3399
G01 X11.6474 Y29.3590
G01 X11.5735 Y29.4057
G01 X11.5896 Y29.4034
G01 X11.6214 Y29.4018
G01 X11.8526 Y29.4018
G01 X11.8844 Y29.4034
G01 X11.9160 Y29.4080
G01 X11.9469 Y29.4158
G01 X11.9770 Y29.4265
G01 X12.0058 Y29.4402
G01 X12.0332 Y29.4566
G01 X12.0588 Y29.4756
G01 X12.0824 Y29.4970
G01 X12.1039 Y29.5206
G01 X12.1229 Y29.5463
G01 X12.1393 Y29.5736
G01 X12.1529 Y29.6025
G01 X12.1637 Y29.6325
G01 X12.1714 Y29.6635
G01 X12.1761 Y29.6950
G01 X12.1777 Y29.7269
G01 X12.1777 Y31.1036
G01 X12.1761 Y31.1354
G01 X12.1714 Y31.1670
G01 X12.1637 Y31.1979
G01 X12.1529 Y31.2280
G01 X12.1393 Y31.2568
G01 X12.1229 Y31.2842
G01 X12.1039 Y31.3098
G01 X12.0917 Y31.3233
G01 X12.1039 Y31.3368
G01 X12.1229 Y31.3624
G01 X12.1393 Y31.3897
G01 X12.1529 Y31.4186
G01 X12.1637 Y31.4486
G01 X12.1714 Y31.4796
G01 X12.1761 Y31.5111
G01 X12.1777 Y31.5430
G01 X12.1777 Y33.2956
G01 X12.1761 Y33.3274
G01 X12.1714 Y33.3590
G01 X12.1637 Y33.3899
G01 X12.1529 Y33.4200
G01 X12.1393 Y33.4488
G01 X12.1229 Y33.4762
G01 X12.1039 Y33.5018
G01 X12.0824 Y33.5254
G01 X12.0588 Y33.5469
G01 X12.0332 Y33.5659
G01 X12.0058 Y33.5823
G01 X11.9770 Y33.5959
G01 X11.9469 Y33.6067
G01 X11.9160 Y33.6144
G01 X11.8844 Y33.6191
G01 X11.8526 Y33.6207
G01 X11.6214 Y33.6207
G01 X11.5896 Y33.6191
G01 X11.5580 Y33.6144
G01 X11.5271 Y33.6067
G01 X11.4970 Y33.5959
G01 X11.4682 Y33.5823
G01 X11.4408 Y33.5659
G01 X11.4152 Y33.5469
G01 X11.3916 Y33.5254
G01 X11.3701 Y33.5018
G01 X11.3511 Y33.4762
G01 X11.3347 Y33.4488
G01 X11.3211 Y33.4200
G01 X11.3104 Y33.3899
G01 X11.3026 Y33.3590
G01 X11.2979 Y33.3274
G01 X11.2964 Y33.2956
G01 X11.2964 Y32.8841
G01 X9.4345 Y32.8841
G01 X9.4026 Y32.8825
G01 X9.3711 Y32.8778
G01 X9.3401 Y32.8701
G01 X9.3101 Y32.8593
G01 X9.2813 Y32.8457
G01 X9.2539 Y32.8293
G01 X9.2283 Y32.8103
G01 X9.2046 Y32.7888
G01 X9.1832 Y32.7652
G01 X9.1642 Y32.7396
G01 X9.1478 Y32.7122
G01 X9.1342 Y32.6834
G01 X9.1234 Y32.6533
G01 X9.1157 Y32.6224
G01 X9.1110 Y32.5908
G01 X9.1094 Y32.5590
G01 X9.1094 Y32.2821
G01 X9.1110 Y32.2503
G01 X9.1157 Y32.2187
G01 X9.1234 Y32.1878
G01 X9.1342 Y32.1577
G01 X9.1478 Y32.1289
G01 X9.1642 Y32.1015
G01 X9.1832 Y32.0759
G01 X9.2046 Y32.0523
G01 X9.2283 Y32.0308
G01 X9.2539 Y32.0118
G01 X9.2813 Y31.9954
G01 X9.3101 Y31.9818
G01 X9.3401 Y31.9710
G01 X9.3711 Y31.9633
G01 X9.4026 Y31.9586
G01 X9.4345 Y31.9570
G01 X11.2964 Y31.9570
G01 X11.2964 Y31.5430
G01 X11.2979 Y31.5111
G01 X11.3026 Y31.4796
G01 X11.3104 Y31.4486
G01 X11.3175 Y31.4286
G01 X9.4345 Y31.4286
G01 X9.4026 Y31.4271
G01 X9.3711 Y31.4224
G01 X9.3401 Y31.4146
G01 X9.3101 Y31.4039
G01 X9.2813 Y31.3903
G01 X9.2539 Y31.3739
G01 X9.2283 Y31.3549
G01 X9.2046 Y31.3334
G01 X9.1832 Y31.3098
G01 X9.1642 Y31.2842
G01 X9.1478 Y31.2568
G01 X9.1342 Y31.2280
G01 X9.1234 Y31.1979
G01 X9.1157 Y31.1670
G01 X9.1110 Y31.1354
G01 X9.1094 Y31.1036
G01 X9.1094 Y29.6913
G01 X9.1110 Y29.6595
G01 X9.1157 Y29.6279
G01 X9.1234 Y29.5970
G01 X9.1342 Y29.5669
G01 X9.1478 Y29.5381
G01 X9.1642 Y29.5107
G01 X9.1832 Y29.4851
G01 X9.2046 Y29.4615
G01 X9.2283 Y29.4400
G01 X9.2539 Y29.4210
G01 X9.2813 Y29.4046
G01 X9.3101 Y29.3910
G01 X9.3401 Y29.3802
G01 X9.3711 Y29.3725
G01 X9.4026 Y29.3678
G01 X9.4345 Y29.3662
G01 X9.6410 Y29.3662
G01 X9.6291 Y29.3583
G01 X9.6114 Y29.3457
G01 X9.5261 Y29.2801
G01 X9.4989 Y29.2568
G01 X9.4227 Y29.1836
G01 X9.4042 Y29.1643
G01 X9.3696 Y29.1252
G01 X9.3531 Y29.1048
G01 X9.2911 Y29.0220
G01 X9.2709 Y28.9916
G01 X9.2191 Y28.9032
G01 X9.2063 Y28.8791
G01 X9.1839 Y28.8323
G01 X9.1769 Y28.8167
G01 X9.1571 Y28.7690
G01 X9.1506 Y28.7518
G01 X9.1333 Y28.7026
G01 X9.1281 Y28.6864
G01 X9.1134 Y28.6361
G01 X9.1091 Y28.6199
G01 X9.0969 Y28.5686
G01 X9.0934 Y28.5519
G01 X9.0837 Y28.4990
G01 X9.0809 Y28.4802
G01 X9.0743 Y28.4264
G01 X9.0727 Y28.4110
G01 X9.0687 Y28.3566
G01 X9.0679 Y28.3413
G01 X9.0664 Y28.2854
G01 X9.0664 Y28.2658
G01 X9.0690 Y28.1891
G01 X9.0705 Y28.1661
G01 X9.0781 Y28.0930
G01 X9.0815 Y28.0691
G01 X9.0942 Y27.9985
G01 X9.0998 Y27.9733
G01 X9.1176 Y27.9058
G01 X9.1245 Y27.8828
G01 X9.1469 Y27.8178
G01 X9.1562 Y27.7940
G01 X9.1831 Y27.7320
G01 X9.1950 Y27.7074
G01 X9.2270 Y27.6480
G01 X9.2398 Y27.6262
G01 X9.2764 Y27.5694
G01 X9.2886 Y27.5517
G01 X9.3292 Y27.4968
G01 X9.3445 Y27.4778
G01 X9.3897 Y27.4254
G01 X9.4074 Y27.4065
G01 X9.4026 Y27.4063
G01 X9.3711 Y27.4016
G01 X9.3401 Y27.3938
G01 X9.3101 Y27.3831
G01 X9.2813 Y27.3694
G01 X9.2539 Y27.3530
G01 X9.2283 Y27.3340
G01 X9.2046 Y27.3126
G01 X9.1832 Y27.2890
G01 X9.1642 Y27.2633
G01 X9.1478 Y27.2360
G01 X9.1342 Y27.2071
G01 X9.1234 Y27.1771
G01 X9.1157 Y27.1462
G01 X9.1110 Y27.1146
G01 X9.1094 Y27.0827
G01 X9.1094 Y26.8084
G01 X9.1110 Y26.7766
G01 X9.1157 Y26.7450
G01 X9.1234 Y26.7141
G01 X9.1342 Y26.6840
G01 X9.1478 Y26.6552
G01 X9.1642 Y26.6278
G01 X9.1832 Y26.6022
G01 X9.2046 Y26.5786
G01 X9.2283 Y26.5571
G01 X9.2539 Y26.5381
G01 X9.2813 Y26.5217
G01 X9.3101 Y26.5081
G01 X9.3401 Y26.4973
G01 X9.3711 Y26.4896
G01 X9.4026 Y26.4849
G01 X9.4345 Y26.4833
G01 X10.2651 Y26.4833
G01 X10.2651 Y25.9676
G01 X9.4345 Y25.9676
G01 X9.4026 Y25.9661
G01 X9.3711 Y25.9614
G01 X9.3401 Y25.9536
G01 X9.3101 Y25.9429
G01 X9.2813 Y25.9293
G01 X9.2539 Y25.9129
G01 X9.2283 Y25.8939
G01 X9.2046 Y25.8724
G01 X9.1832 Y25.8488
G01 X9.1642 Y25.8232
G01 X9.1478 Y25.7958
G01 X9.1342 Y25.7670
G01 X9.1234 Y25.7369
G01 X9.1157 Y25.7060
G01 X9.1110 Y25.6744
G01 X9.1094 Y25.6426
G01 X9.1094 Y25.3682
G01 X9.1110 Y25.3364
G01 X9.1157 Y25.3048
G01 X9.1234 Y25.2739
G01 X9.1342 Y25.2438
G01 X9.1478 Y25.2150
G01 X9.1642 Y25.1876
G01 X9.1832 Y25.1620
G01 X9.2046 Y25.1384
G01 X9.2283 Y25.1169
G01 X9.2539 Y25.0979
G01 X9.2813 Y25.0815
G01 X9.3101 Y25.0679
G01 X9.3401 Y25.0572
G01 X9.3711 Y25.0494
G01 X9.4026 Y25.0447
G01 X9.4345 Y25.0432
G01 X11.8526 Y25.0432
G01 X11.8844 Y25.0447
G01 X11.9160 Y25.0494
G01 X11.9469 Y25.0572
G01 X11.9770 Y25.0679
G01 X12.0058 Y25.0815
G01 X12.0332 Y25.0979
G01 X12.0588 Y25.1169
G01 X12.0824 Y25.1384
G01 X12.1039 Y25.1620
G01 X12.1229 Y25.1876
G01 X12.1393 Y25.2150
G01 X12.1529 Y25.2438
G01 X12.1637 Y25.2739
G01 X12.1714 Y25.3048
G01 X12.1761 Y25.3364
G01 X12.1777 Y25.3682
G01 X12.1777 Y25.6426
G01 X12.1761 Y25.6744
G01 X12.1714 Y25.7060
G01 X12.1637 Y25.7369
G01 X12.1529 Y25.7670
G01 X12.1393 Y25.7958
G01 X12.1229 Y25.8232
G01 X12.1039 Y25.8488
G01 X12.0824 Y25.8724
G01 X12.0588 Y25.8939
G01 X12.0332 Y25.9129
G01 X12.0058 Y25.9293
G01 X11.9770 Y25.9429
G01 X11.9469 Y25.9536
G01 X11.9160 Y25.9614
G01 X11.8844 Y25.9661
G01 X11.8526 Y25.9676
G01 X11.1540 Y25.9676
G01 X11.1540 Y26.4833
G01 X11.8526 Y26.4833
G01 X11.8844 Y26.4849
G01 X11.9160 Y26.4896
G01 X11.9469 Y26.4973
G01 X11.9770 Y26.5081
G01 X12.0058 Y26.5217
G01 X12.0332 Y26.5381
G01 X12.0588 Y26.5571
G01 X12.0824 Y26.5786
G01 X12.1039 Y26.6022
G01 X12.1229 Y26.6278
G01 X12.1393 Y26.6552
G01 X12.1529 Y26.6840
G01 X12.1637 Y26.7141
G01 X12.1714 Y26.7450
G01 X12.1761 Y26.7766
G01 X12.1777 Y26.8084
G01 X12.1777 Y27.0827
G00 Z2.0000
G00 X4.1639 Y32.0694
G01 F60.00
G01 Z-0.0600
G01 F70.00
G01 X4.1639 Y22.1780
G01 X4.1643 Y22.1620
G01 X4.1667 Y22.1130
G01 X4.1698 Y22.0813
G01 X4.1771 Y22.0327
G01 X4.1833 Y22.0014
G01 X4.1952 Y21.9538
G01 X4.2045 Y21.9233
G01 X4.2210 Y21.8770
G01 X4.2332 Y21.8476
G01 X4.2542 Y21.8032
G01 X4.2692 Y21.7751
G01 X4.2945 Y21.7330
G01 X4.3122 Y21.7064
G01 X4.3414 Y21.6670
G01 X4.3617 Y21.6423
G01 X4.3947 Y21.6060
G01 X4.4172 Y21.5834
G01 X4.4536 Y21.5504
G01 X4.4782 Y21.5302
G01 X4.5177 Y21.5010
G01 X4.5442 Y21.4832
G01 X4.5863 Y21.4580
G01 X4.6144 Y21.4430
G01 X4.6588 Y21.4220
G01 X4.6883 Y21.4098
G01 X4.7345 Y21.3932
G01 X4.7650 Y21.3840
G01 X4.8127 Y21.3720
G01 X4.8440 Y21.3658
G01 X4.8925 Y21.3586
G01 X4.9243 Y21.3555
G01 X4.9733 Y21.3531
G01 X4.9893 Y21.3527
G01 X15.3526 Y21.3527
G01 X15.3792 Y21.3233
G01 X15.4017 Y21.3007
G01 X15.4672 Y21.2414
G01 X15.4918 Y21.2212
G01 X15.5628 Y21.1686
G01 X15.5893 Y21.1508
G01 X15.6651 Y21.1054
G01 X15.6932 Y21.0904
G01 X15.7730 Y21.0526
G01 X15.8025 Y21.0404
G01 X15.8857 Y21.0107
G01 X15.9162 Y21.0014
G01 X16.0019 Y20.9800
G01 X16.0332 Y20.9737
G01 X16.1205 Y20.9608
G01 X16.1523 Y20.9576
G01 X16.2405 Y20.9533
G01 X16.2724 Y20.9533
G01 X16.3606 Y20.9576
G01 X16.3924 Y20.9608
G01 X16.4797 Y20.9737
G01 X16.5110 Y20.9800
G01 X16.5967 Y21.0014
G01 X16.6272 Y21.0107
G01 X16.7104 Y21.0404
G01 X16.7398 Y21.0526
G01 X16.8197 Y21.0904
G01 X16.8478 Y21.1054
G01 X16.9236 Y21.1508
G01 X16.9501 Y21.1686
G01 X17.0210 Y21.2212
G01 X17.0457 Y21.2414
G01 X17.1111 Y21.3007
G01 X17.1337 Y21.3233
G01 X17.1930 Y21.3887
G01 X17.2133 Y21.4134
G01 X17.2659 Y21.4843
G01 X17.2836 Y21.5109
G01 X17.3290 Y21.5866
G01 X17.3440 Y21.6148
G01 X17.3818 Y21.6946
G01 X17.3940 Y21.7241
G01 X17.4238 Y21.8072
G01 X17.4330 Y21.8378
G01 X17.4545 Y21.9234
G01 X17.4607 Y21.9547
G01 X17.4737 Y22.0421
G01 X17.4768 Y22.0738
G01 X17.4811 Y22.1620
G01 X17.4811 Y22.1940
G01 X17.4768 Y22.2822
G01 X17.4737 Y22.3139
G01 X17.4607 Y22.4013
G01 X17.4545 Y22.4326
G01 X17.4330 Y22.5182
G01 X17.4238 Y22.5488
G01 X17.3940 Y22.6319
G01 X17.3818 Y22.6614
G01 X17.3440 Y22.7412
G01 X17.3290 Y22.7694
G01 X17.2836 Y22.8451
G01 X17.2659 Y22.8717
G01 X17.2133 Y22.9426
G01 X17.1930 Y22.9673
G01 X17.1337 Y23.0327
G01 X17.1111 Y23.0553
G01 X17.0457 Y23.1146
G01 X17.0210 Y23.1348
G01 X16.9501 Y23.1874
G01 X16.9236 Y23.2052
G01 X16.8478 Y23.2506
G01 X16.8197 Y23.2656
G01 X16.7398 Y23.3034
G01 X16.7104 Y23.3156
G01 X16.6272 Y23.3453
G01 X16.5967 Y23.3546
G01 X16.5110 Y23.3760
G01 X16.4797 Y23.3823
G01 X16.3924 Y23.3952
G01 X16.3606 Y23.3984
G01 X16.2724 Y23.4027
G01 X16.2405 Y23.4027
G01 X16.1523 Y23.3984
G01 X16.1205 Y23.3952
G01 X16.0332 Y23.3823
G01 X16.0019 Y23.3760
G01 X15.9162 Y23.3546
G01 X15.8857 Y23.3453
G01 X15.8025 Y23.3156
G01 X15.7730 Y23.3034
G01 X15.6932 Y23.2656
G01 X15.6651 Y23.2506
G01 X15.5893 Y23.2052
G01 X15.5628 Y23.1874
G01 X15.4918 Y23.1348
G01 X15.4672 Y23.1146
G01 X15.4017 Y23.0553
G01 X15.3792 Y23.0327
G01 X15.3526 Y23.0033
G01 X5.8146 Y23.0033
G01 X5.8146 Y32.0694
G01 X5.8440 Y32.0960
G01 X5.8665 Y32.1185
G01 X5.9258 Y32.1840
G01 X5.9461 Y32.2086
G01 X5.9987 Y32.2796
G01 X6.0164 Y32.3061
G01 X6.0618 Y32.3819
G01 X6.0768 Y32.4100
G01 X6.1146 Y32.4898
G01 X6.1268 Y32.5193
G01 X6.1566 Y32.6025
G01 X6.1658 Y32.6330
G01 X6.1873 Y32.7187
G01 X6.1935 Y32.7500
G01 X6.2065 Y32.8373
G01 X6.2096 Y32.8691
G01 X6.2139 Y32.9573
G01 X6.2139 Y32.9892
G01 X6.2096 Y33.0774
G01 X6.2065 Y33.1092
G01 X6.1935 Y33.1965
G01 X6.1873 Y33.2278
G01 X6.1658 Y33.3135
G01 X6.1566 Y33.3440
G01 X6.1268 Y33.4272
G01 X6.1146 Y33.4567
G01 X6.0768 Y33.5365
G01 X6.0618 Y33.5646
G01 X6.0164 Y33.6404
G01 X5.9987 Y33.6669
G01 X5.9461 Y33.7379
G01 X5.9258 Y33.7625
G01 X5.8665 Y33.8280
G01 X5.8440 Y33.8505
G01 X5.7785 Y33.9098
G01 X5.7539 Y33.9301
G01 X5.6829 Y33.9827
G01 X5.6564 Y34.0004
G01 X5.5806 Y34.0458
G01 X5.5525 Y34.0608
G01 X5.4727 Y34.0986
G01 X5.4432 Y34.1108
G01 X5.3600 Y34.1406
G01 X5.3295 Y34.1498
G01 X5.2438 Y34.1713
G01 X5.2125 Y34.1775
G01 X5.1252 Y34.1905
G01 X5.0934 Y34.1936
G01 X5.0052 Y34.1979
G01 X4.9733 Y34.1979
G01 X4.8851 Y34.1936
G01 X4.8533 Y34.1905
G01 X4.7660 Y34.1775
G01 X4.7347 Y34.1713
G01 X4.6490 Y34.1498
G01 X4.6185 Y34.1406
G01 X4.5353 Y34.1108
G01 X4.5058 Y34.0986
G01 X4.4260 Y34.0608
G01 X4.3979 Y34.0458
G01 X4.3221 Y34.0004
G01 X4.2956 Y33.9827
G01 X4.2246 Y33.9301
G01 X4.2000 Y33.9098
G01 X4.1345 Y33.8505
G01 X4.1120 Y33.8280
G01 X4.0527 Y33.7625
G01 X4.0324 Y33.7379
G01 X3.9798 Y33.6669
G01 X3.9621 Y33.6404
G01 X3.9167 Y33.5646
G01 X3.9017 Y33.5365
G01 X3.8639 Y33.4567
G01 X3.8517 Y33.4272
G01 X3.8219 Y33.3440
G01 X3.8127 Y33.3135
G01 X3.7912 Y33.2278
G01 X3.7850 Y33.1965
G01 X3.7720 Y33.1092
G01 X3.7689 Y33.0774
G01 X3.7646 Y32.9892
G01 X3.7646 Y32.9573
G01 X3.7689 Y32.8691
G01 X3.7720 Y32.8373
G01 X3.7850 Y32.7500
G01 X3.7912 Y32.7187
G01 X3.8127 Y32.6330
G01 X3.8219 Y32.6025
G01 X3.8517 Y32.5193
G01 X3.8639 Y32.4898
G01 X3.9017 Y32.4100
G01 X3.9167 Y32.3819
G01 X3.9621 Y32.3061
G01 X3.9798 Y32.2796
G01 X4.0324 Y32.2086
G01 X4.0527 Y32.1840
G01 X4.1120 Y32.1185
G01 X4.1345 Y32.0960
G01 X4.1639 Y32.0694
G00 Z2.0000
G00 X10.1242 Y41.0702
G01 F60.00
G01 Z-0.0600
G01 F70.00
G01 X10.1534 Y41.0740
G01 X10.2265 Y41.0811
G01 X10.2408 Y41.0822
G01 X10.3285 Y41.0867
G01 X10.4087 Y41.0882
G01 X11.2557 Y41.0883
G01 X11.2118 Y41.1260
G01 X11.1889 Y41.1476
G01 X11.1682 Y41.1713
G01 X11.1499 Y41.1970
G01 X11.1342 Y41.2243
G01 X11.1211 Y41.2529
G01 X11.1110 Y41.2827
G01 X11.1037 Y41.3134
G01 X11.0995 Y41.3446
G01 X11.0983 Y41.3761
G01 X11.1001 Y41.4075
G01 X11.1050 Y41.4386
G01 X11.1128 Y41.4691
G01 X11.1236 Y41.4987
G01 X11.1372 Y41.5271
G01 X11.1535 Y41.5541
G01 X11.1723 Y41.5793
G01 X11.1935 Y41.6027
G01 X11.2326 Y41.6418
G01 X11.2588 Y41.6731
G01 X11.2807 Y41.7045
G01 X11.2974 Y41.7346
G01 X11.3106 Y41.7663
G01 X11.3206 Y41.8001
G01 X11.3268 Y41.8355
G01 X11.3291 Y41.8787
G01 X11.3280 Y41.9110
G01 X11.3243 Y41.9446
G01 X11.3188 Y41.9755
G01 X11.3113 Y42.0044
G01 X11.3019 Y42.0322
G01 X11.2914 Y42.0568
G01 X11.2783 Y42.0813
G01 X11.2635 Y42.1049
G01 X11.2482 Y42.1254
G01 X11.2289 Y42.1473
G01 X11.2076 Y42.1683
G01 X11.1841 Y42.1881
G01 X11.1574 Y42.2075
G01 X11.1271 Y42.2267
G01 X11.0949 Y42.2442
G01 X11.0582 Y42.2610
G01 X11.0190 Y42.2766
G01 X10.9769 Y42.2900
G01 X10.9292 Y42.3027
G01 X10.8799 Y42.3133
G01 X10.8284 Y42.3214
G01 X10.7706 Y42.3275
G01 X10.7109 Y42.3316
G01 X10.6486 Y42.3329
G01 X10.5852 Y42.3316
G01 X10.5250 Y42.3279
G01 X10.4683 Y42.3219
G01 X10.4142 Y42.3135
G01 X10.3630 Y42.3033
G01 X10.3157 Y42.2912
G01 X10.2719 Y42.2777
G01 X10.2321 Y42.2627
G01 X10.1960 Y42.2466
G01 X10.1622 Y42.2287
G01 X10.1306 Y42.2097
G01 X10.1041 Y42.1911
G01 X10.0800 Y42.1713
G01 X10.0581 Y42.1505
G01 X10.0389 Y42.1294
G01 X10.0229 Y42.1090
G01 X10.0086 Y42.0867
G01 X9.9954 Y42.0627
G01 X9.9850 Y42.0391
G01 X9.9758 Y42.0128
G01 X9.9684 Y41.9846
G01 X9.9626 Y41.9535
G01 X9.9591 Y41.9211
G01 X9.9579 Y41.8859
G01 X9.9591 Y41.8515
G01 X9.9625 Y41.8208
G01 X9.9677 Y41.7932
G01 X9.9752 Y41.7662
G01 X9.9848 Y41.7393
G01 X9.9953 Y41.7159
G01 X10.0085 Y41.6922
G01 X10.0252 Y41.6663
G01 X10.0441 Y41.6412
G01 X10.0673 Y41.6144
G01 X10.0947 Y41.5860
G01 X10.1307 Y41.5526
G01 X10.1529 Y41.5298
G01 X10.1728 Y41.5050
G01 X10.1901 Y41.4784
G01 X10.2048 Y41.4502
G01 X10.2167 Y41.4207
G01 X10.2256 Y41.3902
G01 X10.2315 Y41.3590
G01 X10.2343 Y41.3273
G01 X10.2340 Y41.2955
G01 X10.2306 Y41.2639
G01 X10.2242 Y41.2328
G01 X10.2147 Y41.2025
G01 X10.2023 Y41.1732
G01 X10.1871 Y41.1453
G01 X10.1693 Y41.1190
G01 X10.1490 Y41.0945
G01 X10.1242 Y41.0702
G00 Z2.0000
G00 X15.0318 Y42.5140
G01 F60.00
G01 Z-0.0600
G01 F70.00
G01 X15.0318 Y42.4820
G01 X15.0361 Y42.3938
G01 X15.0392 Y42.3621
G01 X15.0522 Y42.2747
G01 X15.0584 Y42.2434
G01 X15.0799 Y42.1578
G01 X15.0891 Y42.1272
G01 X15.1189 Y42.0441
G01 X15.1311 Y42.0146
G01 X15.1688 Y41.9348
G01 X15.1839 Y41.9066
G01 X15.2293 Y41.8309
G01 X15.2470 Y41.8043
G01 X15.2996 Y41.7334
G01 X15.3199 Y41.7087
G01 X15.3792 Y41.6433
G01 X15.4017 Y41.6207
G01 X15.4672 Y41.5614
G01 X15.4918 Y41.5412
G01 X15.5628 Y41.4886
G01 X15.5893 Y41.4708
G01 X15.6651 Y41.4254
G01 X15.6932 Y41.4104
G01 X15.7730 Y41.3726
G01 X15.8025 Y41.3604
G01 X15.8857 Y41.3307
G01 X15.9162 Y41.3214
G01 X16.0019 Y41.3000
G01 X16.0332 Y41.2937
G01 X16.1205 Y41.2808
G01 X16.1523 Y41.2776
G01 X16.2405 Y41.2733
G01 X16.2724 Y41.2733
G01 X16.3606 Y41.2776
G01 X16.3924 Y41.2808
G01 X16.4797 Y41.2937
G01 X16.5110 Y41.3000
G01 X16.5967 Y41.3214
G01 X16.6272 Y41.3307
G01 X16.7104 Y41.3604
G01 X16.7398 Y41.3726
G01 X16.8197 Y41.4104
G01 X16.8478 Y41.4254
G01 X16.9236 Y41.4708
G01 X16.9501 Y41.4886
G01 X17.0210 Y41.5412
G01 X17.0457 Y41.5614
G01 X17.1111 Y41.6207
G01 X17.1337 Y41.6433
G01 X17.1930 Y41.7087
G01 X17.2133 Y41.7334
G01 X17.2659 Y41.8043
G01 X17.2836 Y41.8309
G01 X17.3290 Y41.9066
G01 X17.3440 Y41.9348
G01 X17.3818 Y42.0146
G01 X17.3940 Y42.0441
G01 X17.4238 Y42.1272
G01 X17.4330 Y42.1578
G01 X17.4545 Y42.2434
G01 X17.4607 Y42.2747
G01 X17.4737 Y42.3621
G01 X17.4768 Y42.3938
G01 X17.4811 Y42.4820
G01 X17.4811 Y42.5140
G01 X17.4768 Y42.6022
G01 X17.4737 Y42.6339
G01 X17.4607 Y42.7213
G01 X17.4545 Y42.7526
G01 X17.4330 Y42.8382
G01 X17.4238 Y42.8688
G01 X17.3940 Y42.9519
G01 X17.3818 Y42.9814
G01 X17.3440 Y43.0612
G01 X17.3290 Y43.0894
G01 X17.2836 Y43.1651
G01 X17.2659 Y43.1917
G01 X17.2133 Y43.2626
G01 X17.1930 Y43.2873
G01 X17.1337 Y43.3527
G01 X17.1111 Y43.3753
G01 X17.0457 Y43.4346
G01 X17.0210 Y43.4548
G01 X16.9501 Y43.5074
G01 X16.9236 Y43.5252
G01 X16.8478 Y43.5706
G01 X16.8197 Y43.5856
G01 X16.7398 Y43.6234
G01 X16.7104 Y43.6356
G01 X16.6272 Y43.6653
G01 X16.5967 Y43.6746
G01 X16.5110 Y43.6960
G01 X16.4797 Y43.7023
G01 X16.3924 Y43.7152
G01 X16.3606 Y43.7184
G01 X16.2724 Y43.7227
G01 X16.2405 Y43.7227
G01 X16.1523 Y43.7184
G01 X16.1205 Y43.7152
G01 X16.0332 Y43.7023
G01 X16.0019 Y43.6960
G01 X15.9162 Y43.6746
G01 X15.8857 Y43.6653
G01 X15.8025 Y43.6356
G01 X15.7730 Y43.6234
G01 X15.6932 Y43.5856
G01 X15.6651 Y43.5706
G01 X15.5893 Y43.5252
G01 X15.5628 Y43.5074
G01 X15.4918 Y43.4548
G01 X15.4672 Y43.4346
G01 X15.4017 Y43.3753
G01 X15.3792 Y43.3527
G01 X15.3199 Y43.2873
G01 X15.2996 Y43.2626
G01 X15.2470 Y43.1917
G01 X15.2293 Y43.1651
G01 X15.1839 Y43.0894
G01 X15.1688 Y43.0612
G01 X15.1311 Y42.9814
G01 X15.1189 Y42.9519
G01 X15.0891 Y42.8688
G01 X15.0799 Y42.8382
G01 X15.0584 Y42.7526
G01 X15.0522 Y42.7213
G01 X15.0392 Y42.6339
G01 X15.0361 Y42.6022
G01 X15.0318 Y42.5140
G00 Z2.0000
G00 X10.6612 Y50.5623
G01 F60.00
G01 Z-0.0600
G01 F70.00
G01 X10.5864 Y50.6181
G01 X10.5599 Y50.6359
G01 X10.4841 Y50.6813
G01 X10.4560 Y50.6963
G01 X10.3761 Y50.7341
G01 X10.3467 Y50.7463
G01 X10.2635 Y50.7760
G01 X10.2330 Y50.7853
G01 X10.1473 Y50.8068
G01 X10.1160 Y50.8130
G01 X10.0286 Y50.8259
G01 X9.9969 Y50.8291
G01 X9.9087 Y50.8334
G01 X9.8768 Y50.8334
G01 X9.8671 Y50.8329
G01 X9.8315 Y50.8347
G01 X9.7995 Y50.8347
G01 X9.7113 Y50.8304
G01 X9.6796 Y50.8272
G01 X9.5922 Y50.8143
G01 X9.5609 Y50.8080
G01 X9.4753 Y50.7866
G01 X9.4447 Y50.7773
G01 X9.3616 Y50.7476
G01 X9.3321 Y50.7354
G01 X9.2523 Y50.6976
G01 X9.2241 Y50.6826
G01 X9.1484 Y50.6372
G01 X9.1218 Y50.6194
G01 X9.0509 Y50.5668
G01 X9.0262 Y50.5466
G01 X8.9608 Y50.4873
G01 X8.9382 Y50.4647
G01 X8.8789 Y50.3993
G01 X8.8587 Y50.3746
G01 X8.8061 Y50.3037
G01 X8.7883 Y50.2771
G01 X8.7429 Y50.2014
G01 X8.7279 Y50.1732
G01 X8.6901 Y50.0934
G01 X8.6779 Y50.0639
G01 X8.6482 Y49.9808
G01 X8.6389 Y49.9502
G01 X8.6175 Y49.8646
G01 X8.6112 Y49.8333
G01 X8.5983 Y49.7459
G01 X8.5951 Y49.7142
G01 X8.5908 Y49.6260
G01 X8.5908 Y49.5940
G01 X8.5951 Y49.5058
G01 X8.5983 Y49.4741
G01 X8.6112 Y49.3867
G01 X8.6175 Y49.3554
G01 X8.6389 Y49.2698
G01 X8.6482 Y49.2392
G01 X8.6779 Y49.1561
G01 X8.6901 Y49.1266
G01 X8.7279 Y49.0468
G01 X8.7429 Y49.0186
G01 X8.7883 Y48.9429
G01 X8.8061 Y48.9163
G01 X8.8587 Y48.8454
G01 X8.8789 Y48.8207
G01 X8.9382 Y48.7553
G01 X8.9608 Y48.7327
G01 X9.0262 Y48.6734
G01 X9.0509 Y48.6532
G01 X9.1218 Y48.6006
G01 X9.1484 Y48.5828
G01 X9.2241 Y48.5374
G01 X9.2523 Y48.5224
G01 X9.3321 Y48.4846
G01 X9.3616 Y48.4724
G01 X9.4447 Y48.4427
G01 X9.4753 Y48.4334
G01 X9.5609 Y48.4120
G01 X9.5922 Y48.4057
G01 X9.6796 Y48.3928
G01 X9.7113 Y48.3896
G01 X9.7995 Y48.3853
G01 X9.8315 Y48.3853
G01 X9.8411 Y48.3858
G01 X9.8768 Y48.3840
G01 X9.9087 Y48.3840
G01 X9.9969 Y48.3884
G01 X10.0286 Y48.3915
G01 X10.1160 Y48.4045
G01 X10.1473 Y48.4107
G01 X10.2330 Y48.4321
G01 X10.2635 Y48.4414
G01 X10.3467 Y48.4712
G01 X10.3761 Y48.4834
G01 X10.4560 Y48.5211
G01 X10.4841 Y48.5362
G01 X10.5599 Y48.5816
G01 X10.5864 Y48.5993
G01 X10.6573 Y48.6519
G01 X10.6820 Y48.6721
G01 X10.7474 Y48.7315
G01 X10.7700 Y48.7540
G01 X10.8293 Y48.8195
G01 X10.8495 Y48.8441
G01 X10.8996 Y48.9117
G01 X15.4316 Y48.9117
G01 X15.4316 Y48.4821
G01 X15.4020 Y48.4553
G01 X15.3794 Y48.4327
G01 X15.3201 Y48.3673
G01 X15.2999 Y48.3426
G01 X15.2473 Y48.2717
G01 X15.2295 Y48.2451
G01 X15.1841 Y48.1694
G01 X15.1691 Y48.1412
G01 X15.1313 Y48.0614
G01 X15.1191 Y48.0319
G01 X15.0894 Y47.9488
G01 X15.0801 Y47.9182
G01 X15.0586 Y47.8326
G01 X15.0524 Y47.8013
G01 X15.0395 Y47.7139
G01 X15.0363 Y47.6822
G01 X15.0320 Y47.5940
G01 X15.0320 Y47.5620
G01 X15.0363 Y47.4738
G01 X15.0395 Y47.4421
G01 X15.0524 Y47.3547
G01 X15.0586 Y47.3234
G01 X15.0801 Y47.2378
G01 X15.0894 Y47.2072
G01 X15.1191 Y47.1241
G01 X15.1313 Y47.0946
G01 X15.1691 Y47.0148
G01 X15.1841 Y46.9866
G01 X15.2295 Y46.9109
G01 X15.2473 Y46.8843
G01 X15.2999 Y46.8134
G01 X15.3201 Y46.7887
G01 X15.3794 Y46.7233
G01 X15.4020 Y46.7007
G01 X15.4674 Y46.6414
G01 X15.4921 Y46.6212
G01 X15.5630 Y46.5686
G01 X15.5896 Y46.5508
G01 X15.6653 Y46.5054
G01 X15.6934 Y46.4904
G01 X15.7733 Y46.4526
G01 X15.8028 Y46.4404
G01 X15.8859 Y46.4107
G01 X15.9164 Y46.4014
G01 X16.0021 Y46.3800
G01 X16.0334 Y46.3737
G01 X16.1208 Y46.3608
G01 X16.1525 Y46.3576
G01 X16.2407 Y46.3533
G01 X16.2726 Y46.3533
G01 X16.3609 Y46.3576
G01 X16.3926 Y46.3608
G01 X16.4800 Y46.3737
G01 X16.5113 Y46.3800
G01 X16.5969 Y46.4014
G01 X16.6275 Y46.4107
G01 X16.7106 Y46.4404
G01 X16.7401 Y46.4526
G01 X16.8199 Y46.4904
G01 X16.8481 Y46.5054
G01 X16.9238 Y46.5508
